; generated by PrusaSlicer 2.3.3+win64 on 2021-10-13 at 14:37:12 UTC


;
;

;
;
; 

; external perimeters extrusion width = 0.45mm
; perimeters extrusion width = 0.45mm
; infill extrusion width = 0.45mm
; solid infill extrusion width = 0.45mm
; top infill extrusion width = 0.40mm
; first layer extrusion width = 0.42mm

M73 P0 R38
M201 X1250 Y1250 Z400 E5000 ; sets maximum accelerations, mm/sec^2
M203 X180 Y180 Z12 E80 ; sets maximum feedrates, mm/sec
M204 P1250 R1250 T1250 ; sets acceleration (P, T) and retract acceleration (R), mm/sec^2
M205 X8.00 Y8.00 Z2.00 E10.00 ; sets the jerk limits, mm/sec
M205 S0 T0 ; sets the minimum extruding and travel feed rate, mm/sec
M107
;TYPE:Custom
G90 ; use absolute coordinates
M83 ; extruder relative mode
M104 S170 ; set extruder temp for bed leveling
M140 S60 ; set bed temp
M109 R170 ; wait for bed leveling temp
M190 S60 ; wait for bed temp
G28 ; home all without mesh bed level
G29 ; mesh bed leveling 
M104 S215 ; set extruder temp
G92 E0.0
G1 Y-2.0 X179 F2400
G1 Z3 F720
M109 S215 ; wait for extruder temp

; intro line
G1 X170 F1000
G1 Z0.2 F720
G1 X110.0 E8.0 F900
M73 P0 R37
G1 X40.0 E10.0 F700
G92 E0.0

M221 S95 ; set flow
G21 ; set units to millimeters
G90 ; use absolute coordinates
M83 ; use relative distances for extrusion
M900 K0.2 ; Filament gcode LA 1.5
; ; Filament gcode LA 1.0
;LAYER_CHANGE
;Z:0.2
;HEIGHT:0.2
;BEFORE_LAYER_CHANGE
G92 E0.0
;0.2


G1 Z0.200 F9000.000
;AFTER_LAYER_CHANGE
;0.2
G1 E-3.20000 F4200.000
G1 Z0.400 F9000.000
G1 X9.917 Y79.680
G1 Z0.200
G1 E3.20000 F2400.000
M204 S800
;TYPE:Skirt
;WIDTH:0.42
G1 F1200.000
G1 X11.005 Y79.623 E0.03417
G1 X171.786 Y81.661 E5.04157
M73 P1 R37
G1 X173.560 Y82.024 E0.05679
G1 X175.082 Y82.687 E0.05204
G1 X176.021 Y83.297 E0.03513
G1 X177.291 Y84.471 E0.05421
G1 X178.261 Y85.823 E0.05216
G1 X178.967 Y87.413 E0.05455
G1 X179.330 Y89.111 E0.05446
G1 X179.339 Y90.786 E0.05252
G1 X179.165 Y91.864 E0.03424
G1 X178.612 Y93.494 E0.05397
G1 X177.779 Y94.922 E0.05182
G1 X176.693 Y96.142 E0.05121
G1 X175.839 Y96.836 E0.03452
G1 X174.409 Y97.652 E0.05163
G1 X172.843 Y98.170 E0.05169
G1 X171.761 Y98.340 E0.03437
G1 X11.030 Y100.377 E5.04001
G1 X10.005 Y100.328 E0.03216
G1 X8.864 Y100.155 E0.03620
G1 X7.909 Y99.904 E0.03095
G1 X6.675 Y99.430 E0.04144
G1 X5.801 Y98.980 E0.03083
G1 X4.890 Y98.388 E0.03406
G1 X4.055 Y97.711 E0.03370
G1 X3.288 Y96.943 E0.03406
G1 X2.606 Y96.102 E0.03394
G1 X2.018 Y95.197 E0.03382
G1 X1.524 Y94.230 E0.03406
G1 X1.167 Y93.310 E0.03095
G1 X0.855 Y92.182 E0.03667
G1 X0.696 Y91.208 E0.03095
G1 X0.626 Y89.885 E0.04155
G1 X0.681 Y88.903 E0.03084
G1 X0.852 Y87.830 E0.03405
G1 X1.131 Y86.792 E0.03370
G1 X1.521 Y85.778 E0.03405
G1 X2.012 Y84.814 E0.03394
G1 X2.599 Y83.909 E0.03382
G1 X3.282 Y83.064 E0.03406
G1 X3.977 Y82.363 E0.03095
G1 X4.880 Y81.620 E0.03668
G1 X5.705 Y81.078 E0.03095
G1 X6.882 Y80.477 E0.04144
G1 X7.805 Y80.127 E0.03095
G1 X8.855 Y79.847 E0.03406
G1 X9.857 Y79.689 E0.03182
M204 S1250
; printing object Road_blocker_Arm_longer.stl id:0 copy 0
G1 E-2.24000 F4200.000
;WIPE_START
G1 F7200.000
G1 X11.005 Y79.623 E-0.63707
G1 X11.501 Y79.629 E-0.27493
;WIPE_END
G1 E-0.04800 F4200.000
G1 Z0.400 F9000.000
G1 X94.354 Y89.617
G1 Z0.200
G1 E3.20000 F2400.000
M204 S800
;TYPE:Perimeter
G1 F1200.000
G1 X94.414 Y89.238 E0.01203
G1 X94.514 Y88.867 E0.01203
G1 X94.651 Y88.509 E0.01203
G1 X94.825 Y88.167 E0.01203
G1 X95.034 Y87.845 E0.01203
G1 X95.276 Y87.547 E0.01204
G1 X95.547 Y87.276 E0.01203
G1 X95.845 Y87.034 E0.01203
G1 X96.167 Y86.825 E0.01204
G1 X96.509 Y86.651 E0.01203
G1 X96.867 Y86.514 E0.01203
G1 X97.238 Y86.414 E0.01203
G1 X97.617 Y86.354 E0.01203
G1 X97.966 Y86.336 E0.01097
G1 X98.378 Y86.354 E0.01294
G1 X98.762 Y86.414 E0.01218
G1 X99.133 Y86.514 E0.01203
G1 X99.491 Y86.651 E0.01203
G1 X99.833 Y86.825 E0.01203
G1 X100.155 Y87.034 E0.01204
G1 X100.453 Y87.276 E0.01203
G1 X100.724 Y87.547 E0.01203
G1 X100.966 Y87.845 E0.01202
G1 X101.175 Y88.167 E0.01203
G1 X101.349 Y88.509 E0.01204
G1 X101.486 Y88.867 E0.01202
G1 X101.586 Y89.238 E0.01203
G1 X101.646 Y89.617 E0.01203
G1 X101.666 Y90.000 E0.01203
G1 X101.646 Y90.383 E0.01203
G1 X101.586 Y90.762 E0.01203
G1 X101.486 Y91.133 E0.01203
G1 X101.349 Y91.491 E0.01202
G1 X101.175 Y91.833 E0.01204
G1 X100.966 Y92.155 E0.01203
G1 X100.724 Y92.453 E0.01202
G1 X100.453 Y92.724 E0.01203
G1 X100.155 Y92.966 E0.01203
G1 X99.833 Y93.175 E0.01204
G1 X99.491 Y93.349 E0.01203
G1 X99.133 Y93.486 E0.01203
G1 X98.762 Y93.586 E0.01203
G1 X98.383 Y93.646 E0.01203
G1 X98.000 Y93.666 E0.01203
G1 X97.617 Y93.646 E0.01203
G1 X97.238 Y93.586 E0.01203
G1 X96.867 Y93.486 E0.01203
G1 X96.509 Y93.349 E0.01203
G1 X96.167 Y93.175 E0.01203
G1 X95.845 Y92.966 E0.01204
G1 X95.547 Y92.724 E0.01203
G1 X95.276 Y92.453 E0.01203
G1 X95.034 Y92.155 E0.01204
G1 X94.825 Y91.833 E0.01203
G1 X94.651 Y91.491 E0.01203
G1 X94.514 Y91.133 E0.01203
G1 X94.414 Y90.762 E0.01203
G1 X94.354 Y90.383 E0.01203
G1 X94.334 Y90.000 E0.01203
G1 X94.351 Y89.677 E0.01015
M204 S1250
G1 X94.728 Y89.697 F9000.000
M204 S800
G1 F1200.000
G1 X94.784 Y89.316 E0.01205
G1 X94.873 Y88.984 E0.01079
G1 X94.996 Y88.663 E0.01079
G1 X95.152 Y88.356 E0.01079
G1 X95.340 Y88.067 E0.01079
G1 X95.556 Y87.800 E0.01079
G1 X95.800 Y87.556 E0.01079
G1 X96.067 Y87.340 E0.01079
G1 X96.356 Y87.152 E0.01079
G1 X96.663 Y86.996 E0.01079
G1 X96.984 Y86.873 E0.01079
G1 X97.316 Y86.784 E0.01079
G1 X97.656 Y86.730 E0.01079
G1 X97.968 Y86.714 E0.00979
G1 X98.341 Y86.729 E0.01170
G1 X98.684 Y86.784 E0.01088
G1 X99.016 Y86.873 E0.01079
G1 X99.337 Y86.996 E0.01079
G1 X99.644 Y87.152 E0.01079
G1 X99.933 Y87.340 E0.01079
G1 X100.200 Y87.557 E0.01079
G1 X100.444 Y87.800 E0.01079
G1 X100.660 Y88.067 E0.01079
G1 X100.848 Y88.356 E0.01079
G1 X101.004 Y88.663 E0.01080
G1 X101.127 Y88.984 E0.01079
G1 X101.216 Y89.316 E0.01079
G1 X101.270 Y89.656 E0.01079
G1 X101.288 Y90.000 E0.01079
G1 X101.270 Y90.344 E0.01079
G1 X101.216 Y90.684 E0.01079
G1 X101.127 Y91.016 E0.01079
G1 X101.004 Y91.337 E0.01079
G1 X100.848 Y91.644 E0.01080
G1 X100.660 Y91.933 E0.01079
G1 X100.444 Y92.200 E0.01079
G1 X100.200 Y92.443 E0.01079
G1 X99.933 Y92.660 E0.01079
G1 X99.644 Y92.848 E0.01079
G1 X99.337 Y93.004 E0.01079
G1 X99.016 Y93.127 E0.01079
G1 X98.684 Y93.216 E0.01079
G1 X98.344 Y93.270 E0.01079
G1 X98.000 Y93.288 E0.01079
G1 X97.656 Y93.270 E0.01079
G1 X97.316 Y93.216 E0.01079
G1 X96.984 Y93.127 E0.01079
G1 X96.663 Y93.004 E0.01079
G1 X96.356 Y92.848 E0.01079
G1 X96.067 Y92.660 E0.01079
G1 X95.800 Y92.444 E0.01079
G1 X95.556 Y92.200 E0.01079
G1 X95.340 Y91.933 E0.01079
G1 X95.152 Y91.644 E0.01079
G1 X94.996 Y91.337 E0.01079
G1 X94.873 Y91.016 E0.01079
G1 X94.784 Y90.684 E0.01079
G1 X94.730 Y90.344 E0.01079
G1 X94.712 Y90.000 E0.01079
G1 X94.725 Y89.756 E0.00765
M204 S1250
G1 X95.101 Y89.776 F9000.000
M204 S800
;TYPE:External perimeter
G1 F1200.000
G1 X95.153 Y89.395 E0.01207
G1 X95.232 Y89.101 E0.00955
G1 X95.341 Y88.816 E0.00955
G1 X95.479 Y88.545 E0.00955
G1 X95.645 Y88.289 E0.00955
G1 X95.837 Y88.052 E0.00955
G1 X96.052 Y87.837 E0.00955
G1 X96.289 Y87.645 E0.00955
G1 X96.545 Y87.479 E0.00955
G1 X96.816 Y87.341 E0.00955
G1 X97.101 Y87.232 E0.00955
G1 X97.395 Y87.153 E0.00955
G1 X97.696 Y87.105 E0.00955
G1 X97.970 Y87.091 E0.00860
G1 X98.303 Y87.105 E0.01046
G1 X98.605 Y87.153 E0.00959
G1 X98.899 Y87.232 E0.00955
G1 X99.184 Y87.341 E0.00955
G1 X99.455 Y87.479 E0.00955
G1 X99.711 Y87.645 E0.00955
G1 X99.948 Y87.837 E0.00955
G1 X100.163 Y88.052 E0.00955
G1 X100.355 Y88.289 E0.00955
G1 X100.521 Y88.545 E0.00955
G1 X100.659 Y88.816 E0.00956
G1 X100.768 Y89.101 E0.00955
G1 X100.847 Y89.395 E0.00955
G1 X100.895 Y89.696 E0.00955
G1 X100.911 Y90.000 E0.00955
G1 X100.895 Y90.304 E0.00955
G1 X100.847 Y90.605 E0.00955
G1 X100.768 Y90.899 E0.00955
G1 X100.659 Y91.184 E0.00955
G1 X100.521 Y91.455 E0.00956
G1 X100.355 Y91.711 E0.00955
G1 X100.163 Y91.948 E0.00955
G1 X99.948 Y92.163 E0.00955
G1 X99.711 Y92.355 E0.00955
G1 X99.455 Y92.521 E0.00955
G1 X99.184 Y92.659 E0.00955
G1 X98.899 Y92.768 E0.00955
G1 X98.605 Y92.847 E0.00955
G1 X98.304 Y92.895 E0.00955
G1 X98.000 Y92.911 E0.00955
G1 X97.696 Y92.895 E0.00955
G1 X97.395 Y92.847 E0.00955
G1 X97.101 Y92.768 E0.00955
G1 X96.816 Y92.659 E0.00955
G1 X96.545 Y92.521 E0.00955
G1 X96.289 Y92.355 E0.00955
G1 X96.052 Y92.163 E0.00955
G1 X95.837 Y91.948 E0.00955
G1 X95.645 Y91.711 E0.00955
G1 X95.479 Y91.455 E0.00955
G1 X95.341 Y91.184 E0.00955
G1 X95.232 Y90.899 E0.00955
G1 X95.153 Y90.605 E0.00955
G1 X95.105 Y90.304 E0.00955
G1 X95.098 Y89.836 E0.01468
M204 S1250
G1 X94.782 Y89.561 F9000.000
G1 E-2.24000 F4200.000
;WIPE_START
G1 F7200.000
G1 X95.153 Y89.395 E-0.24641
G1 X95.232 Y89.101 E-0.16885
G1 X95.341 Y88.816 E-0.16884
G1 X95.479 Y88.545 E-0.16882
G1 X95.636 Y88.304 E-0.15908
;WIPE_END
G1 E-0.04800 F4200.000
G1 Z0.400 F9000.000
G1 X76.666 Y90.000
G1 Z0.200
G1 E3.20000 F2400.000
M204 S800
;TYPE:Perimeter
G1 F1200.000
G1 X76.646 Y90.383 E0.01203
G1 X76.586 Y90.762 E0.01203
G1 X76.486 Y91.133 E0.01203
G1 X76.349 Y91.491 E0.01202
G1 X76.175 Y91.833 E0.01204
G1 X75.965 Y92.155 E0.01203
G1 X75.724 Y92.453 E0.01202
G1 X75.453 Y92.724 E0.01203
G1 X75.155 Y92.966 E0.01203
G1 X74.833 Y93.175 E0.01204
G1 X74.491 Y93.349 E0.01203
G1 X74.133 Y93.486 E0.01203
G1 X73.762 Y93.586 E0.01203
G1 X73.383 Y93.646 E0.01203
G1 X73.000 Y93.666 E0.01203
G1 X72.617 Y93.646 E0.01203
G1 X72.238 Y93.586 E0.01203
G1 X71.867 Y93.486 E0.01203
G1 X71.509 Y93.349 E0.01203
G1 X71.167 Y93.175 E0.01203
G1 X70.845 Y92.966 E0.01204
G1 X70.547 Y92.724 E0.01203
G1 X70.276 Y92.453 E0.01203
G1 X70.034 Y92.155 E0.01204
G1 X69.825 Y91.833 E0.01203
G1 X69.651 Y91.491 E0.01203
G1 X69.514 Y91.133 E0.01203
G1 X69.414 Y90.762 E0.01203
G1 X69.354 Y90.383 E0.01203
G1 X69.334 Y90.000 E0.01203
G1 X69.354 Y89.617 E0.01203
G1 X69.414 Y89.238 E0.01203
G1 X69.514 Y88.867 E0.01203
G1 X69.651 Y88.509 E0.01203
G1 X69.825 Y88.167 E0.01203
G1 X70.034 Y87.845 E0.01203
G1 X70.276 Y87.547 E0.01204
G1 X70.547 Y87.276 E0.01203
G1 X70.845 Y87.034 E0.01203
G1 X71.167 Y86.825 E0.01204
G1 X71.509 Y86.651 E0.01203
G1 X71.867 Y86.514 E0.01203
G1 X72.238 Y86.414 E0.01203
G1 X72.617 Y86.354 E0.01203
G1 X72.966 Y86.336 E0.01097
G1 X73.378 Y86.354 E0.01294
G1 X73.762 Y86.414 E0.01218
G1 X74.133 Y86.514 E0.01203
G1 X74.491 Y86.651 E0.01203
G1 X74.833 Y86.825 E0.01203
G1 X75.155 Y87.034 E0.01204
G1 X75.453 Y87.276 E0.01203
G1 X75.724 Y87.547 E0.01203
G1 X75.965 Y87.845 E0.01202
G1 X76.175 Y88.167 E0.01203
G1 X76.349 Y88.509 E0.01204
G1 X76.486 Y88.867 E0.01202
G1 X76.586 Y89.238 E0.01203
G1 X76.646 Y89.617 E0.01203
G1 X76.663 Y89.940 E0.01015
M204 S1250
G1 X76.286 Y89.960 F9000.000
M204 S800
G1 F1200.000
G1 X76.270 Y90.344 E0.01204
G1 X76.216 Y90.684 E0.01079
G1 X76.127 Y91.016 E0.01079
G1 X76.004 Y91.337 E0.01079
G1 X75.848 Y91.644 E0.01080
G1 X75.660 Y91.933 E0.01079
G1 X75.444 Y92.200 E0.01079
G1 X75.200 Y92.443 E0.01079
G1 X74.933 Y92.660 E0.01079
G1 X74.644 Y92.848 E0.01080
G1 X74.337 Y93.004 E0.01079
G1 X74.016 Y93.127 E0.01079
G1 X73.684 Y93.216 E0.01079
G1 X73.344 Y93.270 E0.01079
G1 X73.000 Y93.288 E0.01079
G1 X72.656 Y93.270 E0.01079
G1 X72.316 Y93.216 E0.01079
G1 X71.984 Y93.127 E0.01079
G1 X71.663 Y93.004 E0.01079
G1 X71.356 Y92.848 E0.01079
G1 X71.067 Y92.660 E0.01080
G1 X70.800 Y92.444 E0.01079
G1 X70.556 Y92.200 E0.01079
G1 X70.340 Y91.933 E0.01079
G1 X70.152 Y91.644 E0.01079
G1 X69.996 Y91.337 E0.01079
G1 X69.873 Y91.016 E0.01079
G1 X69.784 Y90.684 E0.01079
G1 X69.730 Y90.344 E0.01079
G1 X69.712 Y90.000 E0.01079
G1 X69.730 Y89.656 E0.01079
G1 X69.784 Y89.316 E0.01079
G1 X69.873 Y88.984 E0.01079
G1 X69.996 Y88.663 E0.01079
G1 X70.152 Y88.356 E0.01079
G1 X70.340 Y88.067 E0.01079
G1 X70.556 Y87.800 E0.01079
G1 X70.800 Y87.556 E0.01079
G1 X71.067 Y87.340 E0.01079
G1 X71.356 Y87.152 E0.01080
G1 X71.663 Y86.996 E0.01079
G1 X71.984 Y86.873 E0.01079
G1 X72.316 Y86.784 E0.01079
G1 X72.656 Y86.730 E0.01079
G1 X72.968 Y86.714 E0.00979
G1 X73.341 Y86.729 E0.01170
G1 X73.684 Y86.784 E0.01088
G1 X74.016 Y86.873 E0.01079
G1 X74.337 Y86.996 E0.01079
G1 X74.644 Y87.152 E0.01079
G1 X74.933 Y87.340 E0.01080
G1 X75.200 Y87.557 E0.01079
G1 X75.444 Y87.800 E0.01079
G1 X75.660 Y88.067 E0.01079
G1 X75.848 Y88.356 E0.01079
G1 X76.004 Y88.663 E0.01080
G1 X76.127 Y88.984 E0.01079
G1 X76.216 Y89.316 E0.01079
G1 X76.270 Y89.656 E0.01079
G1 X76.283 Y89.900 E0.00765
M204 S1250
G1 X75.906 Y89.920 F9000.000
M204 S800
;TYPE:External perimeter
G1 F1200.000
G1 X75.895 Y90.304 E0.01206
G1 X75.847 Y90.605 E0.00955
G1 X75.768 Y90.899 E0.00955
G1 X75.659 Y91.184 E0.00955
G1 X75.521 Y91.455 E0.00956
G1 X75.355 Y91.711 E0.00955
G1 X75.163 Y91.948 E0.00955
G1 X74.948 Y92.163 E0.00955
G1 X74.711 Y92.355 E0.00955
G1 X74.455 Y92.521 E0.00955
G1 X74.184 Y92.659 E0.00955
G1 X73.899 Y92.768 E0.00955
G1 X73.605 Y92.847 E0.00955
G1 X73.304 Y92.895 E0.00955
G1 X73.000 Y92.911 E0.00955
G1 X72.696 Y92.895 E0.00955
G1 X72.395 Y92.847 E0.00955
G1 X72.101 Y92.768 E0.00955
G1 X71.816 Y92.659 E0.00955
G1 X71.545 Y92.521 E0.00955
G1 X71.289 Y92.355 E0.00955
G1 X71.052 Y92.163 E0.00955
G1 X70.837 Y91.948 E0.00955
G1 X70.645 Y91.711 E0.00955
G1 X70.479 Y91.455 E0.00955
G1 X70.341 Y91.184 E0.00955
G1 X70.232 Y90.899 E0.00955
G1 X70.153 Y90.605 E0.00955
G1 X70.105 Y90.304 E0.00955
G1 X70.089 Y90.000 E0.00955
G1 X70.105 Y89.696 E0.00955
G1 X70.153 Y89.395 E0.00955
G1 X70.232 Y89.101 E0.00955
G1 X70.341 Y88.816 E0.00955
G1 X70.479 Y88.545 E0.00955
G1 X70.645 Y88.289 E0.00955
G1 X70.837 Y88.052 E0.00955
G1 X71.052 Y87.837 E0.00955
G1 X71.289 Y87.645 E0.00955
G1 X71.545 Y87.479 E0.00955
G1 X71.816 Y87.341 E0.00955
G1 X72.101 Y87.232 E0.00955
G1 X72.395 Y87.153 E0.00955
G1 X72.696 Y87.105 E0.00955
G1 X72.970 Y87.091 E0.00860
G1 X73.303 Y87.105 E0.01046
G1 X73.605 Y87.153 E0.00959
G1 X73.899 Y87.232 E0.00955
G1 X74.184 Y87.341 E0.00955
G1 X74.455 Y87.479 E0.00955
G1 X74.711 Y87.645 E0.00955
G1 X74.948 Y87.837 E0.00955
G1 X75.163 Y88.052 E0.00955
G1 X75.355 Y88.289 E0.00955
G1 X75.521 Y88.545 E0.00955
G1 X75.659 Y88.816 E0.00956
G1 X75.768 Y89.101 E0.00955
G1 X75.847 Y89.395 E0.00955
G1 X75.903 Y89.860 E0.01468
M204 S1250
G1 X76.246 Y90.100 F9000.000
G1 E-2.24000 F4200.000
;WIPE_START
G1 F7200.000
G1 X75.895 Y90.304 E-0.24635
G1 X75.847 Y90.605 E-0.16886
G1 X75.768 Y90.899 E-0.16882
G1 X75.659 Y91.184 E-0.16878
G1 X75.529 Y91.440 E-0.15919
;WIPE_END
G1 E-0.04800 F4200.000
G1 Z0.400 F9000.000
G1 X51.666 Y90.000
G1 Z0.200
G1 E3.20000 F2400.000
M204 S800
;TYPE:Perimeter
G1 F1200.000
G1 X51.646 Y90.383 E0.01203
G1 X51.586 Y90.762 E0.01204
G1 X51.486 Y91.133 E0.01203
G1 X51.349 Y91.491 E0.01202
G1 X51.175 Y91.833 E0.01204
G1 X50.965 Y92.155 E0.01203
G1 X50.724 Y92.453 E0.01202
G1 X50.453 Y92.724 E0.01203
G1 X50.155 Y92.966 E0.01203
G1 X49.833 Y93.175 E0.01204
G1 X49.491 Y93.349 E0.01203
G1 X49.133 Y93.486 E0.01203
G1 X48.762 Y93.586 E0.01203
G1 X48.383 Y93.646 E0.01203
G1 X48.000 Y93.666 E0.01203
G1 X47.617 Y93.646 E0.01203
G1 X47.238 Y93.586 E0.01203
G1 X46.867 Y93.486 E0.01203
G1 X46.509 Y93.349 E0.01203
G1 X46.167 Y93.175 E0.01203
G1 X45.845 Y92.966 E0.01204
G1 X45.547 Y92.724 E0.01203
G1 X45.276 Y92.453 E0.01203
G1 X45.034 Y92.155 E0.01204
G1 X44.825 Y91.833 E0.01203
G1 X44.651 Y91.491 E0.01203
G1 X44.514 Y91.133 E0.01203
G1 X44.414 Y90.762 E0.01203
G1 X44.354 Y90.383 E0.01203
G1 X44.334 Y90.000 E0.01203
G1 X44.354 Y89.617 E0.01203
G1 X44.414 Y89.238 E0.01203
G1 X44.514 Y88.867 E0.01203
G1 X44.651 Y88.509 E0.01203
G1 X44.825 Y88.167 E0.01203
G1 X45.034 Y87.845 E0.01203
G1 X45.276 Y87.547 E0.01204
G1 X45.547 Y87.276 E0.01203
G1 X45.845 Y87.034 E0.01203
G1 X46.167 Y86.825 E0.01204
G1 X46.509 Y86.651 E0.01203
G1 X46.867 Y86.514 E0.01203
G1 X47.238 Y86.414 E0.01203
G1 X47.617 Y86.354 E0.01203
G1 X47.966 Y86.336 E0.01097
G1 X48.378 Y86.354 E0.01294
G1 X48.762 Y86.414 E0.01218
G1 X49.133 Y86.514 E0.01203
G1 X49.491 Y86.651 E0.01203
G1 X49.833 Y86.825 E0.01203
G1 X50.155 Y87.034 E0.01204
G1 X50.453 Y87.276 E0.01203
G1 X50.724 Y87.547 E0.01203
G1 X50.965 Y87.845 E0.01202
G1 X51.175 Y88.167 E0.01203
G1 X51.349 Y88.509 E0.01204
G1 X51.486 Y88.867 E0.01202
