; generated by PrusaSlicer 2.3.3+win64 on 2021-10-08 at 09:15:50 UTC


;
;

;
;
; 

; external perimeters extrusion width = 0.45mm
; perimeters extrusion width = 0.45mm
; infill extrusion width = 0.45mm
; solid infill extrusion width = 0.45mm
; top infill extrusion width = 0.40mm
; first layer extrusion width = 0.42mm

M73 P0 R43
M201 X1250 Y1250 Z400 E5000 ; sets maximum accelerations, mm/sec^2
M203 X180 Y180 Z12 E80 ; sets maximum feedrates, mm/sec
M204 P1250 R1250 T1250 ; sets acceleration (P, T) and retract acceleration (R), mm/sec^2
M205 X8.00 Y8.00 Z2.00 E10.00 ; sets the jerk limits, mm/sec
M205 S0 T0 ; sets the minimum extruding and travel feed rate, mm/sec
M107
;TYPE:Custom
G90 ; use absolute coordinates
M83 ; extruder relative mode
M104 S170 ; set extruder temp for bed leveling
M140 S60 ; set bed temp
M109 R170 ; wait for bed leveling temp
M190 S60 ; wait for bed temp
G28 ; home all without mesh bed level
G29 ; mesh bed leveling 
M104 S215 ; set extruder temp
G92 E0.0
G1 Y-2.0 X179 F2400
G1 Z3 F720
M109 S215 ; wait for extruder temp

; intro line
G1 X170 F1000
G1 Z0.2 F720
G1 X110.0 E8.0 F900
G1 X40.0 E10.0 F700
G92 E0.0

M221 S95 ; set flow
G21 ; set units to millimeters
G90 ; use absolute coordinates
M83 ; use relative distances for extrusion
M900 K0.2 ; Filament gcode LA 1.5
; ; Filament gcode LA 1.0
;LAYER_CHANGE
;Z:0.2
;HEIGHT:0.2
;BEFORE_LAYER_CHANGE
G92 E0.0
;0.2


G1 Z0.200 F9000.000
;AFTER_LAYER_CHANGE
;0.2
G1 E-3.20000 F4200.000
G1 Z0.400 F9000.000
G1 X57.768 Y54.183
G1 Z0.200
G1 E3.20000 F2400.000
M204 S800
;TYPE:Skirt
;WIDTH:0.42
G1 F1200.000
G1 X58.170 Y53.483 E0.02532
G1 X58.538 Y53.125 E0.01609
G1 X58.975 Y52.855 E0.01609
G1 X59.459 Y52.685 E0.01609
G1 X59.968 Y52.623 E0.01609
G1 X120.004 Y52.623 E1.88237
G1 X120.899 Y52.799 E0.02860
G1 X121.662 Y53.300 E0.02860
G1 X122.179 Y54.051 E0.02860
G1 X122.376 Y54.942 E0.02860
G1 X122.377 Y125.019 E2.19722
G1 X122.232 Y125.817 E0.02543
G1 X121.830 Y126.517 E0.02532
G1 X121.459 Y126.877 E0.01621
G1 X121.015 Y127.150 E0.01633
G1 X120.526 Y127.318 E0.01621
G1 X120.013 Y127.377 E0.01621
G1 X59.981 Y127.377 E1.88225
M73 P1 R43
G1 X59.183 Y127.232 E0.02543
G1 X58.483 Y126.830 E0.02532
G1 X58.123 Y126.459 E0.01621
G1 X57.850 Y126.015 E0.01633
G1 X57.682 Y125.526 E0.01621
G1 X57.623 Y125.009 E0.01633
G1 X57.623 Y54.981 E2.19567
G1 X57.757 Y54.242 E0.02355
M204 S1250
; printing object road_blocker_test.stl id:0 copy 0
G1 E-2.24000 F4200.000
;WIPE_START
G1 F7200.000
G1 X58.170 Y53.483 E-0.47888
G1 X58.538 Y53.125 E-0.28441
G1 X58.767 Y52.984 E-0.14871
;WIPE_END
G1 E-0.04800 F4200.000
G1 Z0.400 F9000.000
G1 X88.070 Y103.858
G1 Z0.200
G1 E3.20000 F2400.000
M204 S800
;TYPE:External perimeter
G1 F1200.000
G1 X88.326 Y103.711 E0.00925
G1 X88.606 Y103.620 E0.00924
G1 X88.877 Y103.590 E0.00854
G1 X89.052 Y103.597 E0.00548
G1 X89.336 Y103.658 E0.00912
G1 X89.606 Y103.778 E0.00925
G1 X89.844 Y103.951 E0.00925
G1 X90.042 Y104.170 E0.00925
G1 X90.189 Y104.426 E0.00925
G1 X90.281 Y104.707 E0.00925
G1 X90.311 Y105.000 E0.00925
G1 X90.281 Y105.293 E0.00925
G1 X90.189 Y105.574 E0.00925
G1 X90.044 Y105.826 E0.00912
G1 X89.932 Y105.960 E0.00548
G1 X89.729 Y106.142 E0.00854
G1 X89.474 Y106.289 E0.00924
G1 X89.193 Y106.381 E0.00925
G1 X88.900 Y106.411 E0.00925
G1 X88.607 Y106.381 E0.00925
G1 X88.326 Y106.289 E0.00925
G1 X88.070 Y106.142 E0.00925
G1 X87.851 Y105.944 E0.00925
G1 X87.678 Y105.706 E0.00925
G1 X87.558 Y105.436 E0.00925
G1 X87.497 Y105.153 E0.00908
G1 X87.497 Y104.847 E0.00959
G1 X87.558 Y104.564 E0.00908
G1 X87.678 Y104.294 E0.00925
G1 X87.851 Y104.056 E0.00925
G1 X88.026 Y103.898 E0.00737
M204 S1250
G1 X88.040 Y103.565 F9000.000
G1 E-2.24000 F4200.000
;WIPE_START
G1 F7200.000
G1 X88.326 Y103.711 E-0.19618
G1 X88.606 Y103.620 E-0.16334
G1 X88.877 Y103.590 E-0.15101
G1 X89.052 Y103.597 E-0.09684
G1 X89.336 Y103.658 E-0.16111
G1 X89.573 Y103.763 E-0.14352
;WIPE_END
G1 E-0.04800 F4200.000
G1 Z0.400 F9000.000
G1 X63.690 Y98.690
G1 Z0.200
G1 E3.20000 F2400.000
M204 S800
G1 F1200.000
G1 X87.010 Y98.690 E0.73118
G1 X87.010 Y111.310 E0.39569
G1 X63.690 Y111.310 E0.73118
G1 X63.690 Y98.750 E0.39381
M204 S1250
G1 X63.550 Y98.315 F9000.000
G1 E-2.24000 F4200.000
;WIPE_START
G1 F7200.000
G1 X65.336 Y98.746 E-0.91200
;WIPE_END
G1 E-0.04800 F4200.000
G1 Z0.400 F9000.000
G1 X61.950 Y103.598
G1 Z0.200
G1 E3.20000 F2400.000
M204 S800
G1 F1200.000
G1 X62.235 Y103.658 E0.00915
G1 X62.506 Y103.778 E0.00927
G1 X62.744 Y103.951 E0.00925
G1 X62.942 Y104.170 E0.00925
G1 X63.089 Y104.426 E0.00925
G1 X63.181 Y104.707 E0.00925
G1 X63.211 Y105.000 E0.00925
G1 X63.181 Y105.293 E0.00925
G1 X63.089 Y105.574 E0.00925
G1 X62.942 Y105.830 E0.00925
G1 X62.744 Y106.049 E0.00925
G1 X62.506 Y106.222 E0.00925
G1 X62.241 Y106.340 E0.00908
G1 X62.086 Y106.381 E0.00501
G1 X61.797 Y106.408 E0.00910
G1 X61.506 Y106.374 E0.00921
G1 X61.350 Y106.322 E0.00515
G1 X61.092 Y106.183 E0.00917
G1 X60.876 Y105.980 E0.00932
G1 X60.723 Y105.736 E0.00902
G1 X60.673 Y105.593 E0.00476
G1 X60.616 Y105.349 E0.00783
G1 X60.588 Y105.000 E0.01099
G1 X60.616 Y104.651 E0.01099
G1 X60.673 Y104.407 E0.00783
G1 X60.723 Y104.264 E0.00476
G1 X60.876 Y104.020 E0.00902
G1 X61.092 Y103.817 E0.00932
G1 X61.350 Y103.678 E0.00917
G1 X61.505 Y103.627 E0.00514
G1 X61.890 Y103.597 E0.01209
M204 S1250
G1 X62.118 Y103.360 F9000.000
G1 E-2.24000 F4200.000
;WIPE_START
G1 F7200.000
G1 X62.235 Y103.658 E-0.19451
G1 X62.506 Y103.778 E-0.16380
G1 X62.744 Y103.951 E-0.16356
G1 X62.942 Y104.170 E-0.16350
G1 X63.089 Y104.426 E-0.16357
G1 X63.125 Y104.534 E-0.06306
;WIPE_END
G1 E-0.04800 F4200.000
G1 Z0.400 F9000.000
G1 X84.847 Y83.846
G1 Z0.200
G1 E3.20000 F2400.000
M204 S800
;TYPE:Perimeter
G1 F1200.000
G1 X84.615 Y83.445 E0.01453
G1 X84.518 Y83.193 E0.00848
G1 X84.422 Y82.739 E0.01453
G1 X84.422 Y82.261 E0.01502
G1 X84.519 Y81.804 E0.01462
G1 X84.625 Y81.535 E0.00908
G1 X84.847 Y81.153 E0.01386
G1 X85.157 Y80.809 E0.01450
G1 X85.367 Y80.639 E0.00848
G1 X85.768 Y80.407 E0.01453
G1 X86.223 Y80.260 E0.01501
G1 X86.664 Y80.213 E0.01388
G1 X93.736 Y80.213 E0.22175
G1 X94.177 Y80.260 E0.01388
G1 X94.632 Y80.407 E0.01501
G1 X95.033 Y80.639 E0.01453
G1 X95.243 Y80.809 E0.00848
G1 X95.553 Y81.154 E0.01453
G1 X95.793 Y81.568 E0.01501
G1 X95.940 Y82.024 E0.01501
G1 X95.991 Y82.500 E0.01502
G1 X95.942 Y82.961 E0.01453
G1 X95.872 Y83.222 E0.00848
G1 X95.690 Y83.631 E0.01404
G1 X95.543 Y83.858 E0.00848
G1 X95.243 Y84.191 E0.01404
G1 X95.033 Y84.361 E0.00848
G1 X94.645 Y84.585 E0.01404
G1 X94.393 Y84.682 E0.00848
G1 X93.940 Y84.778 E0.01452
G1 X86.664 Y84.787 E0.22812
G1 X86.223 Y84.740 E0.01389
G1 X85.768 Y84.593 E0.01501
G1 X85.367 Y84.361 E0.01453
G1 X85.157 Y84.191 E0.00848
G1 X84.887 Y83.891 E0.01265
M204 S1250
G1 X85.167 Y83.639 F9000.000
M204 S800
;TYPE:External perimeter
G1 F1200.000
G1 X84.957 Y83.282 E0.01298
G1 X84.881 Y83.085 E0.00662
G1 X84.799 Y82.700 E0.01235
G1 X84.799 Y82.300 E0.01253
G1 X84.881 Y81.914 E0.01239
G1 X84.966 Y81.700 E0.00720
G1 X85.154 Y81.376 E0.01175
G1 X85.417 Y81.084 E0.01234
G1 X85.581 Y80.951 E0.00662
G1 X85.923 Y80.754 E0.01235
G1 X86.302 Y80.630 E0.01253
G1 X86.684 Y80.590 E0.01202
G1 X93.716 Y80.590 E0.22050
G1 X94.098 Y80.630 E0.01202
G1 X94.477 Y80.754 E0.01253
G1 X94.819 Y80.951 E0.01235
G1 X94.983 Y81.084 E0.00662
G1 X95.246 Y81.376 E0.01235
G1 X95.446 Y81.723 E0.01253
G1 X95.570 Y82.103 E0.01253
G1 X95.611 Y82.500 E0.01253
G1 X95.570 Y82.892 E0.01236
G1 X95.516 Y83.096 E0.00661
G1 X95.358 Y83.451 E0.01218
G1 X95.243 Y83.628 E0.00662
G1 X94.983 Y83.916 E0.01218
G1 X94.819 Y84.049 E0.00662
G1 X94.482 Y84.243 E0.01218
G1 X94.285 Y84.319 E0.00662
G1 X93.900 Y84.401 E0.01235
G1 X86.684 Y84.410 E0.22626
G1 X86.302 Y84.370 E0.01202
G1 X85.923 Y84.246 E0.01253
G1 X85.581 Y84.049 E0.01235
G1 X85.417 Y83.916 E0.00662
G1 X85.207 Y83.683 E0.00983
M204 S1250
G1 X84.769 Y83.677 F9000.000
G1 E-2.24000 F4200.000
;WIPE_START
G1 F7200.000
G1 X84.957 Y83.282 E-0.26208
G1 X84.881 Y83.085 E-0.11697
G1 X84.799 Y82.700 E-0.21836
G1 X84.799 Y82.300 E-0.22147
G1 X84.834 Y82.136 E-0.09312
;WIPE_END
G1 E-0.04800 F4200.000
G1 Z0.400 F9000.000
G1 X83.117 Y81.048
G1 Z0.200
G1 E3.20000 F2400.000
M204 S800
;TYPE:Perimeter
G1 F1200.000
G1 X82.448 Y81.717 E0.02966
G1 X81.712 Y82.312 E0.02966
G1 X80.919 Y82.827 E0.02966
G1 X80.076 Y83.257 E0.02966
G1 X79.193 Y83.596 E0.02966
G1 X78.279 Y83.841 E0.02966
G1 X77.345 Y83.989 E0.02966
G1 X76.400 Y84.038 E0.02966
G1 X75.455 Y83.989 E0.02966
G1 X74.521 Y83.841 E0.02966
G1 X73.607 Y83.596 E0.02966
G1 X72.724 Y83.257 E0.02966
G1 X71.881 Y82.827 E0.02966
G1 X71.088 Y82.312 E0.02966
G1 X70.352 Y81.717 E0.02966
G1 X69.683 Y81.048 E0.02966
G1 X69.088 Y80.312 E0.02966
G1 X68.573 Y79.519 E0.02966
G1 X68.143 Y78.676 E0.02966
G1 X67.804 Y77.793 E0.02966
G1 X67.559 Y76.879 E0.02966
G1 X67.411 Y75.945 E0.02966
G1 X67.362 Y75.000 E0.02966
G1 X67.411 Y74.055 E0.02966
G1 X67.559 Y73.121 E0.02966
G1 X67.804 Y72.207 E0.02966
G1 X68.143 Y71.324 E0.02966
G1 X68.573 Y70.481 E0.02966
G1 X69.088 Y69.688 E0.02966
G1 X69.683 Y68.952 E0.02966
G1 X70.352 Y68.283 E0.02966
G1 X71.088 Y67.688 E0.02966
G1 X71.881 Y67.173 E0.02966
G1 X72.724 Y66.743 E0.02966
G1 X73.607 Y66.404 E0.02966
G1 X74.521 Y66.159 E0.02966
G1 X75.455 Y66.011 E0.02966
G1 X76.400 Y65.962 E0.02966
G1 X77.345 Y66.011 E0.02966
G1 X78.279 Y66.159 E0.02966
G1 X79.193 Y66.404 E0.02966
G1 X80.076 Y66.743 E0.02966
G1 X80.919 Y67.173 E0.02966
G1 X81.712 Y67.688 E0.02966
G1 X82.448 Y68.283 E0.02966
G1 X83.117 Y68.952 E0.02966
G1 X83.712 Y69.688 E0.02966
G1 X84.227 Y70.481 E0.02966
G1 X84.657 Y71.324 E0.02966
G1 X84.996 Y72.207 E0.02966
G1 X85.241 Y73.121 E0.02966
G1 X85.389 Y74.055 E0.02966
G1 X85.438 Y75.000 E0.02966
G1 X85.389 Y75.945 E0.02966
G1 X85.241 Y76.879 E0.02966
G1 X84.996 Y77.793 E0.02966
G1 X84.657 Y78.676 E0.02966
G1 X84.227 Y79.519 E0.02966
G1 X83.712 Y80.312 E0.02966
G1 X83.154 Y81.001 E0.02778
M204 S1250
G1 X82.861 Y80.764 F9000.000
M204 S800
;TYPE:External perimeter
G1 F1200.000
G1 X82.195 Y81.436 E0.02968
G1 X81.491 Y82.007 E0.02842
G1 X80.730 Y82.500 E0.02842
G1 X79.923 Y82.912 E0.02842
G1 X79.076 Y83.237 E0.02842
G1 X78.201 Y83.471 E0.02842
G1 X77.305 Y83.613 E0.02842
G1 X76.400 Y83.661 E0.02842
G1 X75.495 Y83.613 E0.02842
G1 X74.599 Y83.471 E0.02842
G1 X73.724 Y83.237 E0.02842
G1 X72.877 Y82.912 E0.02842
G1 X72.070 Y82.500 E0.02842
G1 X71.309 Y82.007 E0.02842
G1 X70.605 Y81.436 E0.02842
G1 X69.964 Y80.795 E0.02842
G1 X69.393 Y80.091 E0.02842
G1 X68.900 Y79.330 E0.02842
G1 X68.488 Y78.523 E0.02842
G1 X68.163 Y77.676 E0.02842
G1 X67.929 Y76.801 E0.02842
G1 X67.787 Y75.905 E0.02842
G1 X67.739 Y75.000 E0.02842
G1 X67.787 Y74.095 E0.02842
G1 X67.929 Y73.199 E0.02842
G1 X68.163 Y72.324 E0.02842
G1 X68.488 Y71.477 E0.02842
G1 X68.900 Y70.670 E0.02842
G1 X69.393 Y69.909 E0.02842
G1 X69.964 Y69.205 E0.02842
G1 X70.605 Y68.564 E0.02842
G1 X71.309 Y67.993 E0.02842
G1 X72.070 Y67.500 E0.02842
G1 X72.877 Y67.088 E0.02842
G1 X73.724 Y66.763 E0.02842
G1 X74.599 Y66.529 E0.02842
G1 X75.495 Y66.387 E0.02842
G1 X76.400 Y66.339 E0.02842
G1 X77.305 Y66.387 E0.02842
G1 X78.201 Y66.529 E0.02842
G1 X79.076 Y66.763 E0.02842
G1 X79.923 Y67.088 E0.02842
G1 X80.730 Y67.500 E0.02842
G1 X81.491 Y67.993 E0.02842
G1 X82.195 Y68.564 E0.02842
G1 X82.836 Y69.205 E0.02842
G1 X83.407 Y69.909 E0.02842
G1 X83.900 Y70.670 E0.02842
G1 X84.312 Y71.477 E0.02842
G1 X84.637 Y72.324 E0.02842
G1 X84.871 Y73.199 E0.02842
G1 X85.013 Y74.095 E0.02842
G1 X85.061 Y75.000 E0.02842
G1 X85.013 Y75.905 E0.02842
G1 X84.871 Y76.801 E0.02842
G1 X84.637 Y77.676 E0.02842
G1 X84.312 Y78.523 E0.02842
G1 X83.900 Y79.330 E0.02842
G1 X83.407 Y80.091 E0.02842
G1 X82.899 Y80.717 E0.02528
M204 S1250
G1 X82.986 Y81.144 F9000.000
G1 E-2.24000 F4200.000
;WIPE_START
G1 F7200.000
G1 X82.195 Y81.436 E-0.55761
G1 X81.698 Y81.838 E-0.35439
;WIPE_END
G1 E-0.04800 F4200.000
G1 Z0.400 F9000.000
G1 X70.157 Y67.394
G1 Z0.200
G1 E3.20000 F2400.000
M204 S800
;TYPE:Perimeter
G1 F1200.000
G1 X69.931 Y67.645 E0.01059
G1 X69.670 Y67.834 E0.01010
G1 X69.376 Y67.965 E0.01010
G1 X69.061 Y68.032 E0.01010
G1 X68.739 Y68.032 E0.01010
G1 X68.424 Y67.965 E0.01010
G1 X68.131 Y67.835 E0.01006
G1 X67.871 Y67.648 E0.01004
G1 X67.573 Y67.287 E0.01465
G1 X67.435 Y66.976 E0.01068
G1 X67.368 Y66.661 E0.01010
G1 X67.368 Y66.339 E0.01010
G1 X67.438 Y66.009 E0.01059
G1 X67.643 Y65.606 E0.01417
G1 X67.869 Y65.355 E0.01059
G1 X68.130 Y65.166 E0.01010
G1 X68.424 Y65.035 E0.01010
G1 X68.739 Y64.968 E0.01010
G1 X69.061 Y64.968 E0.01010
G1 X69.376 Y65.035 E0.01010
G1 X69.669 Y65.165 E0.01006
G1 X69.929 Y65.352 E0.01004
G1 X70.227 Y65.713 E0.01465
G1 X70.365 Y66.024 E0.01068
G1 X70.432 Y66.339 E0.01010
G1 X70.432 Y66.661 E0.01010
G1 X70.362 Y66.991 E0.01059
G1 X70.184 Y67.340 E0.01228
M204 S1250
G1 X69.848 Y67.169 F9000.000
M204 S800
;TYPE:External perimeter
G1 F1200.000
G1 X69.677 Y67.363 E0.00810
G1 X69.481 Y67.506 E0.00761
G1 X69.259 Y67.605 E0.00761
G1 X69.021 Y67.655 E0.00761
G1 X68.779 Y67.655 E0.00761
G1 X68.541 Y67.605 E0.00761
G1 X68.320 Y67.506 E0.00760
G1 X68.131 Y67.370 E0.00730
G1 X67.897 Y67.087 E0.01151
G1 X67.795 Y66.859 E0.00782
G1 X67.745 Y66.621 E0.00761
G1 X67.745 Y66.379 E0.00761
G1 X67.797 Y66.136 E0.00779
G1 X67.957 Y65.822 E0.01105
G1 X68.123 Y65.637 E0.00779
G1 X68.319 Y65.494 E0.00761
G1 X68.541 Y65.395 E0.00761
G1 X68.779 Y65.345 E0.00761
G1 X69.021 Y65.345 E0.00761
G1 X69.259 Y65.395 E0.00761
G1 X69.480 Y65.494 E0.00760
G1 X69.669 Y65.630 E0.00730
G1 X69.903 Y65.913 E0.01151
G1 X70.005 Y66.141 E0.00782
G1 X70.055 Y66.379 E0.00761
G1 X70.055 Y66.621 E0.00761
G1 X70.003 Y66.864 E0.00779
G1 X69.875 Y67.116 E0.00885
M204 S1250
G1 X69.959 Y67.402 F9000.000
G1 E-2.24000 F4200.000
;WIPE_START
M73 P1 R42
G1 F7200.000
G1 X69.677 Y67.363 E-0.17563
G1 X69.481 Y67.506 E-0.13459
G1 X69.259 Y67.605 E-0.13458
G1 X69.021 Y67.655 E-0.13451
G1 X68.779 Y67.655 E-0.13458
G1 X68.541 Y67.605 E-0.13451
G1 X68.436 Y67.558 E-0.06360
;WIPE_END
G1 E-0.04800 F4200.000
G1 Z0.400 F9000.000
G1 X68.897 Y81.959
G1 Z0.200
G1 E3.20000 F2400.000
M204 S800
;TYPE:Perimeter
G1 F1200.000
G1 X69.359 Y82.027 E0.01465
G1 X69.670 Y82.166 E0.01068
G1 X69.931 Y82.355 E0.01010
G1 X70.146 Y82.595 E0.01010
G1 X70.307 Y82.873 E0.01009
G1 X70.407 Y83.180 E0.01010
G1 X70.441 Y83.500 E0.01010
G1 X70.407 Y83.820 E0.01010
G1 X70.307 Y84.127 E0.01010
G1 X70.146 Y84.405 E0.01009
G1 X69.921 Y84.656 E0.01058
G1 X69.541 Y84.903 E0.01418
G1 X69.220 Y85.007 E0.01059
G1 X68.900 Y85.041 E0.01010
G1 X68.580 Y85.007 E0.01010
G1 X68.259 Y84.903 E0.01059
G1 X67.879 Y84.656 E0.01418
G1 X67.654 Y84.405 E0.01058
G1 X67.493 Y84.127 E0.01009
G1 X67.393 Y83.820 E0.01010
G1 X67.359 Y83.500 E0.01010
G1 X67.393 Y83.180 E0.01010
G1 X67.497 Y82.858 E0.01059
G1 X67.743 Y82.480 E0.01416
G1 X67.994 Y82.254 E0.01059
G1 X68.273 Y82.093 E0.01010
G1 X68.579 Y81.993 E0.01006
G1 X68.837 Y81.965 E0.00816
M204 S1250
G1 X68.878 Y82.340 F9000.000
M204 S800
;TYPE:External perimeter
G1 F1200.000
G1 X69.253 Y82.393 E0.01186
G1 X69.481 Y82.494 E0.00782
G1 X69.677 Y82.637 E0.00761
G1 X69.840 Y82.817 E0.00761
G1 X69.961 Y83.028 E0.00761
G1 X70.036 Y83.259 E0.00762
G1 X70.061 Y83.500 E0.00761
G1 X70.036 Y83.741 E0.00761
G1 X69.961 Y83.972 E0.00762
G1 X69.840 Y84.183 E0.00761
G1 X69.674 Y84.367 E0.00779
G1 X69.378 Y84.559 E0.01106
G1 X69.141 Y84.636 E0.00779
G1 X68.900 Y84.661 E0.00761
G1 X68.659 Y84.636 E0.00761
G1 X68.422 Y84.559 E0.00779
G1 X68.126 Y84.367 E0.01106
G1 X67.960 Y84.183 E0.00779
G1 X67.839 Y83.972 E0.00761
G1 X67.764 Y83.741 E0.00762
G1 X67.739 Y83.500 E0.00761
G1 X67.764 Y83.259 E0.00761
G1 X67.841 Y83.022 E0.00779
G1 X68.033 Y82.727 E0.01105
G1 X68.217 Y82.560 E0.00779
G1 X68.428 Y82.439 E0.00761
G1 X68.658 Y82.364 E0.00760
G1 X68.819 Y82.347 E0.00507
M204 S1250
G1 X69.074 Y82.017 F9000.000
G1 E-2.24000 F4200.000
;WIPE_START
G1 F7200.000
G1 X69.253 Y82.393 E-0.24191
G1 X69.481 Y82.494 E-0.13825
G1 X69.677 Y82.637 E-0.13459
G1 X69.840 Y82.817 E-0.13453
G1 X69.961 Y83.028 E-0.13451
G1 X70.032 Y83.248 E-0.12822
;WIPE_END
G1 E-0.04800 F4200.000
G1 Z0.400 F9000.000
G1 X95.159 Y76.879
G1 Z0.200
