; generated by PrusaSlicer 2.3.3+win64 on 2021-11-12 at 10:55:33 UTC


;
;

;
;
; 

; external perimeters extrusion width = 0.45mm
; perimeters extrusion width = 0.45mm
; infill extrusion width = 0.45mm
; solid infill extrusion width = 0.45mm
; top infill extrusion width = 0.40mm
; first layer extrusion width = 0.42mm

M73 P0 R25
M201 X1250 Y1250 Z400 E5000 ; sets maximum accelerations, mm/sec^2
M203 X180 Y180 Z12 E80 ; sets maximum feedrates, mm/sec
M204 P1250 R1250 T1250 ; sets acceleration (P, T) and retract acceleration (R), mm/sec^2
M205 X8.00 Y8.00 Z2.00 E10.00 ; sets the jerk limits, mm/sec
M205 S0 T0 ; sets the minimum extruding and travel feed rate, mm/sec
M107
;TYPE:Custom
G90 ; use absolute coordinates
M83 ; extruder relative mode
M104 S170 ; set extruder temp for bed leveling
M140 S60 ; set bed temp
M109 R170 ; wait for bed leveling temp
M190 S60 ; wait for bed temp
G28 ; home all without mesh bed level
G29 ; mesh bed leveling 
M104 S215 ; set extruder temp
G92 E0.0
G1 Y-2.0 X179 F2400
G1 Z3 F720
M109 S215 ; wait for extruder temp

; intro line
G1 X170 F1000
G1 Z0.2 F720
G1 X110.0 E8.0 F900
G1 X40.0 E10.0 F700
G92 E0.0

M221 S95 ; set flow
G21 ; set units to millimeters
G90 ; use absolute coordinates
M83 ; use relative distances for extrusion
M900 K0.2 ; Filament gcode LA 1.5
; ; Filament gcode LA 1.0
;LAYER_CHANGE
;Z:0.2
;HEIGHT:0.2
;BEFORE_LAYER_CHANGE
G92 E0.0
;0.2


M73 P1 R25
G1 E-3.20000 F4200.000
G1 Z0.200 F9000.000
;AFTER_LAYER_CHANGE
;0.2
G1 Z0.400
G1 X66.590 Y68.298
G1 Z0.200
G1 E3.20000 F2400.000
M204 S800
;TYPE:Skirt
;WIDTH:0.42
G1 F1200.000
G1 X67.340 Y67.804 E0.02813
G1 X68.215 Y67.623 E0.02802
G1 X111.754 Y67.623 E1.36514
G1 X112.642 Y67.797 E0.02837
G1 X113.401 Y68.289 E0.02837
G1 X113.920 Y69.030 E0.02837
G1 X114.125 Y69.911 E0.02837
G1 X114.127 Y110.042 E1.25827
G1 X113.933 Y110.941 E0.02884
G1 X113.410 Y111.702 E0.02896
G1 X112.660 Y112.196 E0.02813
G1 X111.785 Y112.377 E0.02802
G1 X68.246 Y112.377 E1.36514
G1 X67.323 Y112.189 E0.02954
G1 X66.548 Y111.660 E0.02942
G1 X66.056 Y110.914 E0.02802
G1 X65.873 Y110.039 E0.02802
G1 X65.873 Y69.996 E1.25552
G1 X66.061 Y69.073 E0.02954
G1 X66.557 Y68.348 E0.02754
M204 S1250
; printing object road_blocker rev_4_pcb.stl id:0 copy 0
G1 E-2.24000 F4200.000
;WIPE_START
G1 F7200.000
G1 X67.340 Y67.804 E-0.52819
G1 X68.018 Y67.664 E-0.38381
;WIPE_END
G1 E-0.04800 F4200.000
G1 Z0.400 F9000.000
G1 X69.414 Y71.164
G1 Z0.200
G1 E3.20000 F2400.000
M204 S800
;TYPE:Perimeter
G1 F1200.000
G1 X110.586 Y71.164 E1.29091
G1 X110.586 Y108.836 E1.18117
G1 X69.414 Y108.836 E1.29091
M73 P2 R25
G1 X69.414 Y71.224 E1.17929
M204 S1250
G1 X69.037 Y70.787 F9000.000
M204 S800
G1 F1200.000
G1 X110.963 Y70.787 E1.31456
G1 X110.963 Y109.213 E1.20482
G1 X69.037 Y109.213 E1.31456
G1 X69.037 Y70.847 E1.20293
M204 S1250
G1 X68.660 Y70.410 F9000.000
M204 S800
;TYPE:External perimeter
G1 F1200.000
G1 X111.340 Y70.410 E1.33820
G1 X111.340 Y109.590 E1.22846
M73 P3 R25
G1 X68.660 Y109.590 E1.33820
G1 X68.660 Y70.470 E1.22658
M204 S1250
G1 X69.048 Y70.508 F9000.000
G1 E-2.24000 F4200.000
;WIPE_START
G1 F7200.000
G1 X70.306 Y70.468 E-0.91200
;WIPE_END
G1 E-0.04800 F4200.000
G1 Z0.400 F9000.000
G1 X109.710 Y71.277
G1 Z0.200
G1 E3.20000 F2400.000
M204 S800
;TYPE:Solid infill
;WIDTH:0.420362
G1 F1200.000
G1 X110.303 Y71.871 E0.02634
G1 X110.303 Y72.404 E0.01675
G1 X109.346 Y71.447 E0.04250
G1 X108.812 Y71.447 E0.01675
G1 X110.303 Y72.938 E0.06619
G1 X110.303 Y73.472 E0.01675
G1 X108.278 Y71.447 E0.08988
G1 X107.744 Y71.447 E0.01675
G1 X110.303 Y74.006 E0.11357
G1 X110.303 Y74.540 E0.01675
G1 X107.210 Y71.447 E0.13726
G1 X106.677 Y71.447 E0.01675
G1 X110.303 Y75.073 E0.16095
G1 X110.303 Y75.607 E0.01675
G1 X106.143 Y71.447 E0.18465
G1 X105.609 Y71.447 E0.01675
G1 X110.303 Y76.141 E0.20834
G1 X110.303 Y76.675 E0.01675
G1 X105.075 Y71.447 E0.23203
G1 X104.542 Y71.447 E0.01675
G1 X110.303 Y77.208 E0.25572
G1 X110.303 Y77.742 E0.01675
G1 X104.008 Y71.447 E0.27941
G1 X103.474 Y71.447 E0.01675
G1 X110.303 Y78.276 E0.30310
M73 P3 R24
G1 X110.303 Y78.810 E0.01675
G1 X102.940 Y71.447 E0.32680
G1 X102.406 Y71.447 E0.01675
G1 X110.303 Y79.344 E0.35049
G1 X110.303 Y79.877 E0.01675
G1 X101.873 Y71.447 E0.37418
G1 X101.339 Y71.447 E0.01675
G1 X110.303 Y80.411 E0.39787
G1 X110.303 Y80.945 E0.01675
G1 X100.805 Y71.447 E0.42156
G1 X100.271 Y71.447 E0.01675
G1 X110.303 Y81.479 E0.44525
G1 X110.303 Y82.013 E0.01675
G1 X99.737 Y71.447 E0.46894
G1 X99.204 Y71.447 E0.01675
G1 X110.303 Y82.546 E0.49264
G1 X110.303 Y83.080 E0.01675
G1 X98.670 Y71.447 E0.51633
M73 P4 R24
G1 X98.136 Y71.447 E0.01675
G1 X110.303 Y83.614 E0.54002
G1 X110.303 Y84.148 E0.01675
G1 X97.602 Y71.447 E0.56371
G1 X97.069 Y71.447 E0.01675
G1 X110.303 Y84.681 E0.58740
G1 X110.303 Y85.215 E0.01675
G1 X96.535 Y71.447 E0.61109
G1 X96.001 Y71.447 E0.01675
G1 X110.303 Y85.749 E0.63479
G1 X110.303 Y86.283 E0.01675
G1 X95.467 Y71.447 E0.65848
G1 X94.933 Y71.447 E0.01675
G1 X110.303 Y86.817 E0.68217
G1 X110.303 Y87.350 E0.01675
G1 X94.400 Y71.447 E0.70586
G1 X93.866 Y71.447 E0.01675
G1 X110.303 Y87.884 E0.72955
G1 X110.303 Y88.418 E0.01675
G1 X93.332 Y71.447 E0.75324
G1 X92.798 Y71.447 E0.01675
G1 X110.303 Y88.952 E0.77694
G1 X110.303 Y89.485 E0.01675
G1 X92.265 Y71.447 E0.80063
G1 X91.731 Y71.447 E0.01675
G1 X110.303 Y90.019 E0.82432
G1 X110.303 Y90.553 E0.01675
G1 X91.197 Y71.447 E0.84801
M73 P5 R24
G1 X90.663 Y71.447 E0.01675
G1 X110.303 Y91.087 E0.87170
G1 X110.303 Y91.621 E0.01675
G1 X90.129 Y71.447 E0.89539
G1 X89.596 Y71.447 E0.01675
G1 X110.303 Y92.154 E0.91909
G1 X110.303 Y92.688 E0.01675
G1 X89.062 Y71.447 E0.94278
G1 X88.528 Y71.447 E0.01675
G1 X110.303 Y93.222 E0.96647
G1 X110.303 Y93.756 E0.01675
G1 X87.994 Y71.447 E0.99016
G1 X87.460 Y71.447 E0.01675
G1 X110.303 Y94.290 E1.01385
G1 X110.303 Y94.823 E0.01675
G1 X86.927 Y71.447 E1.03754
G1 X86.393 Y71.447 E0.01675
G1 X110.303 Y95.357 E1.06123
G1 X110.303 Y95.891 E0.01675
G1 X85.859 Y71.447 E1.08493
M73 P6 R24
G1 X85.325 Y71.447 E0.01675
G1 X110.303 Y96.425 E1.10862
G1 X110.303 Y96.958 E0.01675
G1 X84.792 Y71.447 E1.13231
G1 X84.258 Y71.447 E0.01675
G1 X110.303 Y97.492 E1.15600
G1 X110.303 Y98.026 E0.01675
G1 X83.724 Y71.447 E1.17969
G1 X83.190 Y71.447 E0.01675
G1 X110.303 Y98.560 E1.20338
G1 X110.303 Y99.094 E0.01675
G1 X82.656 Y71.447 E1.22708
G1 X82.123 Y71.447 E0.01675
G1 X110.303 Y99.627 E1.25077
G1 X110.303 Y100.161 E0.01675
G1 X81.589 Y71.447 E1.27446
M73 P7 R24
G1 X81.055 Y71.447 E0.01675
G1 X110.303 Y100.695 E1.29815
G1 X110.303 Y101.229 E0.01675
G1 X80.521 Y71.447 E1.32184
G1 X79.987 Y71.447 E0.01675
G1 X110.303 Y101.763 E1.34553
M73 P7 R23
G1 X110.303 Y102.296 E0.01675
G1 X79.454 Y71.447 E1.36923
G1 X78.920 Y71.447 E0.01675
G1 X110.303 Y102.830 E1.39292
G1 X110.303 Y103.364 E0.01675
G1 X78.386 Y71.447 E1.41661
G1 X77.852 Y71.447 E0.01675
G1 X110.303 Y103.898 E1.44030
M73 P8 R23
G1 X110.303 Y104.431 E0.01675
G1 X77.319 Y71.447 E1.46399
G1 X76.785 Y71.447 E0.01675
G1 X110.303 Y104.965 E1.48768
G1 X110.303 Y105.499 E0.01675
G1 X76.251 Y71.447 E1.51138
G1 X75.717 Y71.447 E0.01675
G1 X110.303 Y106.033 E1.53507
G1 X110.303 Y106.567 E0.01675
G1 X75.183 Y71.447 E1.55876
G1 X74.650 Y71.447 E0.01675
G1 X110.303 Y107.100 E1.58245
M73 P9 R23
G1 X110.303 Y107.634 E0.01675
G1 X74.116 Y71.447 E1.60614
G1 X73.582 Y71.447 E0.01675
G1 X110.303 Y108.168 E1.62983
G1 X110.303 Y108.553 E0.01209
G1 X110.154 Y108.553 E0.00467
G1 X73.048 Y71.447 E1.64693
G1 X72.515 Y71.447 E0.01675
G1 X109.621 Y108.553 E1.64693
G1 X109.087 Y108.553 E0.01675
G1 X71.981 Y71.447 E1.64693
G1 X71.447 Y71.447 E0.01675
G1 X108.553 Y108.553 E1.64693
M73 P10 R23
G1 X108.019 Y108.553 E0.01675
G1 X70.913 Y71.447 E1.64693
G1 X70.379 Y71.447 E0.01675
G1 X107.485 Y108.553 E1.64693
G1 X106.952 Y108.553 E0.01675
G1 X69.846 Y71.447 E1.64693
G1 X69.697 Y71.447 E0.00467
G1 X69.697 Y71.832 E0.01209
G1 X106.418 Y108.553 E1.62983
G1 X105.884 Y108.553 E0.01675
G1 X69.697 Y72.366 E1.60614
M73 P11 R23
G1 X69.697 Y72.900 E0.01675
G1 X105.350 Y108.553 E1.58245
G1 X104.817 Y108.553 E0.01675
G1 X69.697 Y73.433 E1.55876
G1 X69.697 Y73.967 E0.01675
G1 X104.283 Y108.553 E1.53507
M73 P11 R22
G1 X103.749 Y108.553 E0.01675
G1 X69.697 Y74.501 E1.51138
G1 X69.697 Y75.035 E0.01675
G1 X103.215 Y108.553 E1.48768
G1 X102.681 Y108.553 E0.01675
G1 X69.697 Y75.569 E1.46399
M73 P12 R22
G1 X69.697 Y76.102 E0.01675
G1 X102.148 Y108.553 E1.44030
G1 X101.614 Y108.553 E0.01675
G1 X69.697 Y76.636 E1.41661
G1 X69.697 Y77.170 E0.01675
G1 X101.080 Y108.553 E1.39292
G1 X100.546 Y108.553 E0.01675
G1 X69.697 Y77.704 E1.36923
G1 X69.697 Y78.237 E0.01675
G1 X100.013 Y108.553 E1.34553
G1 X99.479 Y108.553 E0.01675
G1 X69.697 Y78.771 E1.32184
G1 X69.697 Y79.305 E0.01675
G1 X98.945 Y108.553 E1.29815
M73 P13 R22
G1 X98.411 Y108.553 E0.01675
G1 X69.697 Y79.839 E1.27446
G1 X69.697 Y80.373 E0.01675
G1 X97.877 Y108.553 E1.25077
G1 X97.344 Y108.553 E0.01675
G1 X69.697 Y80.906 E1.22708
G1 X69.697 Y81.440 E0.01675
G1 X96.810 Y108.553 E1.20338
G1 X96.276 Y108.553 E0.01675
G1 X69.697 Y81.974 E1.17969
G1 X69.697 Y82.508 E0.01675
G1 X95.742 Y108.553 E1.15600
G1 X95.208 Y108.553 E0.01675
G1 X69.697 Y83.042 E1.13231
G1 X69.697 Y83.575 E0.01675
G1 X94.675 Y108.553 E1.10862
M73 P14 R22
G1 X94.141 Y108.553 E0.01675
G1 X69.697 Y84.109 E1.08493
G1 X69.697 Y84.643 E0.01675
G1 X93.607 Y108.553 E1.06123
G1 X93.073 Y108.553 E0.01675
G1 X69.697 Y85.177 E1.03754
G1 X69.697 Y85.710 E0.01675
G1 X92.540 Y108.553 E1.01385
G1 X92.006 Y108.553 E0.01675
G1 X69.697 Y86.244 E0.99016
G1 X69.697 Y86.778 E0.01675
G1 X91.472 Y108.553 E0.96647
G1 X90.938 Y108.553 E0.01675
G1 X69.697 Y87.312 E0.94278
G1 X69.697 Y87.846 E0.01675
G1 X90.404 Y108.553 E0.91909
G1 X89.871 Y108.553 E0.01675
G1 X69.697 Y88.379 E0.89539
G1 X69.697 Y88.913 E0.01675
G1 X89.337 Y108.553 E0.87170
M73 P15 R22
G1 X88.803 Y108.553 E0.01675
G1 X69.697 Y89.447 E0.84801
G1 X69.697 Y89.981 E0.01675
G1 X88.269 Y108.553 E0.82432
G1 X87.735 Y108.553 E0.01675
G1 X69.697 Y90.515 E0.80063
G1 X69.697 Y91.048 E0.01675
G1 X87.202 Y108.553 E0.77694
M73 P15 R21
G1 X86.668 Y108.553 E0.01675
G1 X69.697 Y91.582 E0.75324
G1 X69.697 Y92.116 E0.01675
G1 X86.134 Y108.553 E0.72955
G1 X85.600 Y108.553 E0.01675
G1 X69.697 Y92.650 E0.70586
G1 X69.697 Y93.183 E0.01675
G1 X85.067 Y108.553 E0.68217
G1 X84.533 Y108.553 E0.01675
G1 X69.697 Y93.717 E0.65848
G1 X69.697 Y94.251 E0.01675
G1 X83.999 Y108.553 E0.63479
G1 X83.465 Y108.553 E0.01675
G1 X69.697 Y94.785 E0.61109
G1 X69.697 Y95.319 E0.01675
G1 X82.931 Y108.553 E0.58740
M73 P16 R21
G1 X82.398 Y108.553 E0.01675
G1 X69.697 Y95.852 E0.56371
G1 X69.697 Y96.386 E0.01675
G1 X81.864 Y108.553 E0.54002
G1 X81.330 Y108.553 E0.01675
G1 X69.697 Y96.920 E0.51633
G1 X69.697 Y97.454 E0.01675
G1 X80.796 Y108.553 E0.49264
G1 X80.263 Y108.553 E0.01675
G1 X69.697 Y97.987 E0.46894
G1 X69.697 Y98.521 E0.01675
G1 X79.729 Y108.553 E0.44525
G1 X79.195 Y108.553 E0.01675
G1 X69.697 Y99.055 E0.42156
G1 X69.697 Y99.589 E0.01675
G1 X78.661 Y108.553 E0.39787
G1 X78.127 Y108.553 E0.01675
G1 X69.697 Y100.123 E0.37418
G1 X69.697 Y100.656 E0.01675
G1 X77.594 Y108.553 E0.35049
G1 X77.060 Y108.553 E0.01675
G1 X69.697 Y101.190 E0.32680
G1 X69.697 Y101.724 E0.01675
G1 X76.526 Y108.553 E0.30310
G1 X75.992 Y108.553 E0.01675
G1 X69.697 Y102.258 E0.27941
G1 X69.697 Y102.792 E0.01675
G1 X75.458 Y108.553 E0.25572
G1 X74.925 Y108.553 E0.01675
G1 X69.697 Y103.325 E0.23203
G1 X69.697 Y103.859 E0.01675
G1 X74.391 Y108.553 E0.20834
G1 X73.857 Y108.553 E0.01675
G1 X69.697 Y104.393 E0.18465
G1 X69.697 Y104.927 E0.01675
G1 X73.323 Y108.553 E0.16095
G1 X72.790 Y108.553 E0.01675
G1 X69.697 Y105.460 E0.13726
G1 X69.697 Y105.994 E0.01675
G1 X72.256 Y108.553 E0.11357
G1 X71.722 Y108.553 E0.01675
G1 X69.697 Y106.528 E0.08988
G1 X69.697 Y107.062 E0.01675
G1 X71.188 Y108.553 E0.06619
G1 X70.654 Y108.553 E0.01675
G1 X69.697 Y107.596 E0.04250
G1 X69.697 Y108.129 E0.01675
G1 X70.290 Y108.723 E0.02634
M204 S1250
; stop printing object road_blocker rev_4_pcb.stl id:0 copy 0
M106 S84.15
;LAYER_CHANGE
;Z:0.3
;HEIGHT:0.1
;BEFORE_LAYER_CHANGE
G92 E0.0
;0.3


G1 E-2.24000 F4200.000
;WIPE_START
G1 F7200.000
G1 X69.697 Y108.129 E-0.46502
G1 X69.697 Y107.596 E-0.29580
G1 X69.890 Y107.788 E-0.15118
;WIPE_END
G1 E-0.04800 F4200.000
G1 Z0.400 F9000.000
;AFTER_LAYER_CHANGE
;0.3
M104 S210 ; set temperature
G1 X67.323 Y112.189
G1 Z0.300
G1 E3.20000 F2400.000
;TYPE:Skirt
;WIDTH:0.42
G1 X66.548 Y111.660 E0.01555
G1 X66.056 Y110.914 E0.01481
G1 X65.873 Y110.039 E0.01481
G1 X65.873 Y69.996 E0.66349
G1 X66.061 Y69.073 E0.01561
G1 X66.590 Y68.298 E0.01555
G1 X67.340 Y67.804 E0.01487
G1 X68.215 Y67.623 E0.01481
G1 X111.754 Y67.623 E0.72142
G1 X112.642 Y67.797 E0.01499
G1 X113.401 Y68.289 E0.01499
G1 X113.920 Y69.030 E0.01499
G1 X114.125 Y69.911 E0.01499
G1 X114.127 Y110.042 E0.66494
M73 P17 R21
G1 X113.933 Y110.941 E0.01524
G1 X113.410 Y111.702 E0.01530
G1 X112.660 Y112.196 E0.01487
G1 X111.785 Y112.377 E0.01481
G1 X68.246 Y112.377 E0.72142
G1 X67.382 Y112.201 E0.01462
; printing object road_blocker rev_4_pcb.stl id:0 copy 0
G1 E-2.24000 F4200.000
;WIPE_START
G1 F7200.000
G1 X66.548 Y111.660 E-0.55085
G1 X66.189 Y111.116 E-0.36115
;WIPE_END
G1 E-0.04800 F4200.000
G1 Z0.500 F9000.000
G1 X69.332 Y108.918
G1 Z0.300
G1 E3.20000 F2400.000
M204 S800
;TYPE:Perimeter
;WIDTH:0.45
G1 X69.332 Y71.082 E0.67411
G1 X110.668 Y71.082 E0.73646
G1 X110.668 Y108.918 E0.67411
G1 X69.392 Y108.918 E0.73540
M204 S1250
G1 X68.904 Y109.346 F9000.000
M204 S800
G1 F2400.000
G1 X68.904 Y70.654 E0.68938
G1 X111.096 Y70.654 E0.75174
G1 X111.096 Y109.346 E0.68938
G1 X68.964 Y109.346 E0.75067
M204 S1250
G1 X68.475 Y109.775 F9000.000
M204 S800
;TYPE:External perimeter
G1 F1800.000
G1 X68.475 Y70.225 E0.70465
G1 X111.525 Y70.225 E0.76701
G1 X111.525 Y109.775 E0.70465
G1 X68.535 Y109.775 E0.76594
M204 S1250
M73 P18 R21
G1 X68.584 Y109.390 F9000.000
G1 E-2.24000 F4200.000
;WIPE_START
G1 F7200.000
G1 X68.533 Y108.129 E-0.91200
;WIPE_END
G1 E-0.04800 F4200.000
G1 Z0.500 F9000.000
G1 X110.539 Y107.917
G1 Z0.300
G1 E3.20000 F2400.000
M204 S1000
;TYPE:Solid infill
;WIDTH:0.453086
G1 F4800.000
G1 X109.859 Y108.597 E0.01726
G1 X109.249 Y108.597 E0.01095
G1 X110.347 Y107.499 E0.02785
G1 X110.347 Y106.889 E0.01095
G1 X108.639 Y108.597 E0.04334
G1 X108.028 Y108.597 E0.01095
G1 X110.347 Y106.278 E0.05884
G1 X110.347 Y105.668 E0.01095
G1 X107.418 Y108.597 E0.07433
G1 X106.807 Y108.597 E0.01095
G1 X110.347 Y105.057 E0.08982
G1 X110.347 Y104.447 E0.01095
G1 X106.197 Y108.597 E0.10531
G1 X105.586 Y108.597 E0.01095
G1 X110.347 Y103.836 E0.12080
G1 X110.347 Y103.226 E0.01095
G1 X104.976 Y108.597 E0.13629
G1 X104.366 Y108.597 E0.01095
G1 X110.347 Y102.616 E0.15178
G1 X110.347 Y102.005 E0.01095
G1 X103.755 Y108.597 E0.16727
G1 X103.145 Y108.597 E0.01095
G1 X110.347 Y101.395 E0.18276
G1 X110.347 Y100.784 E0.01095
G1 X102.534 Y108.597 E0.19825
G1 X101.924 Y108.597 E0.01095
G1 X110.347 Y100.174 E0.21375
G1 X110.347 Y99.564 E0.01095
G1 X101.314 Y108.597 E0.22924
G1 X100.703 Y108.597 E0.01095
G1 X110.347 Y98.953 E0.24473
G1 X110.347 Y98.343 E0.01095
G1 X100.093 Y108.597 E0.26022
G1 X99.482 Y108.597 E0.01095
G1 X110.347 Y97.732 E0.27571
G1 X110.347 Y97.122 E0.01095
G1 X98.872 Y108.597 E0.29120
G1 X98.262 Y108.597 E0.01095
G1 X110.347 Y96.512 E0.30669
G1 X110.347 Y95.901 E0.01095
G1 X97.651 Y108.597 E0.32218
G1 X97.041 Y108.597 E0.01095
G1 X110.347 Y95.291 E0.33767
G1 X110.347 Y94.680 E0.01095
G1 X96.430 Y108.597 E0.35316
G1 X95.820 Y108.597 E0.01095
G1 X110.347 Y94.070 E0.36866
G1 X110.347 Y93.459 E0.01095
G1 X95.209 Y108.597 E0.38415
G1 X94.599 Y108.597 E0.01095
G1 X110.347 Y92.849 E0.39964
G1 X110.347 Y92.239 E0.01095
G1 X93.989 Y108.597 E0.41513
G1 X93.378 Y108.597 E0.01095
G1 X110.347 Y91.628 E0.43062
G1 X110.347 Y91.018 E0.01095
G1 X92.768 Y108.597 E0.44611
G1 X92.157 Y108.597 E0.01095
G1 X110.347 Y90.407 E0.46160
G1 X110.347 Y89.797 E0.01095
G1 X91.547 Y108.597 E0.47709
G1 X90.937 Y108.597 E0.01095
G1 X110.347 Y89.187 E0.49258
G1 X110.347 Y88.576 E0.01095
G1 X90.326 Y108.597 E0.50807
G1 X89.716 Y108.597 E0.01095
G1 X110.347 Y87.966 E0.52357
