; generated by PrusaSlicer 2.3.3+win64 on 2021-10-12 at 12:37:23 UTC


;
;

;
;
; 

; external perimeters extrusion width = 0.45mm
; perimeters extrusion width = 0.45mm
; infill extrusion width = 0.45mm
; solid infill extrusion width = 0.45mm
; top infill extrusion width = 0.40mm
; first layer extrusion width = 0.42mm

M73 P0 R49
M201 X1250 Y1250 Z400 E5000 ; sets maximum accelerations, mm/sec^2
M203 X180 Y180 Z12 E80 ; sets maximum feedrates, mm/sec
M204 P1250 R1250 T1250 ; sets acceleration (P, T) and retract acceleration (R), mm/sec^2
M205 X8.00 Y8.00 Z2.00 E10.00 ; sets the jerk limits, mm/sec
M205 S0 T0 ; sets the minimum extruding and travel feed rate, mm/sec
M107
;TYPE:Custom
G90 ; use absolute coordinates
M83 ; extruder relative mode
M104 S170 ; set extruder temp for bed leveling
M140 S60 ; set bed temp
M109 R170 ; wait for bed leveling temp
M190 S60 ; wait for bed temp
G28 ; home all without mesh bed level
G29 ; mesh bed leveling 
M104 S215 ; set extruder temp
G92 E0.0
G1 Y-2.0 X179 F2400
G1 Z3 F720
M109 S215 ; wait for extruder temp

; intro line
G1 X170 F1000
G1 Z0.2 F720
G1 X110.0 E8.0 F900
G1 X40.0 E10.0 F700
G92 E0.0

M221 S95 ; set flow
G21 ; set units to millimeters
G90 ; use absolute coordinates
M83 ; use relative distances for extrusion
M900 K0.2 ; Filament gcode LA 1.5
; ; Filament gcode LA 1.0
;LAYER_CHANGE
;Z:0.2
;HEIGHT:0.2
;BEFORE_LAYER_CHANGE
G92 E0.0
;0.2


G1 Z0.200 F9000.000
;AFTER_LAYER_CHANGE
;0.2
G1 E-3.20000 F4200.000
G1 Z0.400 F9000.000
G1 X72.804 Y54.091
G1 Z0.200
G1 E3.20000 F2400.000
M204 S800
;TYPE:Skirt
;WIDTH:0.42
G1 F1200.000
G1 X73.146 Y53.512 E0.02107
G1 X73.633 Y53.055 E0.02095
G1 X74.232 Y52.750 E0.02107
G1 X74.892 Y52.625 E0.02107
G1 X105.004 Y52.623 E0.94413
M73 P0 R48
G1 X105.895 Y52.798 E0.02849
G1 X106.659 Y53.297 E0.02860
G1 X107.176 Y54.044 E0.02849
G1 X107.376 Y54.930 E0.02849
G1 X107.377 Y125.008 E2.19722
G1 X107.196 Y125.909 E0.02884
G1 X106.852 Y126.491 E0.02119
G1 X106.357 Y126.951 E0.02119
G1 X105.757 Y127.253 E0.02107
G1 X105.092 Y127.375 E0.02119
G1 X74.989 Y127.377 E0.94389
G1 X74.091 Y127.196 E0.02872
G1 X73.500 Y126.844 E0.02154
G1 X73.036 Y126.339 E0.02154
G1 X72.735 Y125.721 E0.02154
G1 X72.623 Y125.043 E0.02154
G1 X72.623 Y54.992 E2.19639
G1 X72.792 Y54.149 E0.02696
M204 S1250
; printing object road_blocker rev_1_test1.stl id:0 copy 0
G1 E-2.24000 F4200.000
;WIPE_START
G1 F7200.000
G1 X73.146 Y53.512 E-0.40390
G1 X73.633 Y53.055 E-0.37028
G1 X73.855 Y52.942 E-0.13783
;WIPE_END
G1 E-0.04800 F4200.000
G1 Z0.400 F9000.000
G1 X75.787 Y55.787
G1 Z0.200
G1 E3.20000 F2400.000
M204 S800
;TYPE:Perimeter
G1 F1200.000
G1 X104.213 Y55.787 E0.89127
G1 X104.213 Y124.213 E2.14544
M73 P1 R48
G1 X75.787 Y124.213 E0.89127
G1 X75.787 Y55.847 E2.14356
M204 S1250
G1 X75.410 Y55.410 F9000.000
M204 S800
;TYPE:External perimeter
G1 F1200.000
G1 X104.590 Y55.410 E0.91492
G1 X104.590 Y124.590 E2.16909
G1 X75.410 Y124.590 E0.91492
G1 X75.410 Y55.470 E2.16721
M204 S1250
G1 X75.780 Y55.562 F9000.000
G1 E-2.24000 F4200.000
;WIPE_START
G1 F7200.000
G1 X77.056 Y55.467 E-0.91200
;WIPE_END
G1 E-0.04800 F4200.000
G1 Z0.400 F9000.000
G1 X103.333 Y55.900
G1 Z0.200
G1 E3.20000 F2400.000
M204 S800
;TYPE:Solid infill
;WIDTH:0.421908
G1 F1200.000
G1 X103.930 Y56.497 E0.02659
G1 X103.930 Y57.033 E0.01689
G1 X102.967 Y56.070 E0.04291
G1 X102.431 Y56.070 E0.01689
G1 X103.930 Y57.569 E0.06680
G1 X103.930 Y58.105 E0.01689
G1 X101.895 Y56.070 E0.09069
G1 X101.359 Y56.070 E0.01689
G1 X103.930 Y58.641 E0.11457
G1 X103.930 Y59.177 E0.01689
G1 X100.823 Y56.070 E0.13846
G1 X100.287 Y56.070 E0.01689
G1 X103.930 Y59.713 E0.16234
G1 X103.930 Y60.249 E0.01689
G1 X99.751 Y56.070 E0.18623
G1 X99.215 Y56.070 E0.01689
G1 X103.930 Y60.785 E0.21012
G1 X103.930 Y61.321 E0.01689
G1 X98.679 Y56.070 E0.23400
G1 X98.143 Y56.070 E0.01689
G1 X103.930 Y61.857 E0.25789
G1 X103.930 Y62.392 E0.01689
G1 X97.608 Y56.070 E0.28177
G1 X97.072 Y56.070 E0.01689
G1 X103.930 Y62.928 E0.30566
G1 X103.930 Y63.464 E0.01689
G1 X96.536 Y56.070 E0.32955
G1 X96.000 Y56.070 E0.01689
G1 X103.930 Y64.000 E0.35343
G1 X103.930 Y64.536 E0.01689
G1 X95.464 Y56.070 E0.37732
G1 X94.928 Y56.070 E0.01689
G1 X103.930 Y65.072 E0.40120
G1 X103.930 Y65.608 E0.01689
G1 X94.392 Y56.070 E0.42509
G1 X93.856 Y56.070 E0.01689
G1 X103.930 Y66.144 E0.44898
G1 X103.930 Y66.680 E0.01689
G1 X93.320 Y56.070 E0.47286
G1 X92.784 Y56.070 E0.01689
G1 X103.930 Y67.216 E0.49675
G1 X103.930 Y67.752 E0.01689
G1 X92.248 Y56.070 E0.52064
G1 X91.712 Y56.070 E0.01689
G1 X103.930 Y68.288 E0.54452
M73 P2 R48
G1 X103.930 Y68.824 E0.01689
G1 X91.176 Y56.070 E0.56841
G1 X90.640 Y56.070 E0.01689
G1 X103.930 Y69.360 E0.59229
G1 X103.930 Y69.896 E0.01689
G1 X90.104 Y56.070 E0.61618
G1 X89.568 Y56.070 E0.01689
G1 X103.930 Y70.432 E0.64007
G1 X103.930 Y70.968 E0.01689
G1 X89.032 Y56.070 E0.66395
G1 X88.496 Y56.070 E0.01689
G1 X103.930 Y71.504 E0.68784
G1 X103.930 Y72.040 E0.01689
G1 X87.960 Y56.070 E0.71172
G1 X87.424 Y56.070 E0.01689
G1 X103.930 Y72.576 E0.73561
G1 X103.930 Y73.112 E0.01689
G1 X86.888 Y56.070 E0.75950
G1 X86.352 Y56.070 E0.01689
G1 X103.930 Y73.648 E0.78338
G1 X103.930 Y74.184 E0.01689
G1 X85.816 Y56.070 E0.80727
G1 X85.280 Y56.070 E0.01689
G1 X103.930 Y74.720 E0.83115
G1 X103.930 Y75.256 E0.01689
G1 X84.744 Y56.070 E0.85504
G1 X84.208 Y56.070 E0.01689
G1 X103.930 Y75.792 E0.87893
G1 X103.930 Y76.328 E0.01689
G1 X83.672 Y56.070 E0.90281
G1 X83.136 Y56.070 E0.01689
G1 X103.930 Y76.864 E0.92670
M73 P2 R47
G1 X103.930 Y77.400 E0.01689
G1 X82.600 Y56.070 E0.95058
G1 X82.064 Y56.070 E0.01689
G1 X103.930 Y77.936 E0.97447
G1 X103.930 Y78.472 E0.01689
G1 X81.528 Y56.070 E0.99836
G1 X80.992 Y56.070 E0.01689
G1 X103.930 Y79.008 E1.02224
G1 X103.930 Y79.544 E0.01689
G1 X80.456 Y56.070 E1.04613
G1 X79.920 Y56.070 E0.01689
G1 X103.930 Y80.080 E1.07002
M73 P3 R47
G1 X103.930 Y80.615 E0.01689
G1 X79.385 Y56.070 E1.09390
G1 X78.849 Y56.070 E0.01689
G1 X103.930 Y81.151 E1.11779
G1 X103.930 Y81.687 E0.01689
G1 X78.313 Y56.070 E1.14167
G1 X77.777 Y56.070 E0.01689
G1 X103.930 Y82.223 E1.16556
G1 X103.930 Y82.759 E0.01689
G1 X77.241 Y56.070 E1.18945
G1 X76.705 Y56.070 E0.01689
G1 X103.930 Y83.295 E1.21333
G1 X103.930 Y83.831 E0.01689
G1 X76.169 Y56.070 E1.23722
G1 X76.070 Y56.070 E0.00311
G1 X76.070 Y56.507 E0.01378
G1 X103.930 Y84.367 E1.24162
G1 X103.930 Y84.903 E0.01689
G1 X76.070 Y57.043 E1.24162
G1 X76.070 Y57.579 E0.01689
G1 X103.930 Y85.439 E1.24162
G1 X103.930 Y85.975 E0.01689
G1 X76.070 Y58.115 E1.24162
G1 X76.070 Y58.651 E0.01689
G1 X103.930 Y86.511 E1.24162
G1 X103.930 Y87.047 E0.01689
G1 X76.070 Y59.187 E1.24162
G1 X76.070 Y59.723 E0.01689
G1 X103.930 Y87.583 E1.24162
G1 X103.930 Y88.119 E0.01689
G1 X76.070 Y60.259 E1.24162
M73 P4 R47
G1 X76.070 Y60.795 E0.01689
G1 X103.930 Y88.655 E1.24162
G1 X103.930 Y89.191 E0.01689
G1 X76.070 Y61.331 E1.24162
G1 X76.070 Y61.867 E0.01689
G1 X103.930 Y89.727 E1.24162
G1 X103.930 Y90.263 E0.01689
G1 X76.070 Y62.403 E1.24162
G1 X76.070 Y62.939 E0.01689
G1 X103.930 Y90.799 E1.24162
G1 X103.930 Y91.335 E0.01689
G1 X76.070 Y63.475 E1.24162
G1 X76.070 Y64.011 E0.01689
G1 X103.930 Y91.871 E1.24162
G1 X103.930 Y92.407 E0.01689
G1 X76.070 Y64.547 E1.24162
G1 X76.070 Y65.083 E0.01689
G1 X103.930 Y92.943 E1.24162
G1 X103.930 Y93.479 E0.01689
G1 X76.070 Y65.619 E1.24162
M73 P4 R46
G1 X76.070 Y66.154 E0.01689
G1 X103.930 Y94.015 E1.24162
G1 X103.930 Y94.551 E0.01689
G1 X76.070 Y66.690 E1.24162
G1 X76.070 Y67.226 E0.01689
G1 X103.930 Y95.087 E1.24162
G1 X103.930 Y95.623 E0.01689
G1 X76.070 Y67.762 E1.24162
G1 X76.070 Y68.298 E0.01689
G1 X103.930 Y96.159 E1.24162
M73 P5 R46
G1 X103.930 Y96.695 E0.01689
G1 X76.070 Y68.834 E1.24162
G1 X76.070 Y69.370 E0.01689
G1 X103.930 Y97.231 E1.24162
G1 X103.930 Y97.767 E0.01689
G1 X76.070 Y69.906 E1.24162
G1 X76.070 Y70.442 E0.01689
G1 X103.930 Y98.302 E1.24162
G1 X103.930 Y98.838 E0.01689
G1 X76.070 Y70.978 E1.24162
G1 X76.070 Y71.514 E0.01689
G1 X103.930 Y99.374 E1.24162
G1 X103.930 Y99.910 E0.01689
G1 X76.070 Y72.050 E1.24162
G1 X76.070 Y72.586 E0.01689
G1 X103.930 Y100.446 E1.24162
G1 X103.930 Y100.982 E0.01689
G1 X76.070 Y73.122 E1.24162
G1 X76.070 Y73.658 E0.01689
G1 X103.930 Y101.518 E1.24162
G1 X103.930 Y102.054 E0.01689
G1 X76.070 Y74.194 E1.24162
G1 X76.070 Y74.730 E0.01689
G1 X103.930 Y102.590 E1.24162
G1 X103.930 Y103.126 E0.01689
G1 X76.070 Y75.266 E1.24162
G1 X76.070 Y75.802 E0.01689
G1 X103.930 Y103.662 E1.24162
M73 P6 R46
G1 X103.930 Y104.198 E0.01689
G1 X76.070 Y76.338 E1.24162
G1 X76.070 Y76.874 E0.01689
G1 X103.930 Y104.734 E1.24162
G1 X103.930 Y105.270 E0.01689
G1 X76.070 Y77.410 E1.24162
G1 X76.070 Y77.946 E0.01689
G1 X103.930 Y105.806 E1.24162
G1 X103.930 Y106.342 E0.01689
G1 X76.070 Y78.482 E1.24162
G1 X76.070 Y79.018 E0.01689
G1 X103.930 Y106.878 E1.24162
G1 X103.930 Y107.414 E0.01689
G1 X76.070 Y79.554 E1.24162
G1 X76.070 Y80.090 E0.01689
G1 X103.930 Y107.950 E1.24162
G1 X103.930 Y108.486 E0.01689
G1 X76.070 Y80.626 E1.24162
G1 X76.070 Y81.162 E0.01689
G1 X103.930 Y109.022 E1.24162
G1 X103.930 Y109.558 E0.01689
G1 X76.070 Y81.698 E1.24162
M73 P6 R45
G1 X76.070 Y82.234 E0.01689
G1 X103.930 Y110.094 E1.24162
G1 X103.930 Y110.630 E0.01689
G1 X76.070 Y82.770 E1.24162
G1 X76.070 Y83.306 E0.01689
G1 X103.930 Y111.166 E1.24162
G1 X103.930 Y111.702 E0.01689
G1 X76.070 Y83.841 E1.24162
M73 P7 R45
G1 X76.070 Y84.377 E0.01689
G1 X103.930 Y112.238 E1.24162
G1 X103.930 Y112.774 E0.01689
G1 X76.070 Y84.913 E1.24162
G1 X76.070 Y85.449 E0.01689
G1 X103.930 Y113.310 E1.24162
G1 X103.930 Y113.846 E0.01689
G1 X76.070 Y85.985 E1.24162
G1 X76.070 Y86.521 E0.01689
G1 X103.930 Y114.382 E1.24162
G1 X103.930 Y114.918 E0.01689
G1 X76.070 Y87.057 E1.24162
G1 X76.070 Y87.593 E0.01689
G1 X103.930 Y115.454 E1.24162
G1 X103.930 Y115.989 E0.01689
G1 X76.070 Y88.129 E1.24162
G1 X76.070 Y88.665 E0.01689
G1 X103.930 Y116.525 E1.24162
G1 X103.930 Y117.061 E0.01689
G1 X76.070 Y89.201 E1.24162
G1 X76.070 Y89.737 E0.01689
G1 X103.930 Y117.597 E1.24162
G1 X103.930 Y118.133 E0.01689
G1 X76.070 Y90.273 E1.24162
G1 X76.070 Y90.809 E0.01689
G1 X103.930 Y118.669 E1.24162
G1 X103.930 Y119.205 E0.01689
G1 X76.070 Y91.345 E1.24162
M73 P8 R45
G1 X76.070 Y91.881 E0.01689
G1 X103.930 Y119.741 E1.24162
G1 X103.930 Y120.277 E0.01689
G1 X76.070 Y92.417 E1.24162
G1 X76.070 Y92.953 E0.01689
G1 X103.930 Y120.813 E1.24162
G1 X103.930 Y121.349 E0.01689
G1 X76.070 Y93.489 E1.24162
G1 X76.070 Y94.025 E0.01689
G1 X103.930 Y121.885 E1.24162
G1 X103.930 Y122.421 E0.01689
G1 X76.070 Y94.561 E1.24162
G1 X76.070 Y95.097 E0.01689
G1 X103.930 Y122.957 E1.24162
G1 X103.930 Y123.493 E0.01689
G1 X76.070 Y95.633 E1.24162
G1 X76.070 Y96.169 E0.01689
G1 X103.831 Y123.930 E1.23721
G1 X103.295 Y123.930 E0.01689
G1 X76.070 Y96.705 E1.21333
G1 X76.070 Y97.241 E0.01689
G1 X102.759 Y123.930 E1.18944
G1 X102.223 Y123.930 E0.01689
G1 X76.070 Y97.777 E1.16556
M73 P8 R44
G1 X76.070 Y98.313 E0.01689
G1 X101.687 Y123.930 E1.14167
G1 X101.151 Y123.930 E0.01689
G1 X76.070 Y98.849 E1.11778
G1 X76.070 Y99.385 E0.01689
G1 X100.615 Y123.930 E1.09390
M73 P9 R44
G1 X100.079 Y123.930 E0.01689
G1 X76.070 Y99.921 E1.07001
G1 X76.070 Y100.457 E0.01689
G1 X99.543 Y123.930 E1.04612
G1 X99.007 Y123.930 E0.01689
G1 X76.070 Y100.993 E1.02224
G1 X76.070 Y101.528 E0.01689
G1 X98.472 Y123.930 E0.99835
G1 X97.936 Y123.930 E0.01689
G1 X76.070 Y102.064 E0.97447
G1 X76.070 Y102.600 E0.01689
G1 X97.400 Y123.930 E0.95058
G1 X96.864 Y123.930 E0.01689
G1 X76.070 Y103.136 E0.92669
G1 X76.070 Y103.672 E0.01689
G1 X96.328 Y123.930 E0.90281
G1 X95.792 Y123.930 E0.01689
G1 X76.070 Y104.208 E0.87892
G1 X76.070 Y104.744 E0.01689
G1 X95.256 Y123.930 E0.85504
G1 X94.720 Y123.930 E0.01689
G1 X76.070 Y105.280 E0.83115
G1 X76.070 Y105.816 E0.01689
G1 X94.184 Y123.930 E0.80726
G1 X93.648 Y123.930 E0.01689
G1 X76.070 Y106.352 E0.78338
G1 X76.070 Y106.888 E0.01689
G1 X93.112 Y123.930 E0.75949
G1 X92.576 Y123.930 E0.01689
G1 X76.070 Y107.424 E0.73561
G1 X76.070 Y107.960 E0.01689
G1 X92.040 Y123.930 E0.71172
G1 X91.504 Y123.930 E0.01689
G1 X76.070 Y108.496 E0.68783
G1 X76.070 Y109.032 E0.01689
G1 X90.968 Y123.930 E0.66395
G1 X90.432 Y123.930 E0.01689
G1 X76.070 Y109.568 E0.64006
G1 X76.070 Y110.104 E0.01689
G1 X89.896 Y123.930 E0.61618
G1 X89.360 Y123.930 E0.01689
G1 X76.070 Y110.640 E0.59229
G1 X76.070 Y111.176 E0.01689
G1 X88.824 Y123.930 E0.56840
M73 P10 R44
G1 X88.288 Y123.930 E0.01689
G1 X76.070 Y111.712 E0.54452
G1 X76.070 Y112.248 E0.01689
G1 X87.752 Y123.930 E0.52063
G1 X87.216 Y123.930 E0.01689
G1 X76.070 Y112.784 E0.49675
G1 X76.070 Y113.320 E0.01689
G1 X86.680 Y123.930 E0.47286
G1 X86.144 Y123.930 E0.01689
G1 X76.070 Y113.856 E0.44897
G1 X76.070 Y114.392 E0.01689
G1 X85.608 Y123.930 E0.42509
G1 X85.072 Y123.930 E0.01689
G1 X76.070 Y114.928 E0.40120
G1 X76.070 Y115.464 E0.01689
G1 X84.536 Y123.930 E0.37731
G1 X84.000 Y123.930 E0.01689
G1 X76.070 Y116.000 E0.35343
G1 X76.070 Y116.536 E0.01689
G1 X83.464 Y123.930 E0.32954
G1 X82.928 Y123.930 E0.01689
G1 X76.070 Y117.072 E0.30566
G1 X76.070 Y117.608 E0.01689
G1 X82.392 Y123.930 E0.28177
G1 X81.856 Y123.930 E0.01689
G1 X76.070 Y118.144 E0.25788
G1 X76.070 Y118.680 E0.01689
G1 X81.320 Y123.930 E0.23400
G1 X80.784 Y123.930 E0.01689
G1 X76.070 Y119.216 E0.21011
G1 X76.070 Y119.751 E0.01689
G1 X80.249 Y123.930 E0.18623
G1 X79.713 Y123.930 E0.01689
G1 X76.070 Y120.287 E0.16234
G1 X76.070 Y120.823 E0.01689
G1 X79.177 Y123.930 E0.13845
G1 X78.641 Y123.930 E0.01689
G1 X76.070 Y121.359 E0.11457
G1 X76.070 Y121.895 E0.01689
G1 X78.105 Y123.930 E0.09068
G1 X77.569 Y123.930 E0.01689
G1 X76.070 Y122.431 E0.06680
G1 X76.070 Y122.967 E0.01689
G1 X77.033 Y123.930 E0.04291
G1 X76.497 Y123.930 E0.01689
G1 X75.900 Y123.334 E0.02659
M204 S1250
; stop printing object road_blocker rev_1_test1.stl id:0 copy 0
M106 S84.15
;LAYER_CHANGE
;Z:0.4
;HEIGHT:0.2
;BEFORE_LAYER_CHANGE
G92 E0.0
;0.4


G1 Z0.400 F9000.000
;AFTER_LAYER_CHANGE
;0.4
M104 S210 ; set temperature
G1 E-3.20000 F4200.000
G1 Z0.600 F9000.000
G1 X74.091 Y127.196
G1 Z0.400
G1 E3.20000 F2400.000
;TYPE:Skirt
;WIDTH:0.42
G1 X73.500 Y126.844 E0.02154
G1 X73.036 Y126.339 E0.02154
G1 X72.735 Y125.721 E0.02154
G1 X72.623 Y125.043 E0.02154
G1 X72.623 Y54.992 E2.19639
G1 X72.804 Y54.091 E0.02884
G1 X73.146 Y53.512 E0.02107
G1 X73.633 Y53.055 E0.02095
G1 X74.232 Y52.750 E0.02107
G1 X74.892 Y52.625 E0.02107
G1 X105.004 Y52.623 E0.94413
G1 X105.895 Y52.798 E0.02849
G1 X106.659 Y53.297 E0.02860
G1 X107.176 Y54.044 E0.02849
G1 X107.376 Y54.930 E0.02849
G1 X107.377 Y125.008 E2.19722
G1 X107.196 Y125.909 E0.02884
G1 X106.852 Y126.491 E0.02119
G1 X106.357 Y126.951 E0.02119
G1 X105.757 Y127.253 E0.02107
G1 X105.092 Y127.375 E0.02119
G1 X74.989 Y127.377 E0.94389
G1 X74.149 Y127.208 E0.02684
; printing object road_blocker rev_1_test1.stl id:0 copy 0
G1 E-2.24000 F4200.000
;WIPE_START
G1 F7200.000
G1 X73.500 Y126.844 E-0.41223
G1 X73.036 Y126.339 E-0.38072
G1 X72.942 Y126.145 E-0.11905
;WIPE_END
G1 E-0.04800 F4200.000
G1 Z0.600 F9000.000
G1 X75.632 Y124.368
G1 Z0.400
G1 E3.20000 F2400.000
M204 S800
;TYPE:Perimeter
;WIDTH:0.45
G1 F3000.000
G1 X75.632 Y55.632 E2.32663
G1 X104.368 Y55.632 E0.97267
G1 X104.368 Y124.368 E2.32663
G1 X75.692 Y124.368 E0.97064
M204 S1250
G1 X75.225 Y124.775 F9000.000
M204 S800
;TYPE:External perimeter
G1 F2400.000
G1 X75.225 Y55.225 E2.35418
G1 X104.775 Y55.225 E1.00023
M73 P10 R43
G1 X104.775 Y124.775 E2.35418
G1 X75.285 Y124.775 E0.99820
M204 S1250
G1 X75.278 Y124.379 F9000.000
G1 E-2.24000 F4200.000
;WIPE_START
G1 F7200.000
G1 X75.284 Y123.129 E-0.91200
;WIPE_END
G1 E-0.04800 F4200.000
G1 Z0.600 F9000.000
G1 X104.246 Y123.420
G1 Z0.400
G1 E3.20000 F2400.000
M204 S1000
;TYPE:Solid infill
;WIDTH:0.451461
G1 F8400.000
G1 X103.603 Y124.063 E0.03088
G1 X103.025 Y124.063 E0.01963
G1 X104.063 Y123.025 E0.04984
G1 X104.063 Y122.447 E0.01963
G1 X102.447 Y124.063 E0.07759
G1 X101.870 Y124.063 E0.01963
G1 X104.063 Y121.870 E0.10535
G1 X104.063 Y121.292 E0.01963
G1 X101.292 Y124.063 E0.13311
G1 X100.714 Y124.063 E0.01963
G1 X104.063 Y120.714 E0.16086
G1 X104.063 Y120.136 E0.01963
G1 X100.136 Y124.063 E0.18862
