; generated by PrusaSlicer 2.3.3+win64 on 2021-10-08 at 12:10:51 UTC


;
;

;
;
; 

; external perimeters extrusion width = 0.45mm
; perimeters extrusion width = 0.45mm
; infill extrusion width = 0.45mm
; solid infill extrusion width = 0.45mm
; top infill extrusion width = 0.40mm
; first layer extrusion width = 0.42mm

M73 P0 R80
M201 X1250 Y1250 Z400 E5000 ; sets maximum accelerations, mm/sec^2
M203 X180 Y180 Z12 E80 ; sets maximum feedrates, mm/sec
M204 P1250 R1250 T1250 ; sets acceleration (P, T) and retract acceleration (R), mm/sec^2
M205 X8.00 Y8.00 Z2.00 E10.00 ; sets the jerk limits, mm/sec
M205 S0 T0 ; sets the minimum extruding and travel feed rate, mm/sec
M107
;TYPE:Custom
G90 ; use absolute coordinates
M83 ; extruder relative mode
M104 S170 ; set extruder temp for bed leveling
M140 S60 ; set bed temp
M109 R170 ; wait for bed leveling temp
M190 S60 ; wait for bed temp
G28 ; home all without mesh bed level
G29 ; mesh bed leveling 
M104 S215 ; set extruder temp
G92 E0.0
G1 Y-2.0 X179 F2400
G1 Z3 F720
M109 S215 ; wait for extruder temp

; intro line
G1 X170 F1000
G1 Z0.2 F720
G1 X110.0 E8.0 F900
M73 P0 R79
G1 X40.0 E10.0 F700
G92 E0.0

M221 S95 ; set flow
G21 ; set units to millimeters
G90 ; use absolute coordinates
M83 ; use relative distances for extrusion
M900 K0.2 ; Filament gcode LA 1.5
; ; Filament gcode LA 1.0
;LAYER_CHANGE
;Z:0.2
;HEIGHT:0.2
;BEFORE_LAYER_CHANGE
G92 E0.0
;0.2


G1 Z0.200 F9000.000
;AFTER_LAYER_CHANGE
;0.2
G1 E-3.20000 F4200.000
G1 Z0.400 F9000.000
G1 X57.722 Y44.320
G1 Z0.200
G1 E3.20000 F2400.000
M204 S800
;TYPE:Skirt
;WIDTH:0.42
G1 F1200.000
G1 X58.006 Y43.707 E0.02119
G1 X58.376 Y43.264 E0.01811
G1 X58.846 Y42.922 E0.01823
G1 X59.381 Y42.705 E0.01811
G1 X59.957 Y42.623 E0.01823
G1 X120.004 Y42.623 E1.88272
G1 X120.902 Y42.801 E0.02872
G1 X121.664 Y43.303 E0.02860
G1 X122.181 Y44.055 E0.02860
G1 X122.377 Y44.949 E0.02872
G1 X122.377 Y135.011 E2.82383
G1 X122.278 Y135.680 E0.02119
G1 X121.994 Y136.293 E0.02119
G1 X121.618 Y136.741 E0.01835
G1 X121.147 Y137.082 E0.01823
G1 X120.608 Y137.298 E0.01823
G1 X120.028 Y137.377 E0.01835
G1 X59.985 Y137.377 E1.88261
G1 X59.317 Y137.277 E0.02119
G1 X58.707 Y136.994 E0.02107
G1 X58.259 Y136.618 E0.01835
G1 X57.914 Y136.140 E0.01846
G1 X57.699 Y135.596 E0.01835
G1 X57.623 Y135.016 E0.01835
G1 X57.623 Y44.989 E2.82276
G1 X57.713 Y44.380 E0.01931
M204 S1250
; printing object road_blocker_test.stl id:0 copy 0
G1 E-2.24000 F4200.000
;WIPE_START
G1 F7200.000
G1 X58.006 Y43.707 E-0.40647
G1 X58.376 Y43.264 E-0.32005
G1 X58.647 Y43.067 E-0.18548
;WIPE_END
G1 E-0.04800 F4200.000
G1 Z0.400 F9000.000
G1 X60.787 Y45.787
G1 Z0.200
G1 E3.20000 F2400.000
M204 S800
;TYPE:Perimeter
G1 F1200.000
G1 X119.213 Y45.787 E1.83190
G1 X119.213 Y134.213 E2.77253
G1 X60.787 Y134.213 E1.83190
G1 X60.787 Y45.847 E2.77065
M204 S1250
G1 X60.410 Y45.410 F9000.000
M204 S800
;TYPE:External perimeter
G1 F1200.000
G1 X119.590 Y45.410 E1.85555
M73 P1 R79
G1 X119.590 Y134.590 E2.79618
G1 X60.410 Y134.590 E1.85555
G1 X60.410 Y45.470 E2.79430
M204 S1250
G1 X60.789 Y45.539 F9000.000
G1 E-2.24000 F4200.000
;WIPE_START
G1 F7200.000
G1 X62.056 Y45.468 E-0.91200
;WIPE_END
G1 E-0.04800 F4200.000
G1 Z0.400 F9000.000
G1 X118.336 Y45.900
G1 Z0.200
G1 E3.20000 F2400.000
M204 S800
;TYPE:Solid infill
;WIDTH:0.420924
G1 F1200.000
G1 X118.930 Y46.495 E0.02643
G1 X118.930 Y47.029 E0.01680
G1 X117.971 Y46.070 E0.04265
G1 X117.436 Y46.070 E0.01680
G1 X118.930 Y47.564 E0.06641
G1 X118.930 Y48.098 E0.01680
G1 X116.902 Y46.070 E0.09017
G1 X116.367 Y46.070 E0.01680
G1 X118.930 Y48.633 E0.11393
G1 X118.930 Y49.168 E0.01680
G1 X115.832 Y46.070 E0.13770
G1 X115.298 Y46.070 E0.01680
G1 X118.930 Y49.702 E0.16146
G1 X118.930 Y50.237 E0.01680
G1 X114.763 Y46.070 E0.18522
G1 X114.229 Y46.070 E0.01680
G1 X118.930 Y50.771 E0.20898
G1 X118.930 Y51.306 E0.01680
G1 X113.694 Y46.070 E0.23275
G1 X113.159 Y46.070 E0.01680
G1 X118.930 Y51.841 E0.25651
G1 X118.930 Y52.375 E0.01680
G1 X112.625 Y46.070 E0.28027
G1 X112.090 Y46.070 E0.01680
G1 X118.930 Y52.910 E0.30403
G1 X118.930 Y53.444 E0.01680
G1 X111.556 Y46.070 E0.32779
G1 X111.021 Y46.070 E0.01680
G1 X118.930 Y53.979 E0.35156
M73 P1 R78
G1 X118.930 Y54.513 E0.01680
G1 X110.487 Y46.070 E0.37532
G1 X109.952 Y46.070 E0.01680
G1 X118.930 Y55.048 E0.39908
G1 X118.930 Y55.583 E0.01680
G1 X109.417 Y46.070 E0.42284
G1 X108.883 Y46.070 E0.01680
G1 X118.930 Y56.117 E0.44660
G1 X118.930 Y56.652 E0.01680
G1 X108.348 Y46.070 E0.47037
G1 X107.814 Y46.070 E0.01680
G1 X118.930 Y57.186 E0.49413
G1 X118.930 Y57.721 E0.01680
G1 X107.279 Y46.070 E0.51789
G1 X106.745 Y46.070 E0.01680
G1 X118.930 Y58.255 E0.54165
G1 X118.930 Y58.790 E0.01680
G1 X106.210 Y46.070 E0.56542
G1 X105.675 Y46.070 E0.01680
G1 X118.930 Y59.325 E0.58918
G1 X118.930 Y59.859 E0.01680
G1 X105.141 Y46.070 E0.61294
G1 X104.606 Y46.070 E0.01680
G1 X118.930 Y60.394 E0.63670
G1 X118.930 Y60.928 E0.01680
G1 X104.072 Y46.070 E0.66046
G1 X103.537 Y46.070 E0.01680
G1 X118.930 Y61.463 E0.68423
G1 X118.930 Y61.998 E0.01680
G1 X103.002 Y46.070 E0.70799
G1 X102.468 Y46.070 E0.01680
G1 X118.930 Y62.532 E0.73175
G1 X118.930 Y63.067 E0.01680
G1 X101.933 Y46.070 E0.75551
G1 X101.399 Y46.070 E0.01680
G1 X118.930 Y63.601 E0.77928
G1 X118.930 Y64.136 E0.01680
G1 X100.864 Y46.070 E0.80304
G1 X100.330 Y46.070 E0.01680
G1 X118.930 Y64.670 E0.82680
G1 X118.930 Y65.205 E0.01680
G1 X99.795 Y46.070 E0.85056
G1 X99.260 Y46.070 E0.01680
G1 X118.930 Y65.740 E0.87432
G1 X118.930 Y66.274 E0.01680
G1 X98.726 Y46.070 E0.89809
G1 X98.191 Y46.070 E0.01680
G1 X118.930 Y66.809 E0.92185
G1 X118.930 Y67.343 E0.01680
G1 X97.657 Y46.070 E0.94561
G1 X97.122 Y46.070 E0.01680
G1 X118.930 Y67.878 E0.96937
M73 P2 R78
G1 X118.930 Y68.412 E0.01680
G1 X96.588 Y46.070 E0.99314
G1 X96.053 Y46.070 E0.01680
G1 X118.930 Y68.947 E1.01690
G1 X118.930 Y69.482 E0.01680
G1 X95.518 Y46.070 E1.04066
G1 X94.984 Y46.070 E0.01680
G1 X118.930 Y70.016 E1.06442
G1 X118.930 Y70.551 E0.01680
G1 X94.449 Y46.070 E1.08818
G1 X93.915 Y46.070 E0.01680
G1 X118.930 Y71.085 E1.11195
G1 X118.930 Y71.620 E0.01680
G1 X93.380 Y46.070 E1.13571
G1 X92.845 Y46.070 E0.01680
G1 X118.930 Y72.154 E1.15947
G1 X118.930 Y72.689 E0.01680
G1 X92.311 Y46.070 E1.18323
G1 X91.776 Y46.070 E0.01680
G1 X118.930 Y73.224 E1.20700
G1 X118.930 Y73.758 E0.01680
G1 X91.242 Y46.070 E1.23076
G1 X90.707 Y46.070 E0.01680
G1 X118.930 Y74.293 E1.25452
G1 X118.930 Y74.827 E0.01680
G1 X90.173 Y46.070 E1.27828
G1 X89.638 Y46.070 E0.01680
G1 X118.930 Y75.362 E1.30204
G1 X118.930 Y75.897 E0.01680
G1 X89.103 Y46.070 E1.32581
G1 X88.569 Y46.070 E0.01680
G1 X118.930 Y76.431 E1.34957
G1 X118.930 Y76.966 E0.01680
G1 X88.034 Y46.070 E1.37333
M73 P2 R77
G1 X87.500 Y46.070 E0.01680
G1 X118.930 Y77.500 E1.39709
G1 X118.930 Y78.035 E0.01680
G1 X86.965 Y46.070 E1.42086
G1 X86.431 Y46.070 E0.01680
G1 X118.930 Y78.569 E1.44462
G1 X118.930 Y79.104 E0.01680
G1 X85.896 Y46.070 E1.46838
G1 X85.361 Y46.070 E0.01680
G1 X118.930 Y79.639 E1.49214
G1 X118.930 Y80.173 E0.01680
G1 X84.827 Y46.070 E1.51590
M73 P3 R77
G1 X84.292 Y46.070 E0.01680
G1 X118.930 Y80.708 E1.53967
G1 X118.930 Y81.242 E0.01680
G1 X83.758 Y46.070 E1.56343
G1 X83.223 Y46.070 E0.01680
G1 X118.930 Y81.777 E1.58719
G1 X118.930 Y82.311 E0.01680
G1 X82.689 Y46.070 E1.61095
G1 X82.154 Y46.070 E0.01680
G1 X118.930 Y82.846 E1.63472
G1 X118.930 Y83.381 E0.01680
G1 X81.619 Y46.070 E1.65848
G1 X81.085 Y46.070 E0.01680
G1 X118.930 Y83.915 E1.68224
G1 X118.930 Y84.450 E0.01680
G1 X80.550 Y46.070 E1.70600
G1 X80.016 Y46.070 E0.01680
G1 X118.930 Y84.984 E1.72976
G1 X118.930 Y85.519 E0.01680
G1 X79.481 Y46.070 E1.75353
G1 X78.946 Y46.070 E0.01680
G1 X118.930 Y86.054 E1.77729
G1 X118.930 Y86.588 E0.01680
G1 X78.412 Y46.070 E1.80105
G1 X77.877 Y46.070 E0.01680
G1 X118.930 Y87.123 E1.82481
G1 X118.930 Y87.657 E0.01680
G1 X77.343 Y46.070 E1.84858
G1 X76.808 Y46.070 E0.01680
G1 X118.930 Y88.192 E1.87234
G1 X118.930 Y88.726 E0.01680
G1 X76.274 Y46.070 E1.89610
M73 P3 R76
G1 X75.739 Y46.070 E0.01680
G1 X118.930 Y89.261 E1.91986
G1 X118.930 Y89.796 E0.01680
G1 X75.204 Y46.070 E1.94362
M73 P4 R76
G1 X74.670 Y46.070 E0.01680
G1 X118.930 Y90.330 E1.96739
G1 X118.930 Y90.865 E0.01680
G1 X74.135 Y46.070 E1.99115
G1 X73.601 Y46.070 E0.01680
G1 X118.930 Y91.399 E2.01491
G1 X118.930 Y91.934 E0.01680
G1 X73.066 Y46.070 E2.03867
G1 X72.532 Y46.070 E0.01680
G1 X118.930 Y92.468 E2.06244
G1 X118.930 Y93.003 E0.01680
G1 X71.997 Y46.070 E2.08620
G1 X71.462 Y46.070 E0.01680
G1 X118.930 Y93.538 E2.10996
G1 X118.930 Y94.072 E0.01680
G1 X70.928 Y46.070 E2.13372
G1 X70.393 Y46.070 E0.01680
G1 X118.930 Y94.607 E2.15748
G1 X118.930 Y95.141 E0.01680
G1 X69.859 Y46.070 E2.18125
G1 X69.324 Y46.070 E0.01680
G1 X118.930 Y95.676 E2.20501
G1 X118.930 Y96.211 E0.01680
G1 X68.789 Y46.070 E2.22877
G1 X68.255 Y46.070 E0.01680
G1 X118.930 Y96.745 E2.25253
G1 X118.930 Y97.280 E0.01680
G1 X67.720 Y46.070 E2.27630
M73 P5 R76
G1 X67.186 Y46.070 E0.01680
G1 X118.930 Y97.814 E2.30006
G1 X118.930 Y98.349 E0.01680
G1 X66.651 Y46.070 E2.32382
M73 P5 R75
G1 X66.117 Y46.070 E0.01680
G1 X118.930 Y98.883 E2.34758
G1 X118.930 Y99.418 E0.01680
G1 X65.582 Y46.070 E2.37134
G1 X65.047 Y46.070 E0.01680
G1 X118.930 Y99.953 E2.39511
G1 X118.930 Y100.487 E0.01680
G1 X64.513 Y46.070 E2.41887
G1 X63.978 Y46.070 E0.01680
G1 X118.930 Y101.022 E2.44263
G1 X118.930 Y101.556 E0.01680
G1 X63.444 Y46.070 E2.46639
G1 X62.909 Y46.070 E0.01680
G1 X118.930 Y102.091 E2.49016
G1 X118.930 Y102.625 E0.01680
G1 X62.375 Y46.070 E2.51392
G1 X61.840 Y46.070 E0.01680
G1 X118.930 Y103.160 E2.53768
G1 X118.930 Y103.695 E0.01680
G1 X61.305 Y46.070 E2.56144
M73 P6 R75
G1 X61.070 Y46.070 E0.00740
G1 X61.070 Y46.369 E0.00940
G1 X118.930 Y104.229 E2.57191
G1 X118.930 Y104.764 E0.01680
G1 X61.070 Y46.904 E2.57191
G1 X61.070 Y47.438 E0.01680
G1 X118.930 Y105.298 E2.57191
G1 X118.930 Y105.833 E0.01680
G1 X61.070 Y47.973 E2.57191
G1 X61.070 Y48.507 E0.01680
G1 X118.930 Y106.368 E2.57191
M73 P6 R74
G1 X118.930 Y106.902 E0.01680
G1 X61.070 Y49.042 E2.57191
G1 X61.070 Y49.576 E0.01680
G1 X118.930 Y107.437 E2.57191
G1 X118.930 Y107.971 E0.01680
G1 X61.070 Y50.111 E2.57191
G1 X61.070 Y50.646 E0.01680
G1 X118.930 Y108.506 E2.57191
G1 X118.930 Y109.040 E0.01680
G1 X61.070 Y51.180 E2.57191
G1 X61.070 Y51.715 E0.01680
G1 X118.930 Y109.575 E2.57191
G1 X118.930 Y110.110 E0.01680
G1 X61.070 Y52.249 E2.57191
M73 P7 R74
G1 X61.070 Y52.784 E0.01680
G1 X118.930 Y110.644 E2.57191
G1 X118.930 Y111.179 E0.01680
G1 X61.070 Y53.318 E2.57191
G1 X61.070 Y53.853 E0.01680
G1 X118.930 Y111.713 E2.57191
G1 X118.930 Y112.248 E0.01680
G1 X61.070 Y54.388 E2.57191
G1 X61.070 Y54.922 E0.01680
G1 X118.930 Y112.782 E2.57191
G1 X118.930 Y113.317 E0.01680
G1 X61.070 Y55.457 E2.57191
G1 X61.070 Y55.991 E0.01680
G1 X118.930 Y113.852 E2.57191
G1 X118.930 Y114.386 E0.01680
G1 X61.070 Y56.526 E2.57191
M73 P7 R73
G1 X61.070 Y57.061 E0.01680
G1 X118.930 Y114.921 E2.57191
G1 X118.930 Y115.455 E0.01680
G1 X61.070 Y57.595 E2.57191
G1 X61.070 Y58.130 E0.01680
G1 X118.930 Y115.990 E2.57191
M73 P8 R73
G1 X118.930 Y116.525 E0.01680
G1 X61.070 Y58.664 E2.57191
G1 X61.070 Y59.199 E0.01680
G1 X118.930 Y117.059 E2.57191
G1 X118.930 Y117.594 E0.01680
G1 X61.070 Y59.733 E2.57191
G1 X61.070 Y60.268 E0.01680
G1 X118.930 Y118.128 E2.57191
G1 X118.930 Y118.663 E0.01680
G1 X61.070 Y60.803 E2.57191
G1 X61.070 Y61.337 E0.01680
G1 X118.930 Y119.197 E2.57191
G1 X118.930 Y119.732 E0.01680
G1 X61.070 Y61.872 E2.57191
G1 X61.070 Y62.406 E0.01680
G1 X118.930 Y120.267 E2.57191
G1 X118.930 Y120.801 E0.01680
G1 X61.070 Y62.941 E2.57191
G1 X61.070 Y63.475 E0.01680
G1 X118.930 Y121.336 E2.57191
G1 X118.930 Y121.870 E0.01680
G1 X61.070 Y64.010 E2.57191
M73 P8 R72
G1 X61.070 Y64.545 E0.01680
G1 X118.930 Y122.405 E2.57191
M73 P9 R72
G1 X118.930 Y122.939 E0.01680
G1 X61.070 Y65.079 E2.57191
G1 X61.070 Y65.614 E0.01680
G1 X118.930 Y123.474 E2.57191
G1 X118.930 Y124.009 E0.01680
G1 X61.070 Y66.148 E2.57191
G1 X61.070 Y66.683 E0.01680
G1 X118.930 Y124.543 E2.57191
G1 X118.930 Y125.078 E0.01680
G1 X61.070 Y67.218 E2.57191
G1 X61.070 Y67.752 E0.01680
G1 X118.930 Y125.612 E2.57191
G1 X118.930 Y126.147 E0.01680
G1 X61.070 Y68.287 E2.57191
G1 X61.070 Y68.821 E0.01680
G1 X118.930 Y126.681 E2.57191
G1 X118.930 Y127.216 E0.01680
G1 X61.070 Y69.356 E2.57191
G1 X61.070 Y69.890 E0.01680
G1 X118.930 Y127.751 E2.57191
G1 X118.930 Y128.285 E0.01680
G1 X61.070 Y70.425 E2.57191
M73 P10 R72
G1 X61.070 Y70.960 E0.01680
G1 X118.930 Y128.820 E2.57191
G1 X118.930 Y129.354 E0.01680
G1 X61.070 Y71.494 E2.57191
G1 X61.070 Y72.029 E0.01680
G1 X118.930 Y129.889 E2.57191
M73 P10 R71
G1 X118.930 Y130.424 E0.01680
G1 X61.070 Y72.563 E2.57191
G1 X61.070 Y73.098 E0.01680
G1 X118.930 Y130.958 E2.57191
G1 X118.930 Y131.493 E0.01680
G1 X61.070 Y73.632 E2.57191
G1 X61.070 Y74.167 E0.01680
G1 X118.930 Y132.027 E2.57191
G1 X118.930 Y132.562 E0.01680
G1 X61.070 Y74.702 E2.57191
G1 X61.070 Y75.236 E0.01680
G1 X118.930 Y133.096 E2.57191
G1 X118.930 Y133.631 E0.01680
G1 X61.070 Y75.771 E2.57191
G1 X61.070 Y76.305 E0.01680
G1 X118.695 Y133.930 E2.56144
G1 X118.160 Y133.930 E0.01680
G1 X61.070 Y76.840 E2.53768
M73 P11 R71
G1 X61.070 Y77.375 E0.01680
G1 X117.625 Y133.930 E2.51392
G1 X117.091 Y133.930 E0.01680
G1 X61.070 Y77.909 E2.49016
G1 X61.070 Y78.444 E0.01680
G1 X116.556 Y133.930 E2.46639
G1 X116.022 Y133.930 E0.01680
G1 X61.070 Y78.978 E2.44263
G1 X61.070 Y79.513 E0.01680
G1 X115.487 Y133.930 E2.41887
M73 P11 R70
G1 X114.953 Y133.930 E0.01680
G1 X61.070 Y80.047 E2.39511
G1 X61.070 Y80.582 E0.01680
G1 X114.418 Y133.930 E2.37135
G1 X113.883 Y133.930 E0.01680
G1 X61.070 Y81.117 E2.34758
G1 X61.070 Y81.651 E0.01680
G1 X113.349 Y133.930 E2.32382
G1 X112.814 Y133.930 E0.01680
G1 X61.070 Y82.186 E2.30006
G1 X61.070 Y82.720 E0.01680
G1 X112.280 Y133.930 E2.27630
G1 X111.745 Y133.930 E0.01680
G1 X61.070 Y83.255 E2.25253
M73 P12 R70
G1 X61.070 Y83.789 E0.01680
G1 X111.211 Y133.930 E2.22877
G1 X110.676 Y133.930 E0.01680
G1 X61.070 Y84.324 E2.20501
G1 X61.070 Y84.859 E0.01680
G1 X110.141 Y133.930 E2.18125
G1 X109.607 Y133.930 E0.01680
G1 X61.070 Y85.393 E2.15749
G1 X61.070 Y85.928 E0.01680
G1 X109.072 Y133.930 E2.13372
G1 X108.538 Y133.930 E0.01680
G1 X61.070 Y86.462 E2.10996
G1 X61.070 Y86.997 E0.01680
G1 X108.003 Y133.930 E2.08620
G1 X107.469 Y133.930 E0.01680
G1 X61.070 Y87.531 E2.06244
G1 X61.070 Y88.066 E0.01680
G1 X106.934 Y133.930 E2.03867
G1 X106.399 Y133.930 E0.01680
G1 X61.070 Y88.601 E2.01491
M73 P12 R69
G1 X61.070 Y89.135 E0.01680
G1 X105.865 Y133.930 E1.99115
G1 X105.330 Y133.930 E0.01680
G1 X61.070 Y89.670 E1.96739
G1 X61.070 Y90.204 E0.01680
G1 X104.796 Y133.930 E1.94363
G1 X104.261 Y133.930 E0.01680
G1 X61.070 Y90.739 E1.91986
M73 P13 R69
G1 X61.070 Y91.274 E0.01680
G1 X103.726 Y133.930 E1.89610
G1 X103.192 Y133.930 E0.01680
G1 X61.070 Y91.808 E1.87234
G1 X61.070 Y92.343 E0.01680
G1 X102.657 Y133.930 E1.84858
G1 X102.123 Y133.930 E0.01680
G1 X61.070 Y92.877 E1.82481
G1 X61.070 Y93.412 E0.01680
G1 X101.588 Y133.930 E1.80105
G1 X101.054 Y133.930 E0.01680
G1 X61.070 Y93.946 E1.77729
G1 X61.070 Y94.481 E0.01680
G1 X100.519 Y133.930 E1.75353
G1 X99.984 Y133.930 E0.01680
G1 X61.070 Y95.016 E1.72977
G1 X61.070 Y95.550 E0.01680
G1 X99.450 Y133.930 E1.70600
G1 X98.915 Y133.930 E0.01680
G1 X61.070 Y96.085 E1.68224
G1 X61.070 Y96.619 E0.01680
G1 X98.381 Y133.930 E1.65848
G1 X97.846 Y133.930 E0.01680
G1 X61.070 Y97.154 E1.63472
G1 X61.070 Y97.688 E0.01680
G1 X97.312 Y133.930 E1.61095
G1 X96.777 Y133.930 E0.01680
G1 X61.070 Y98.223 E1.58719
G1 X61.070 Y98.758 E0.01680
G1 X96.242 Y133.930 E1.56343
G1 X95.708 Y133.930 E0.01680
G1 X61.070 Y99.292 E1.53967
G1 X61.070 Y99.827 E0.01680
G1 X95.173 Y133.930 E1.51591
M73 P13 R68
G1 X94.639 Y133.930 E0.01680
G1 X61.070 Y100.361 E1.49214
M73 P14 R68
G1 X61.070 Y100.896 E0.01680
G1 X94.104 Y133.930 E1.46838
G1 X93.569 Y133.930 E0.01680
G1 X61.070 Y101.431 E1.44462
G1 X61.070 Y101.965 E0.01680
G1 X93.035 Y133.930 E1.42086
G1 X92.500 Y133.930 E0.01680
G1 X61.070 Y102.500 E1.39709
G1 X61.070 Y103.034 E0.01680
G1 X91.966 Y133.930 E1.37333
