; generated by PrusaSlicer 2.3.3+win64 on 2021-10-12 at 14:36:19 UTC


;
;

;
;
; 

; external perimeters extrusion width = 0.45mm
; perimeters extrusion width = 0.45mm
; infill extrusion width = 0.45mm
; solid infill extrusion width = 0.45mm
; top infill extrusion width = 0.40mm
; first layer extrusion width = 0.42mm

M73 P0 R260
M201 X1250 Y1250 Z400 E5000 ; sets maximum accelerations, mm/sec^2
M203 X180 Y180 Z12 E80 ; sets maximum feedrates, mm/sec
M204 P1250 R1250 T1250 ; sets acceleration (P, T) and retract acceleration (R), mm/sec^2
M205 X8.00 Y8.00 Z2.00 E10.00 ; sets the jerk limits, mm/sec
M205 S0 T0 ; sets the minimum extruding and travel feed rate, mm/sec
M107
;TYPE:Custom
G90 ; use absolute coordinates
M83 ; extruder relative mode
M104 S170 ; set extruder temp for bed leveling
M140 S60 ; set bed temp
M109 R170 ; wait for bed leveling temp
M190 S60 ; wait for bed temp
G28 ; home all without mesh bed level
G29 ; mesh bed leveling 
M104 S215 ; set extruder temp
G92 E0.0
G1 Y-2.0 X179 F2400
G1 Z3 F720
M109 S215 ; wait for extruder temp

; intro line
G1 X170 F1000
G1 Z0.2 F720
G1 X110.0 E8.0 F900
M73 P0 R259
G1 X40.0 E10.0 F700
G92 E0.0

M221 S95 ; set flow
G21 ; set units to millimeters
G90 ; use absolute coordinates
M83 ; use relative distances for extrusion
M900 K0.2 ; Filament gcode LA 1.5
; ; Filament gcode LA 1.0
;LAYER_CHANGE
;Z:0.2
;HEIGHT:0.2
;BEFORE_LAYER_CHANGE
G92 E0.0
;0.2


G1 Z0.200 F9000.000
;AFTER_LAYER_CHANGE
;0.2
G1 E-3.20000 F4200.000
G1 Z0.400 F9000.000
G1 X39.265 Y52.740
G1 Z0.200
G1 E3.20000 F2400.000
M204 S800
;TYPE:Skirt
;WIDTH:0.42
G1 F1200.000
G1 X39.991 Y52.623 E0.02308
G1 X140.004 Y52.623 E3.13582
G1 X140.902 Y52.801 E0.02872
G1 X141.667 Y53.305 E0.02872
G1 X142.184 Y54.062 E0.02872
G1 X142.377 Y54.957 E0.02872
G1 X142.377 Y125.030 E2.19710
G1 X142.306 Y125.577 E0.01728
G1 X142.111 Y126.092 E0.01728
G1 X141.803 Y126.549 E0.01728
G1 X141.395 Y126.925 E0.01740
G1 X140.735 Y127.260 E0.02319
G1 X140.009 Y127.377 E0.02308
G1 X39.989 Y127.377 E3.13606
G1 X39.434 Y127.309 E0.01752
G1 X38.914 Y127.115 E0.01740
G1 X38.451 Y126.803 E0.01752
G1 X38.075 Y126.395 E0.01740
G1 X37.742 Y125.743 E0.02296
G1 X37.623 Y125.016 E0.02308
G1 X37.623 Y54.981 E2.19591
G1 X37.692 Y54.430 E0.01740
G1 X37.887 Y53.911 E0.01740
G1 X38.197 Y53.451 E0.01740
G1 X38.605 Y53.075 E0.01740
G1 X39.211 Y52.767 E0.02131
M204 S1250
; printing object road_blocker rev_1_final.stl id:0 copy 0
G1 E-2.24000 F4200.000
;WIPE_START
G1 F7200.000
G1 X39.991 Y52.623 E-0.43962
G1 X40.844 Y52.623 E-0.47238
;WIPE_END
G1 E-0.04800 F4200.000
G1 Z0.400 F9000.000
G1 X40.787 Y55.787
G1 Z0.200
G1 E3.20000 F2400.000
M204 S800
;TYPE:Perimeter
G1 F1200.000
G1 X139.213 Y55.787 E3.08607
G1 X139.213 Y124.213 E2.14544
G1 X40.787 Y124.213 E3.08607
G1 X40.787 Y55.847 E2.14356
M204 S1250
G1 X40.410 Y55.410 F9000.000
M204 S800
;TYPE:External perimeter
G1 F1200.000
G1 X139.590 Y55.410 E3.10972
G1 X139.590 Y124.590 E2.16909
G1 X40.410 Y124.590 E3.10972
G1 X40.410 Y55.470 E2.16721
M204 S1250
G1 X40.802 Y55.491 F9000.000
G1 E-2.24000 F4200.000
;WIPE_START
G1 F7200.000
G1 X42.056 Y55.469 E-0.91200
;WIPE_END
G1 E-0.04800 F4200.000
G1 Z0.400 F9000.000
G1 X138.337 Y55.900
G1 Z0.200
G1 E3.20000 F2400.000
M204 S800
;TYPE:Solid infill
;WIDTH:0.420212
G1 F1200.000
G1 X138.930 Y56.493 E0.02631
G1 X138.930 Y57.027 E0.01674
G1 X137.973 Y56.070 E0.04246
G1 X137.440 Y56.070 E0.01674
G1 X138.930 Y57.560 E0.06613
G1 X138.930 Y58.094 E0.01674
G1 X136.906 Y56.070 E0.08980
M73 P0 R258
G1 X136.372 Y56.070 E0.01674
G1 X138.930 Y58.628 E0.11347
G1 X138.930 Y59.161 E0.01674
G1 X135.839 Y56.070 E0.13715
G1 X135.305 Y56.070 E0.01674
G1 X138.930 Y59.695 E0.16082
G1 X138.930 Y60.228 E0.01674
G1 X134.772 Y56.070 E0.18449
G1 X134.238 Y56.070 E0.01674
G1 X138.930 Y60.762 E0.20816
G1 X138.930 Y61.295 E0.01674
G1 X133.705 Y56.070 E0.23184
G1 X133.171 Y56.070 E0.01674
G1 X138.930 Y61.829 E0.25551
G1 X138.930 Y62.363 E0.01674
G1 X132.637 Y56.070 E0.27918
G1 X132.104 Y56.070 E0.01674
G1 X138.930 Y62.896 E0.30286
G1 X138.930 Y63.430 E0.01674
G1 X131.570 Y56.070 E0.32653
G1 X131.037 Y56.070 E0.01674
G1 X138.930 Y63.963 E0.35020
G1 X138.930 Y64.497 E0.01674
G1 X130.503 Y56.070 E0.37387
G1 X129.970 Y56.070 E0.01674
G1 X138.930 Y65.030 E0.39755
G1 X138.930 Y65.564 E0.01674
G1 X129.436 Y56.070 E0.42122
G1 X128.902 Y56.070 E0.01674
G1 X138.930 Y66.098 E0.44489
G1 X138.930 Y66.631 E0.01674
G1 X128.369 Y56.070 E0.46857
G1 X127.835 Y56.070 E0.01674
G1 X138.930 Y67.165 E0.49224
G1 X138.930 Y67.698 E0.01674
G1 X127.302 Y56.070 E0.51591
G1 X126.768 Y56.070 E0.01674
G1 X138.930 Y68.232 E0.53958
G1 X138.930 Y68.765 E0.01674
G1 X126.235 Y56.070 E0.56326
G1 X125.701 Y56.070 E0.01674
G1 X138.930 Y69.299 E0.58693
G1 X138.930 Y69.833 E0.01674
G1 X125.167 Y56.070 E0.61060
G1 X124.634 Y56.070 E0.01674
G1 X138.930 Y70.366 E0.63427
G1 X138.930 Y70.900 E0.01674
G1 X124.100 Y56.070 E0.65795
G1 X123.567 Y56.070 E0.01674
G1 X138.930 Y71.433 E0.68162
G1 X138.930 Y71.967 E0.01674
G1 X123.033 Y56.070 E0.70529
G1 X122.500 Y56.070 E0.01674
G1 X138.930 Y72.500 E0.72897
G1 X138.930 Y73.034 E0.01674
G1 X121.966 Y56.070 E0.75264
G1 X121.432 Y56.070 E0.01674
G1 X138.930 Y73.568 E0.77631
G1 X138.930 Y74.101 E0.01674
G1 X120.899 Y56.070 E0.79998
G1 X120.365 Y56.070 E0.01674
G1 X138.930 Y74.635 E0.82366
G1 X138.930 Y75.168 E0.01674
G1 X119.832 Y56.070 E0.84733
G1 X119.298 Y56.070 E0.01674
G1 X138.930 Y75.702 E0.87100
G1 X138.930 Y76.235 E0.01674
G1 X118.765 Y56.070 E0.89468
G1 X118.231 Y56.070 E0.01674
G1 X138.930 Y76.769 E0.91835
G1 X138.930 Y77.303 E0.01674
G1 X117.697 Y56.070 E0.94202
G1 X117.164 Y56.070 E0.01674
G1 X138.930 Y77.836 E0.96569
G1 X138.930 Y78.370 E0.01674
G1 X116.630 Y56.070 E0.98937
G1 X116.097 Y56.070 E0.01674
G1 X138.930 Y78.903 E1.01304
G1 X138.930 Y79.437 E0.01674
G1 X115.563 Y56.070 E1.03671
G1 X115.030 Y56.070 E0.01674
G1 X138.930 Y79.970 E1.06038
G1 X138.930 Y80.504 E0.01674
G1 X114.496 Y56.070 E1.08406
G1 X113.962 Y56.070 E0.01674
G1 X138.930 Y81.038 E1.10773
G1 X138.930 Y81.571 E0.01674
G1 X113.429 Y56.070 E1.13140
G1 X112.895 Y56.070 E0.01674
G1 X138.930 Y82.105 E1.15508
G1 X138.930 Y82.638 E0.01674
G1 X112.362 Y56.070 E1.17875
G1 X111.828 Y56.070 E0.01674
G1 X138.930 Y83.172 E1.20242
G1 X138.930 Y83.705 E0.01674
G1 X111.295 Y56.070 E1.22609
G1 X110.761 Y56.070 E0.01674
G1 X138.930 Y84.239 E1.24977
G1 X138.930 Y84.773 E0.01674
G1 X110.227 Y56.070 E1.27344
G1 X109.694 Y56.070 E0.01674
G1 X138.930 Y85.306 E1.29711
G1 X138.930 Y85.840 E0.01674
G1 X109.160 Y56.070 E1.32079
M73 P0 R257
G1 X108.627 Y56.070 E0.01674
G1 X138.930 Y86.373 E1.34446
G1 X138.930 Y86.907 E0.01674
G1 X108.093 Y56.070 E1.36813
G1 X107.560 Y56.070 E0.01674
G1 X138.930 Y87.440 E1.39180
G1 X138.930 Y87.974 E0.01674
G1 X107.026 Y56.070 E1.41548
G1 X106.492 Y56.070 E0.01674
G1 X138.930 Y88.508 E1.43915
G1 X138.930 Y89.041 E0.01674
G1 X105.959 Y56.070 E1.46282
G1 X105.425 Y56.070 E0.01674
G1 X138.930 Y89.575 E1.48649
G1 X138.930 Y90.108 E0.01674
G1 X104.892 Y56.070 E1.51017
G1 X104.358 Y56.070 E0.01674
G1 X138.930 Y90.642 E1.53384
G1 X138.930 Y91.175 E0.01674
G1 X103.825 Y56.070 E1.55751
G1 X103.291 Y56.070 E0.01674
G1 X138.930 Y91.709 E1.58119
M73 P1 R257
G1 X138.930 Y92.243 E0.01674
G1 X102.757 Y56.070 E1.60486
G1 X102.224 Y56.070 E0.01674
G1 X138.930 Y92.776 E1.62853
G1 X138.930 Y93.310 E0.01674
G1 X101.690 Y56.070 E1.65220
G1 X101.157 Y56.070 E0.01674
G1 X138.930 Y93.843 E1.67588
G1 X138.930 Y94.377 E0.01674
G1 X100.623 Y56.070 E1.69955
G1 X100.090 Y56.070 E0.01674
G1 X138.930 Y94.910 E1.72322
G1 X138.930 Y95.444 E0.01674
G1 X99.556 Y56.070 E1.74690
G1 X99.022 Y56.070 E0.01674
G1 X138.930 Y95.978 E1.77057
G1 X138.930 Y96.511 E0.01674
G1 X98.489 Y56.070 E1.79424
G1 X97.955 Y56.070 E0.01674
G1 X138.930 Y97.045 E1.81791
G1 X138.930 Y97.578 E0.01674
G1 X97.422 Y56.070 E1.84159
G1 X96.888 Y56.070 E0.01674
G1 X138.930 Y98.112 E1.86526
M73 P1 R256
G1 X138.930 Y98.645 E0.01674
G1 X96.355 Y56.070 E1.88893
G1 X95.821 Y56.070 E0.01674
G1 X138.930 Y99.179 E1.91260
G1 X138.930 Y99.713 E0.01674
G1 X95.287 Y56.070 E1.93628
G1 X94.754 Y56.070 E0.01674
G1 X138.930 Y100.246 E1.95995
G1 X138.930 Y100.780 E0.01674
G1 X94.220 Y56.070 E1.98362
G1 X93.687 Y56.070 E0.01674
G1 X138.930 Y101.313 E2.00730
G1 X138.930 Y101.847 E0.01674
G1 X93.153 Y56.070 E2.03097
G1 X92.620 Y56.070 E0.01674
G1 X138.930 Y102.380 E2.05464
G1 X138.930 Y102.914 E0.01674
G1 X92.086 Y56.070 E2.07831
G1 X91.552 Y56.070 E0.01674
G1 X138.930 Y103.448 E2.10199
G1 X138.930 Y103.981 E0.01674
G1 X91.019 Y56.070 E2.12566
G1 X90.485 Y56.070 E0.01674
G1 X138.930 Y104.515 E2.14933
G1 X138.930 Y105.048 E0.01674
G1 X89.952 Y56.070 E2.17301
G1 X89.418 Y56.070 E0.01674
G1 X138.930 Y105.582 E2.19668
G1 X138.930 Y106.115 E0.01674
G1 X88.885 Y56.070 E2.22035
G1 X88.351 Y56.070 E0.01674
G1 X138.930 Y106.649 E2.24402
G1 X138.930 Y107.183 E0.01674
G1 X87.817 Y56.070 E2.26770
G1 X87.284 Y56.070 E0.01674
G1 X138.930 Y107.716 E2.29137
M73 P1 R255
G1 X138.930 Y108.250 E0.01674
G1 X86.750 Y56.070 E2.31504
G1 X86.217 Y56.070 E0.01674
G1 X138.930 Y108.783 E2.33871
G1 X138.930 Y109.317 E0.01674
G1 X85.683 Y56.070 E2.36239
G1 X85.150 Y56.070 E0.01674
G1 X138.930 Y109.850 E2.38606
G1 X138.930 Y110.384 E0.01674
G1 X84.616 Y56.070 E2.40973
G1 X84.082 Y56.070 E0.01674
G1 X138.930 Y110.918 E2.43341
G1 X138.930 Y111.451 E0.01674
G1 X83.549 Y56.070 E2.45708
G1 X83.015 Y56.070 E0.01674
G1 X138.930 Y111.985 E2.48075
G1 X138.930 Y112.518 E0.01674
G1 X82.482 Y56.070 E2.50442
G1 X81.948 Y56.070 E0.01674
G1 X138.930 Y113.052 E2.52810
G1 X138.930 Y113.585 E0.01674
G1 X81.415 Y56.070 E2.55177
G1 X80.881 Y56.070 E0.01674
G1 X138.930 Y114.119 E2.57544
G1 X138.930 Y114.653 E0.01674
G1 X80.347 Y56.070 E2.59912
G1 X79.814 Y56.070 E0.01674
G1 X138.930 Y115.186 E2.62279
G1 X138.930 Y115.720 E0.01674
G1 X79.280 Y56.070 E2.64646
M73 P1 R254
G1 X78.747 Y56.070 E0.01674
G1 X138.930 Y116.253 E2.67013
M73 P2 R254
G1 X138.930 Y116.787 E0.01674
G1 X78.213 Y56.070 E2.69381
G1 X77.680 Y56.070 E0.01674
G1 X138.930 Y117.320 E2.71748
G1 X138.930 Y117.854 E0.01674
G1 X77.146 Y56.070 E2.74115
G1 X76.612 Y56.070 E0.01674
G1 X138.930 Y118.388 E2.76482
G1 X138.930 Y118.921 E0.01674
G1 X76.079 Y56.070 E2.78850
G1 X75.545 Y56.070 E0.01674
G1 X138.930 Y119.455 E2.81217
G1 X138.930 Y119.988 E0.01674
G1 X75.012 Y56.070 E2.83584
G1 X74.478 Y56.070 E0.01674
G1 X138.930 Y120.522 E2.85952
G1 X138.930 Y121.055 E0.01674
G1 X73.945 Y56.070 E2.88319
G1 X73.411 Y56.070 E0.01674
G1 X138.930 Y121.589 E2.90686
G1 X138.930 Y122.123 E0.01674
G1 X72.877 Y56.070 E2.93053
G1 X72.344 Y56.070 E0.01674
G1 X138.930 Y122.656 E2.95421
M73 P2 R253
G1 X138.930 Y123.190 E0.01674
G1 X71.810 Y56.070 E2.97788
G1 X71.277 Y56.070 E0.01674
G1 X138.930 Y123.723 E3.00155
G1 X138.930 Y123.930 E0.00649
G1 X138.603 Y123.930 E0.01025
G1 X70.743 Y56.070 E3.01073
G1 X70.210 Y56.070 E0.01674
G1 X138.070 Y123.930 E3.01073
G1 X137.536 Y123.930 E0.01674
G1 X69.676 Y56.070 E3.01073
G1 X69.142 Y56.070 E0.01674
G1 X137.003 Y123.930 E3.01073
G1 X136.469 Y123.930 E0.01674
G1 X68.609 Y56.070 E3.01073
G1 X68.075 Y56.070 E0.01674
G1 X135.936 Y123.930 E3.01073
G1 X135.402 Y123.930 E0.01674
G1 X67.542 Y56.070 E3.01073
G1 X67.008 Y56.070 E0.01674
G1 X134.868 Y123.930 E3.01073
G1 X134.335 Y123.930 E0.01674
G1 X66.475 Y56.070 E3.01073
G1 X65.941 Y56.070 E0.01674
G1 X133.801 Y123.930 E3.01073
G1 X133.268 Y123.930 E0.01674
G1 X65.407 Y56.070 E3.01073
M73 P2 R252
G1 X64.874 Y56.070 E0.01674
G1 X132.734 Y123.930 E3.01073
G1 X132.201 Y123.930 E0.01674
G1 X64.340 Y56.070 E3.01073
G1 X63.807 Y56.070 E0.01674
G1 X131.667 Y123.930 E3.01073
G1 X131.133 Y123.930 E0.01674
G1 X63.273 Y56.070 E3.01073
G1 X62.740 Y56.070 E0.01674
G1 X130.600 Y123.930 E3.01073
G1 X130.066 Y123.930 E0.01674
G1 X62.206 Y56.070 E3.01073
G1 X61.672 Y56.070 E0.01674
G1 X129.533 Y123.930 E3.01073
G1 X128.999 Y123.930 E0.01674
G1 X61.139 Y56.070 E3.01073
M73 P3 R252
G1 X60.605 Y56.070 E0.01674
G1 X128.466 Y123.930 E3.01073
G1 X127.932 Y123.930 E0.01674
G1 X60.072 Y56.070 E3.01073
G1 X59.538 Y56.070 E0.01674
G1 X127.398 Y123.930 E3.01073
G1 X126.865 Y123.930 E0.01674
G1 X59.005 Y56.070 E3.01073
M73 P3 R251
G1 X58.471 Y56.070 E0.01674
G1 X126.331 Y123.930 E3.01073
G1 X125.798 Y123.930 E0.01674
G1 X57.937 Y56.070 E3.01073
G1 X57.404 Y56.070 E0.01674
G1 X125.264 Y123.930 E3.01073
G1 X124.731 Y123.930 E0.01674
G1 X56.870 Y56.070 E3.01073
G1 X56.337 Y56.070 E0.01674
G1 X124.197 Y123.930 E3.01073
G1 X123.663 Y123.930 E0.01674
G1 X55.803 Y56.070 E3.01073
G1 X55.270 Y56.070 E0.01674
G1 X123.130 Y123.930 E3.01073
G1 X122.596 Y123.930 E0.01674
G1 X54.736 Y56.070 E3.01073
G1 X54.202 Y56.070 E0.01674
G1 X122.063 Y123.930 E3.01073
G1 X121.529 Y123.930 E0.01674
G1 X53.669 Y56.070 E3.01073
G1 X53.135 Y56.070 E0.01674
G1 X120.996 Y123.930 E3.01073
G1 X120.462 Y123.930 E0.01674
G1 X52.602 Y56.070 E3.01073
G1 X52.068 Y56.070 E0.01674
G1 X119.928 Y123.930 E3.01073
M73 P3 R250
G1 X119.395 Y123.930 E0.01674
G1 X51.535 Y56.070 E3.01073
G1 X51.001 Y56.070 E0.01674
G1 X118.861 Y123.930 E3.01073
G1 X118.328 Y123.930 E0.01674
G1 X50.467 Y56.070 E3.01073
G1 X49.934 Y56.070 E0.01674
G1 X117.794 Y123.930 E3.01073
G1 X117.261 Y123.930 E0.01674
G1 X49.400 Y56.070 E3.01073
G1 X48.867 Y56.070 E0.01674
G1 X116.727 Y123.930 E3.01073
G1 X116.193 Y123.930 E0.01674
G1 X48.333 Y56.070 E3.01073
G1 X47.800 Y56.070 E0.01674
G1 X115.660 Y123.930 E3.01073
G1 X115.126 Y123.930 E0.01674
G1 X47.266 Y56.070 E3.01073
G1 X46.732 Y56.070 E0.01674
G1 X114.593 Y123.930 E3.01073
G1 X114.059 Y123.930 E0.01674
G1 X46.199 Y56.070 E3.01073
G1 X45.665 Y56.070 E0.01674
G1 X113.526 Y123.930 E3.01073
M73 P3 R249
G1 X112.992 Y123.930 E0.01674
G1 X45.132 Y56.070 E3.01073
G1 X44.598 Y56.070 E0.01674
G1 X112.458 Y123.930 E3.01073
G1 X111.925 Y123.930 E0.01674
G1 X44.065 Y56.070 E3.01073
M73 P4 R249
G1 X43.531 Y56.070 E0.01674
G1 X111.391 Y123.930 E3.01073
G1 X110.858 Y123.930 E0.01674
G1 X42.997 Y56.070 E3.01073
G1 X42.464 Y56.070 E0.01674
G1 X110.324 Y123.930 E3.01073
G1 X109.791 Y123.930 E0.01674
G1 X41.930 Y56.070 E3.01073
G1 X41.397 Y56.070 E0.01674
G1 X109.257 Y123.930 E3.01073
G1 X108.723 Y123.930 E0.01674
G1 X41.070 Y56.277 E3.00156
G1 X41.070 Y56.810 E0.01674
G1 X108.190 Y123.930 E2.97789
G1 X107.656 Y123.930 E0.01674
G1 X41.070 Y57.344 E2.95422
G1 X41.070 Y57.877 E0.01674
G1 X107.123 Y123.930 E2.93054
M73 P4 R248
G1 X106.589 Y123.930 E0.01674
G1 X41.070 Y58.411 E2.90687
G1 X41.070 Y58.944 E0.01674
G1 X106.056 Y123.930 E2.88320
G1 X105.522 Y123.930 E0.01674
G1 X41.070 Y59.478 E2.85953
G1 X41.070 Y60.012 E0.01674
G1 X104.988 Y123.930 E2.83585
G1 X104.455 Y123.930 E0.01674
G1 X41.070 Y60.545 E2.81218
G1 X41.070 Y61.079 E0.01674
G1 X103.921 Y123.930 E2.78851
G1 X103.388 Y123.930 E0.01674
G1 X41.070 Y61.612 E2.76483
G1 X41.070 Y62.146 E0.01674
G1 X102.854 Y123.930 E2.74116
G1 X102.321 Y123.930 E0.01674
G1 X41.070 Y62.679 E2.71749
G1 X41.070 Y63.213 E0.01674
G1 X101.787 Y123.930 E2.69382
G1 X101.253 Y123.930 E0.01674
G1 X41.070 Y63.747 E2.67014
G1 X41.070 Y64.280 E0.01674
G1 X100.720 Y123.930 E2.64647
G1 X100.186 Y123.930 E0.01674
G1 X41.070 Y64.814 E2.62280
G1 X41.070 Y65.347 E0.01674
G1 X99.653 Y123.930 E2.59912
M73 P4 R247
G1 X99.119 Y123.930 E0.01674
G1 X41.070 Y65.881 E2.57545
G1 X41.070 Y66.414 E0.01674
G1 X98.586 Y123.930 E2.55178
G1 X98.052 Y123.930 E0.01674
G1 X41.070 Y66.948 E2.52811
G1 X41.070 Y67.482 E0.01674
G1 X97.518 Y123.930 E2.50443
G1 X96.985 Y123.930 E0.01674
G1 X41.070 Y68.015 E2.48076
G1 X41.070 Y68.549 E0.01674
G1 X96.451 Y123.930 E2.45709
G1 X95.918 Y123.930 E0.01674
G1 X41.070 Y69.082 E2.43342
G1 X41.070 Y69.616 E0.01674
G1 X95.384 Y123.930 E2.40974
G1 X94.851 Y123.930 E0.01674
G1 X41.070 Y70.149 E2.38607
G1 X41.070 Y70.683 E0.01674
G1 X94.317 Y123.930 E2.36240
G1 X93.783 Y123.930 E0.01674
G1 X41.070 Y71.217 E2.33872
G1 X41.070 Y71.750 E0.01674
G1 X93.250 Y123.930 E2.31505
M73 P5 R247
G1 X92.716 Y123.930 E0.01674
G1 X41.070 Y72.284 E2.29138
G1 X41.070 Y72.817 E0.01674
G1 X92.183 Y123.930 E2.26771
G1 X91.649 Y123.930 E0.01674
G1 X41.070 Y73.351 E2.24403
M73 P5 R246
