; generated by PrusaSlicer 2.3.3+win64 on 2021-10-08 at 06:21:36 UTC


;
;

;
;
; 

; external perimeters extrusion width = 0.45mm
; perimeters extrusion width = 0.45mm
; infill extrusion width = 0.45mm
; solid infill extrusion width = 0.45mm
; top infill extrusion width = 0.40mm
; first layer extrusion width = 0.42mm

M73 P0 R50
M201 X1250 Y1250 Z400 E5000 ; sets maximum accelerations, mm/sec^2
M203 X180 Y180 Z12 E80 ; sets maximum feedrates, mm/sec
M204 P1250 R1250 T1250 ; sets acceleration (P, T) and retract acceleration (R), mm/sec^2
M205 X8.00 Y8.00 Z2.00 E10.00 ; sets the jerk limits, mm/sec
M205 S0 T0 ; sets the minimum extruding and travel feed rate, mm/sec
M107
;TYPE:Custom
G90 ; use absolute coordinates
M83 ; extruder relative mode
M104 S170 ; set extruder temp for bed leveling
M140 S60 ; set bed temp
M109 R170 ; wait for bed leveling temp
M190 S60 ; wait for bed temp
G28 ; home all without mesh bed level
G29 ; mesh bed leveling 
M104 S215 ; set extruder temp
G92 E0.0
G1 Y-2.0 X179 F2400
G1 Z3 F720
M109 S215 ; wait for extruder temp

; intro line
G1 X170 F1000
G1 Z0.2 F720
G1 X110.0 E8.0 F900
G1 X40.0 E10.0 F700
G92 E0.0

M221 S95 ; set flow
G21 ; set units to millimeters
G90 ; use absolute coordinates
M83 ; use relative distances for extrusion
M900 K0.2 ; Filament gcode LA 1.5
; ; Filament gcode LA 1.0
;LAYER_CHANGE
;Z:0.2
;HEIGHT:0.2
;BEFORE_LAYER_CHANGE
G92 E0.0
;0.2


G1 Z0.200 F9000.000
;AFTER_LAYER_CHANGE
;0.2
G1 E-3.20000 F4200.000
G1 Z0.400 F9000.000
G1 X49.136 Y52.786
G1 Z0.200
G1 E3.20000 F2400.000
M204 S800
;TYPE:Skirt
;WIDTH:0.42
G1 F1200.000
G1 X49.984 Y52.623 E0.02708
G1 X130.004 Y52.623 E2.50897
G1 X130.902 Y52.801 E0.02872
G1 X131.664 Y53.303 E0.02860
G1 X132.181 Y54.055 E0.02860
G1 X132.377 Y54.949 E0.02872
G1 X132.377 Y125.027 E2.19722
G1 X132.322 Y125.510 E0.01526
G1 X132.168 Y125.976 E0.01538
G1 X131.921 Y126.400 E0.01538
G1 X131.596 Y126.762 E0.01526
G1 X130.864 Y127.214 E0.02696
G1 X130.016 Y127.377 E0.02708
G1 X49.996 Y127.377 E2.50897
G1 X49.505 Y127.325 E0.01550
G1 X49.035 Y127.172 E0.01550
G1 X48.606 Y126.926 E0.01550
G1 X48.238 Y126.596 E0.01550
G1 X47.786 Y125.864 E0.02696
G1 X47.623 Y125.020 E0.02696
G1 X47.623 Y54.996 E2.19555
M73 P1 R50
G1 X47.675 Y54.505 E0.01550
G1 X47.828 Y54.035 E0.01550
G1 X48.074 Y53.606 E0.01550
G1 X48.404 Y53.238 E0.01550
G1 X49.084 Y52.817 E0.02508
M204 S1250
; printing object road_blocker_test.stl id:0 copy 0
G1 E-2.24000 F4200.000
;WIPE_START
G1 F7200.000
G1 X49.984 Y52.623 E-0.50980
G1 X50.709 Y52.623 E-0.40220
;WIPE_END
G1 E-0.04800 F4200.000
G1 Z0.400 F9000.000
G1 X78.326 Y103.711
G1 Z0.200
G1 E3.20000 F2400.000
M204 S800
;TYPE:External perimeter
G1 F1200.000
G1 X78.606 Y103.620 E0.00924
G1 X78.877 Y103.590 E0.00854
G1 X79.052 Y103.597 E0.00548
G1 X79.336 Y103.658 E0.00912
G1 X79.606 Y103.778 E0.00925
G1 X79.844 Y103.951 E0.00925
G1 X80.042 Y104.170 E0.00925
G1 X80.189 Y104.426 E0.00925
G1 X80.281 Y104.707 E0.00925
G1 X80.311 Y105.000 E0.00925
G1 X80.281 Y105.293 E0.00925
G1 X80.189 Y105.574 E0.00925
G1 X80.044 Y105.826 E0.00912
G1 X79.932 Y105.960 E0.00548
G1 X79.729 Y106.142 E0.00854
G1 X79.474 Y106.289 E0.00924
G1 X79.193 Y106.381 E0.00925
G1 X78.900 Y106.411 E0.00925
G1 X78.607 Y106.381 E0.00925
G1 X78.326 Y106.289 E0.00925
G1 X78.070 Y106.142 E0.00925
G1 X77.851 Y105.944 E0.00925
G1 X77.678 Y105.706 E0.00925
G1 X77.558 Y105.436 E0.00925
G1 X77.497 Y105.153 E0.00908
G1 X77.497 Y104.847 E0.00959
G1 X77.558 Y104.564 E0.00908
G1 X77.678 Y104.294 E0.00925
G1 X77.851 Y104.056 E0.00925
G1 X78.070 Y103.858 E0.00925
G1 X78.274 Y103.741 E0.00737
M204 S1250
G1 X78.357 Y103.418 F9000.000
G1 E-2.24000 F4200.000
;WIPE_START
G1 F7200.000
G1 X78.606 Y103.620 E-0.19598
G1 X78.877 Y103.590 E-0.15102
G1 X79.052 Y103.597 E-0.09684
G1 X79.336 Y103.658 E-0.16111
G1 X79.606 Y103.778 E-0.16354
G1 X79.815 Y103.930 E-0.14351
;WIPE_END
G1 E-0.04800 F4200.000
G1 Z0.400 F9000.000
G1 X53.690 Y98.690
G1 Z0.200
G1 E3.20000 F2400.000
M204 S800
G1 F1200.000
G1 X77.010 Y98.690 E0.73118
G1 X77.010 Y111.310 E0.39569
G1 X53.690 Y111.310 E0.73118
G1 X53.690 Y98.750 E0.39381
M204 S1250
G1 X53.550 Y98.315 F9000.000
G1 E-2.24000 F4200.000
;WIPE_START
G1 F7200.000
G1 X55.336 Y98.746 E-0.91200
;WIPE_END
G1 E-0.04800 F4200.000
G1 Z0.400 F9000.000
G1 X51.950 Y103.598
G1 Z0.200
G1 E3.20000 F2400.000
M204 S800
G1 F1200.000
G1 X52.235 Y103.658 E0.00915
G1 X52.506 Y103.778 E0.00927
G1 X52.744 Y103.951 E0.00925
G1 X52.942 Y104.170 E0.00925
G1 X53.089 Y104.426 E0.00925
G1 X53.181 Y104.707 E0.00925
G1 X53.211 Y105.000 E0.00925
G1 X53.181 Y105.293 E0.00925
G1 X53.089 Y105.574 E0.00925
G1 X52.942 Y105.830 E0.00925
G1 X52.744 Y106.049 E0.00925
G1 X52.506 Y106.222 E0.00925
G1 X52.241 Y106.340 E0.00908
G1 X52.086 Y106.381 E0.00501
G1 X51.797 Y106.408 E0.00910
G1 X51.506 Y106.374 E0.00921
G1 X51.350 Y106.322 E0.00515
G1 X51.092 Y106.183 E0.00917
G1 X50.876 Y105.980 E0.00932
G1 X50.723 Y105.736 E0.00902
G1 X50.673 Y105.593 E0.00476
G1 X50.616 Y105.349 E0.00783
G1 X50.588 Y105.000 E0.01099
G1 X50.616 Y104.651 E0.01099
G1 X50.673 Y104.407 E0.00783
G1 X50.723 Y104.264 E0.00476
G1 X50.876 Y104.020 E0.00902
G1 X51.092 Y103.817 E0.00932
G1 X51.350 Y103.678 E0.00917
G1 X51.505 Y103.627 E0.00514
G1 X51.890 Y103.597 E0.01209
M204 S1250
G1 X52.118 Y103.360 F9000.000
G1 E-2.24000 F4200.000
;WIPE_START
G1 F7200.000
G1 X52.235 Y103.658 E-0.19451
G1 X52.506 Y103.778 E-0.16380
G1 X52.744 Y103.951 E-0.16356
G1 X52.942 Y104.170 E-0.16350
G1 X53.089 Y104.426 E-0.16357
G1 X53.125 Y104.534 E-0.06306
;WIPE_END
G1 E-0.04800 F4200.000
G1 Z0.400 F9000.000
G1 X97.711 Y97.963
G1 Z0.200
G1 E3.20000 F2400.000
M204 S800
;TYPE:Perimeter
G1 F1200.000
G1 X122.289 Y97.963 E0.77064
G1 X122.274 Y102.281 E0.13538
G1 X122.236 Y102.652 E0.01169
G1 X122.475 Y102.459 E0.00962
G1 X122.765 Y102.286 E0.01057
G1 X123.070 Y102.163 E0.01033
G1 X123.376 Y102.078 E0.00994
G1 X123.687 Y102.028 E0.00989
G1 X123.975 Y102.013 E0.00905
G1 X124.310 Y102.028 E0.01050
G1 X124.621 Y102.077 E0.00988
G1 X124.923 Y102.158 E0.00981
G1 X125.215 Y102.270 E0.00980
G1 X125.494 Y102.412 E0.00981
G1 X125.756 Y102.583 E0.00981
G1 X125.999 Y102.779 E0.00980
G1 X126.221 Y103.001 E0.00981
G1 X126.417 Y103.244 E0.00980
G1 X126.588 Y103.506 E0.00981
G1 X126.730 Y103.785 E0.00981
G1 X126.842 Y104.077 E0.00980
G1 X126.923 Y104.379 E0.00980
G1 X126.972 Y104.688 E0.00981
G1 X126.988 Y105.000 E0.00981
G1 X126.972 Y105.312 E0.00981
G1 X126.923 Y105.621 E0.00981
G1 X126.842 Y105.923 E0.00980
G1 X126.730 Y106.215 E0.00980
G1 X126.588 Y106.494 E0.00981
G1 X126.417 Y106.756 E0.00981
G1 X126.221 Y106.999 E0.00980
G1 X125.999 Y107.221 E0.00981
G1 X125.756 Y107.417 E0.00980
G1 X125.494 Y107.588 E0.00981
G1 X125.215 Y107.730 E0.00981
G1 X124.923 Y107.842 E0.00980
G1 X124.621 Y107.923 E0.00981
G1 X124.312 Y107.972 E0.00980
G1 X124.000 Y107.988 E0.00981
G1 X123.687 Y107.972 E0.00982
G1 X123.376 Y107.922 E0.00989
G1 X123.070 Y107.837 E0.00994
G1 X122.765 Y107.714 E0.01033
G1 X122.475 Y107.541 E0.01057
G1 X122.236 Y107.348 E0.00962
G1 X122.274 Y107.719 E0.01169
G1 X122.289 Y112.037 E0.13538
G1 X97.711 Y112.037 E0.77064
G1 X97.726 Y107.719 E0.13538
G1 X97.764 Y107.348 E0.01169
G1 X97.525 Y107.541 E0.00962
G1 X97.235 Y107.714 E0.01057
G1 X96.930 Y107.837 E0.01033
G1 X96.624 Y107.922 E0.00994
G1 X96.313 Y107.972 E0.00989
G1 X96.000 Y107.988 E0.00982
G1 X95.688 Y107.972 E0.00981
G1 X95.379 Y107.923 E0.00980
G1 X95.077 Y107.842 E0.00981
G1 X94.785 Y107.730 E0.00980
G1 X94.506 Y107.588 E0.00981
G1 X94.244 Y107.417 E0.00981
G1 X94.001 Y107.221 E0.00980
G1 X93.779 Y106.999 E0.00981
G1 X93.583 Y106.756 E0.00980
G1 X93.412 Y106.494 E0.00981
G1 X93.270 Y106.215 E0.00981
G1 X93.158 Y105.923 E0.00980
G1 X93.077 Y105.621 E0.00981
G1 X93.028 Y105.312 E0.00980
G1 X93.012 Y105.000 E0.00981
G1 X93.028 Y104.688 E0.00981
G1 X93.077 Y104.379 E0.00980
G1 X93.158 Y104.077 E0.00981
G1 X93.270 Y103.785 E0.00980
G1 X93.412 Y103.506 E0.00981
G1 X93.583 Y103.244 E0.00981
G1 X93.779 Y103.001 E0.00980
G1 X94.001 Y102.779 E0.00981
G1 X94.244 Y102.583 E0.00980
G1 X94.506 Y102.412 E0.00981
G1 X94.785 Y102.270 E0.00981
G1 X95.077 Y102.158 E0.00980
G1 X95.379 Y102.077 E0.00981
G1 X95.688 Y102.028 E0.00980
G1 X95.976 Y102.013 E0.00904
G1 X96.310 Y102.028 E0.01051
G1 X96.624 Y102.078 E0.00996
G1 X96.930 Y102.163 E0.00994
G1 X97.235 Y102.286 E0.01033
G1 X97.525 Y102.459 E0.01057
G1 X97.764 Y102.652 E0.00962
G1 X97.726 Y102.281 E0.01169
G1 X97.711 Y98.023 E0.13350
M204 S1250
G1 X98.089 Y98.340 F9000.000
M204 S800
;TYPE:External perimeter
G1 F1200.000
G1 X121.911 Y98.340 E0.74691
M73 P1 R49
G1 X121.897 Y102.261 E0.12294
G1 X121.844 Y102.783 E0.01645
G1 X121.737 Y103.278 E0.01589
G1 X121.710 Y103.756 E0.01500
G1 X121.710 Y104.288 E0.01669
G1 X121.797 Y104.020 E0.00885
G1 X122.286 Y103.167 E0.03080
G1 X122.470 Y102.947 E0.00901
G1 X122.691 Y102.769 E0.00890
G1 X122.933 Y102.625 E0.00882
G1 X123.192 Y102.521 E0.00875
G1 X123.456 Y102.447 E0.00861
G1 X123.727 Y102.404 E0.00859
G1 X123.977 Y102.391 E0.00785
G1 X124.272 Y102.404 E0.00926
G1 X124.543 Y102.447 E0.00859
G1 X124.807 Y102.517 E0.00857
G1 X125.062 Y102.615 E0.00857
G1 X125.305 Y102.739 E0.00857
G1 X125.534 Y102.888 E0.00857
G1 X125.747 Y103.060 E0.00857
G1 X125.940 Y103.253 E0.00857
G1 X126.112 Y103.466 E0.00857
G1 X126.261 Y103.695 E0.00857
G1 X126.385 Y103.938 E0.00857
G1 X126.483 Y104.193 E0.00857
G1 X126.553 Y104.457 E0.00856
G1 X126.596 Y104.727 E0.00857
G1 X126.611 Y105.000 E0.00857
G1 X126.596 Y105.273 E0.00857
G1 X126.553 Y105.543 E0.00857
G1 X126.483 Y105.807 E0.00856
G1 X126.385 Y106.062 E0.00857
G1 X126.261 Y106.305 E0.00857
G1 X126.112 Y106.534 E0.00857
G1 X125.940 Y106.747 E0.00857
G1 X125.747 Y106.940 E0.00857
G1 X125.534 Y107.112 E0.00857
G1 X125.305 Y107.261 E0.00857
G1 X125.062 Y107.385 E0.00857
G1 X124.807 Y107.483 E0.00857
G1 X124.543 Y107.553 E0.00857
G1 X124.273 Y107.596 E0.00856
G1 X124.000 Y107.611 E0.00857
G1 X123.727 Y107.596 E0.00857
G1 X123.456 Y107.553 E0.00859
G1 X123.192 Y107.479 E0.00861
G1 X122.933 Y107.375 E0.00875
G1 X122.691 Y107.231 E0.00882
G1 X122.470 Y107.053 E0.00890
G1 X122.286 Y106.833 E0.00901
G1 X121.797 Y105.980 E0.03080
G1 X121.710 Y105.712 E0.00885
G1 X121.710 Y106.244 E0.01669
G1 X121.737 Y106.722 E0.01500
G1 X121.844 Y107.217 E0.01589
G1 X121.897 Y107.739 E0.01645
G1 X121.911 Y111.660 E0.12294
G1 X98.089 Y111.660 E0.74691
G1 X98.103 Y107.739 E0.12294
G1 X98.156 Y107.217 E0.01645
G1 X98.263 Y106.722 E0.01589
G1 X98.290 Y106.244 E0.01500
G1 X98.290 Y105.712 E0.01669
G1 X98.203 Y105.980 E0.00885
G1 X97.714 Y106.833 E0.03080
G1 X97.530 Y107.053 E0.00901
G1 X97.309 Y107.231 E0.00890
G1 X97.067 Y107.375 E0.00882
G1 X96.808 Y107.479 E0.00875
G1 X96.544 Y107.553 E0.00861
G1 X96.273 Y107.596 E0.00859
G1 X96.000 Y107.611 E0.00857
G1 X95.727 Y107.596 E0.00857
G1 X95.457 Y107.553 E0.00857
G1 X95.193 Y107.483 E0.00857
G1 X94.938 Y107.385 E0.00857
G1 X94.695 Y107.261 E0.00857
G1 X94.466 Y107.112 E0.00857
G1 X94.253 Y106.940 E0.00857
G1 X94.060 Y106.747 E0.00857
G1 X93.888 Y106.534 E0.00857
G1 X93.739 Y106.305 E0.00857
G1 X93.615 Y106.062 E0.00857
G1 X93.517 Y105.807 E0.00857
G1 X93.447 Y105.543 E0.00857
G1 X93.404 Y105.273 E0.00857
G1 X93.389 Y105.000 E0.00857
G1 X93.404 Y104.727 E0.00857
G1 X93.447 Y104.457 E0.00857
G1 X93.517 Y104.193 E0.00857
G1 X93.615 Y103.938 E0.00857
G1 X93.739 Y103.695 E0.00857
G1 X93.888 Y103.466 E0.00857
G1 X94.060 Y103.253 E0.00857
G1 X94.253 Y103.060 E0.00857
G1 X94.466 Y102.888 E0.00857
G1 X94.695 Y102.739 E0.00857
G1 X94.938 Y102.615 E0.00857
G1 X95.193 Y102.517 E0.00857
G1 X95.457 Y102.447 E0.00857
G1 X95.727 Y102.404 E0.00857
G1 X95.977 Y102.391 E0.00785
G1 X96.272 Y102.404 E0.00926
G1 X96.544 Y102.447 E0.00862
G1 X96.808 Y102.521 E0.00861
G1 X97.067 Y102.625 E0.00875
G1 X97.309 Y102.769 E0.00882
G1 X97.530 Y102.947 E0.00890
G1 X97.714 Y103.167 E0.00901
G1 X98.203 Y104.020 E0.03080
G1 X98.290 Y104.288 E0.00885
G1 X98.290 Y103.756 E0.01669
G1 X98.263 Y103.278 E0.01500
G1 X98.156 Y102.783 E0.01589
G1 X98.103 Y102.261 E0.01645
G1 X98.089 Y98.400 E0.12106
M204 S1250
G1 X98.087 Y97.940 F9000.000
G1 E-2.24000 F4200.000
;WIPE_START
G1 F7200.000
G1 X99.735 Y98.396 E-0.91200
;WIPE_END
G1 E-0.04800 F4200.000
G1 Z0.400 F9000.000
G1 X101.180 Y85.007
G1 Z0.200
G1 E3.20000 F2400.000
M204 S800
;TYPE:Perimeter
G1 F1200.000
G1 X100.873 Y84.907 E0.01010
G1 X100.594 Y84.746 E0.01010
G1 X100.344 Y84.520 E0.01059
G1 X100.097 Y84.141 E0.01417
G1 X99.993 Y83.820 E0.01059
G1 X99.959 Y83.500 E0.01009
G1 X99.993 Y83.180 E0.01009
G1 X100.097 Y82.859 E0.01059
G1 X100.344 Y82.480 E0.01417
G1 X100.594 Y82.254 E0.01059
G1 X100.873 Y82.093 E0.01010
G1 X101.179 Y81.993 E0.01007
G1 X101.497 Y81.959 E0.01004
G1 X101.959 Y82.027 E0.01465
G1 X102.270 Y82.166 E0.01068
G1 X102.531 Y82.355 E0.01009
G1 X102.746 Y82.594 E0.01010
G1 X102.907 Y82.873 E0.01010
G1 X103.007 Y83.180 E0.01010
G1 X103.041 Y83.500 E0.01009
G1 X103.007 Y83.820 E0.01009
G1 X102.907 Y84.127 E0.01010
G1 X102.746 Y84.406 E0.01010
G1 X102.520 Y84.656 E0.01059
G1 X102.141 Y84.903 E0.01417
G1 X101.820 Y85.007 E0.01059
G1 X101.500 Y85.041 E0.01009
G1 X101.240 Y85.013 E0.00821
M204 S1250
G1 X101.279 Y84.638 F9000.000
M204 S800
;TYPE:External perimeter
G1 F1200.000
G1 X101.028 Y84.561 E0.00825
G1 X100.817 Y84.440 E0.00761
G1 X100.633 Y84.273 E0.00779
G1 X100.441 Y83.978 E0.01105
G1 X100.364 Y83.741 E0.00779
G1 X100.339 Y83.500 E0.00761
G1 X100.364 Y83.259 E0.00761
G1 X100.441 Y83.022 E0.00779
G1 X100.633 Y82.727 E0.01105
G1 X100.817 Y82.560 E0.00779
G1 X101.028 Y82.439 E0.00761
G1 X101.258 Y82.364 E0.00760
G1 X101.490 Y82.339 E0.00730
G1 X101.853 Y82.393 E0.01151
G1 X102.081 Y82.494 E0.00782
G1 X102.277 Y82.637 E0.00761
G1 X102.440 Y82.817 E0.00762
G1 X102.561 Y83.028 E0.00761
G1 X102.636 Y83.259 E0.00762
G1 X102.661 Y83.500 E0.00761
G1 X102.636 Y83.741 E0.00761
G1 X102.561 Y83.972 E0.00762
G1 X102.440 Y84.183 E0.00761
G1 X102.273 Y84.367 E0.00779
G1 X101.978 Y84.559 E0.01105
G1 X101.741 Y84.636 E0.00779
G1 X101.500 Y84.661 E0.00761
G1 X101.339 Y84.644 E0.00509
M204 S1250
G1 X101.105 Y84.836 F9000.000
G1 E-2.24000 F4200.000
;WIPE_START
G1 F7200.000
G1 X101.028 Y84.561 E-0.17850
G1 X100.817 Y84.440 E-0.13450
G1 X100.633 Y84.273 E-0.13770
G1 X100.441 Y83.978 E-0.19536
G1 X100.364 Y83.741 E-0.13772
G1 X100.340 Y83.511 E-0.12824
;WIPE_END
G1 E-0.04800 F4200.000
G1 Z0.400 F9000.000
G1 X101.009 Y67.962
G1 Z0.200
G1 E3.20000 F2400.000
M204 S800
;TYPE:Perimeter
G1 F1200.000
G1 X100.606 Y67.757 E0.01417
G1 X100.355 Y67.531 E0.01059
G1 X100.166 Y67.270 E0.01009
G1 X100.035 Y66.976 E0.01010
G1 X99.968 Y66.661 E0.01010
G1 X99.968 Y66.339 E0.01010
G1 X100.038 Y66.009 E0.01058
G1 X100.243 Y65.606 E0.01417
G1 X100.469 Y65.355 E0.01059
G1 X100.730 Y65.166 E0.01009
G1 X101.024 Y65.035 E0.01010
G1 X101.339 Y64.968 E0.01010
G1 X101.661 Y64.968 E0.01010
G1 X101.991 Y65.038 E0.01058
G1 X102.394 Y65.243 E0.01417
G1 X102.645 Y65.469 E0.01059
G1 X102.834 Y65.730 E0.01009
G1 X102.965 Y66.024 E0.01010
G1 X103.032 Y66.339 E0.01010
G1 X103.032 Y66.661 E0.01010
G1 X102.962 Y66.991 E0.01058
G1 X102.757 Y67.394 E0.01417
G1 X102.531 Y67.645 E0.01059
G1 X102.270 Y67.834 E0.01009
G1 X101.976 Y67.965 E0.01010
G1 X101.661 Y68.032 E0.01010
G1 X101.339 Y68.032 E0.01010
G1 X101.067 Y67.974 E0.00870
M204 S1250
G1 X101.146 Y67.606 F9000.000
M204 S800
;TYPE:External perimeter
G1 F1200.000
G1 X100.822 Y67.443 E0.01137
G1 X100.637 Y67.277 E0.00779
G1 X100.494 Y67.081 E0.00761
G1 X100.395 Y66.859 E0.00762
G1 X100.345 Y66.621 E0.00761
G1 X100.345 Y66.379 E0.00761
G1 X100.397 Y66.136 E0.00779
G1 X100.557 Y65.822 E0.01106
G1 X100.723 Y65.637 E0.00779
G1 X100.919 Y65.494 E0.00761
G1 X101.141 Y65.395 E0.00762
G1 X101.379 Y65.345 E0.00761
G1 X101.621 Y65.345 E0.00761
G1 X101.864 Y65.397 E0.00779
G1 X102.178 Y65.557 E0.01106
G1 X102.363 Y65.723 E0.00779
G1 X102.506 Y65.919 E0.00761
G1 X102.605 Y66.141 E0.00762
G1 X102.655 Y66.379 E0.00761
G1 X102.655 Y66.621 E0.00761
G1 X102.603 Y66.864 E0.00779
G1 X102.443 Y67.178 E0.01106
G1 X102.277 Y67.363 E0.00779
G1 X102.081 Y67.506 E0.00761
G1 X101.859 Y67.605 E0.00762
