; generated by PrusaSlicer 2.3.3+win64 on 2021-11-13 at 08:13:15 UTC


;
;

;
;
; 

; external perimeters extrusion width = 0.45mm
; perimeters extrusion width = 0.45mm
; infill extrusion width = 0.45mm
; solid infill extrusion width = 0.45mm
; top infill extrusion width = 0.40mm
; first layer extrusion width = 0.42mm

M73 P0 R61
M201 X1250 Y1250 Z400 E5000 ; sets maximum accelerations, mm/sec^2
M203 X180 Y180 Z12 E80 ; sets maximum feedrates, mm/sec
M204 P1250 R1250 T1250 ; sets acceleration (P, T) and retract acceleration (R), mm/sec^2
M205 X8.00 Y8.00 Z2.00 E10.00 ; sets the jerk limits, mm/sec
M205 S0 T0 ; sets the minimum extruding and travel feed rate, mm/sec
M107
;TYPE:Custom
G90 ; use absolute coordinates
M83 ; extruder relative mode
M104 S170 ; set extruder temp for bed leveling
M140 S60 ; set bed temp
M109 R170 ; wait for bed leveling temp
M190 S60 ; wait for bed temp
G28 ; home all without mesh bed level
G29 ; mesh bed leveling 
M104 S215 ; set extruder temp
G92 E0.0
G1 Y-2.0 X179 F2400
M73 P0 R60
G1 Z3 F720
M109 S215 ; wait for extruder temp

; intro line
G1 X170 F1000
G1 Z0.2 F720
G1 X110.0 E8.0 F900
G1 X40.0 E10.0 F700
G92 E0.0

M221 S95 ; set flow
G21 ; set units to millimeters
G90 ; use absolute coordinates
M83 ; use relative distances for extrusion
M900 K0.2 ; Filament gcode LA 1.5
; ; Filament gcode LA 1.0
;LAYER_CHANGE
;Z:0.2
;HEIGHT:0.2
;BEFORE_LAYER_CHANGE
G92 E0.0
;0.2


G1 E-3.20000 F4200.000
G1 Z0.200 F9000.000
;AFTER_LAYER_CHANGE
;0.2
G1 Z0.400
G1 X62.760 Y59.204
G1 Z0.200
G1 E3.20000 F2400.000
M204 S800
;TYPE:Skirt
;WIDTH:0.42
G1 F1200.000
G1 X63.146 Y58.512 E0.02484
G1 X63.514 Y58.144 E0.01633
G1 X63.954 Y57.865 E0.01633
G1 X64.444 Y57.689 E0.01633
G1 X64.961 Y57.623 E0.01633
G1 X115.004 Y57.623 E1.56906
G1 X115.895 Y57.798 E0.02849
G1 X116.659 Y58.297 E0.02860
G1 X117.176 Y59.044 E0.02849
G1 X117.376 Y59.930 E0.02849
G1 X117.377 Y120.019 E1.88404
G1 X117.240 Y120.796 E0.02473
G1 X116.854 Y121.488 E0.02484
G1 X116.483 Y121.858 E0.01645
G1 X116.036 Y122.140 E0.01657
G1 X115.537 Y122.316 E0.01657
G1 X115.016 Y122.377 E0.01645
G1 X64.977 Y122.377 E1.56894
G1 X64.201 Y122.239 E0.02473
G1 X63.512 Y121.854 E0.02473
G1 X63.140 Y121.480 E0.01657
G1 X62.859 Y121.032 E0.01657
G1 X62.684 Y120.534 E0.01657
G1 X62.623 Y120.013 E0.01645
G1 X62.623 Y59.981 E1.88225
G1 X62.750 Y59.263 E0.02285
M204 S1250
; printing object road_blocker rev_4_pcb.stl id:0 copy 0
G1 E-2.24000 F4200.000
;WIPE_START
G1 F7200.000
G1 X63.146 Y58.512 E-0.47064
G1 X63.514 Y58.144 E-0.28860
G1 X63.747 Y57.997 E-0.15276
;WIPE_END
G1 E-0.04800 F4200.000
G1 Z0.400 F9000.000
G1 X65.787 Y60.787
G1 Z0.200
G1 E3.20000 F2400.000
M204 S800
;TYPE:Perimeter
G1 F1200.000
G1 X114.213 Y60.787 E1.51836
G1 X114.213 Y119.213 E1.83190
G1 X65.787 Y119.213 E1.51836
G1 X65.787 Y60.847 E1.83002
M204 S1250
M73 P1 R60
G1 X65.410 Y60.410 F9000.000
M204 S800
;TYPE:External perimeter
G1 F1200.000
G1 X114.590 Y60.410 E1.54200
G1 X114.590 Y119.590 E1.85555
G1 X65.410 Y119.590 E1.54200
G1 X65.410 Y60.470 E1.85367
M204 S1250
G1 X65.793 Y60.525 F9000.000
G1 E-2.24000 F4200.000
;WIPE_START
G1 F7200.000
G1 X67.056 Y60.468 E-0.91200
;WIPE_END
G1 E-0.04800 F4200.000
G1 Z0.400 F9000.000
G1 X113.335 Y60.900
G1 Z0.200
G1 E3.20000 F2400.000
M204 S800
;TYPE:Solid infill
;WIDTH:0.421256
G1 F1200.000
G1 X113.930 Y61.495 E0.02648
G1 X113.930 Y62.030 E0.01683
G1 X112.970 Y61.070 E0.04274
G1 X112.434 Y61.070 E0.01683
G1 X113.930 Y62.566 E0.06654
G1 X113.930 Y63.101 E0.01683
G1 X111.899 Y61.070 E0.09035
G1 X111.364 Y61.070 E0.01683
G1 X113.930 Y63.636 E0.11415
G1 X113.930 Y64.171 E0.01683
G1 X110.829 Y61.070 E0.13795
G1 X110.294 Y61.070 E0.01683
G1 X113.930 Y64.706 E0.16176
G1 X113.930 Y65.241 E0.01683
G1 X109.759 Y61.070 E0.18556
G1 X109.224 Y61.070 E0.01683
G1 X113.930 Y65.776 E0.20936
G1 X113.930 Y66.311 E0.01683
G1 X108.689 Y61.070 E0.23317
G1 X108.154 Y61.070 E0.01683
G1 X113.930 Y66.846 E0.25697
G1 X113.930 Y67.381 E0.01683
G1 X107.619 Y61.070 E0.28078
G1 X107.084 Y61.070 E0.01683
G1 X113.930 Y67.916 E0.30458
G1 X113.930 Y68.451 E0.01683
G1 X106.549 Y61.070 E0.32838
G1 X106.014 Y61.070 E0.01683
G1 X113.930 Y68.986 E0.35219
G1 X113.930 Y69.521 E0.01683
G1 X105.479 Y61.070 E0.37599
G1 X104.944 Y61.070 E0.01683
G1 X113.930 Y70.056 E0.39980
G1 X113.930 Y70.591 E0.01683
G1 X104.409 Y61.070 E0.42360
G1 X103.874 Y61.070 E0.01683
G1 X113.930 Y71.126 E0.44740
G1 X113.930 Y71.661 E0.01683
G1 X103.339 Y61.070 E0.47121
G1 X102.804 Y61.070 E0.01683
G1 X113.930 Y72.196 E0.49501
G1 X113.930 Y72.731 E0.01683
G1 X102.269 Y61.070 E0.51882
M73 P1 R59
G1 X101.734 Y61.070 E0.01683
G1 X113.930 Y73.266 E0.54262
G1 X113.930 Y73.802 E0.01683
G1 X101.198 Y61.070 E0.56642
G1 X100.663 Y61.070 E0.01683
G1 X113.930 Y74.337 E0.59023
G1 X113.930 Y74.872 E0.01683
G1 X100.128 Y61.070 E0.61403
G1 X99.593 Y61.070 E0.01683
G1 X113.930 Y75.407 E0.63784
G1 X113.930 Y75.942 E0.01683
G1 X99.058 Y61.070 E0.66164
G1 X98.523 Y61.070 E0.01683
G1 X113.930 Y76.477 E0.68544
G1 X113.930 Y77.012 E0.01683
G1 X97.988 Y61.070 E0.70925
G1 X97.453 Y61.070 E0.01683
G1 X113.930 Y77.547 E0.73305
G1 X113.930 Y78.082 E0.01683
G1 X96.918 Y61.070 E0.75686
G1 X96.383 Y61.070 E0.01683
G1 X113.930 Y78.617 E0.78066
M73 P2 R59
G1 X113.930 Y79.152 E0.01683
G1 X95.848 Y61.070 E0.80446
G1 X95.313 Y61.070 E0.01683
G1 X113.930 Y79.687 E0.82827
G1 X113.930 Y80.222 E0.01683
G1 X94.778 Y61.070 E0.85207
G1 X94.243 Y61.070 E0.01683
G1 X113.930 Y80.757 E0.87588
G1 X113.930 Y81.292 E0.01683
G1 X93.708 Y61.070 E0.89968
G1 X93.173 Y61.070 E0.01683
G1 X113.930 Y81.827 E0.92348
G1 X113.930 Y82.362 E0.01683
G1 X92.638 Y61.070 E0.94729
G1 X92.103 Y61.070 E0.01683
G1 X113.930 Y82.897 E0.97109
G1 X113.930 Y83.432 E0.01683
G1 X91.568 Y61.070 E0.99490
G1 X91.033 Y61.070 E0.01683
G1 X113.930 Y83.967 E1.01870
G1 X113.930 Y84.503 E0.01683
G1 X90.497 Y61.070 E1.04250
G1 X89.962 Y61.070 E0.01683
G1 X113.930 Y85.038 E1.06631
G1 X113.930 Y85.573 E0.01683
G1 X89.427 Y61.070 E1.09011
G1 X88.892 Y61.070 E0.01683
G1 X113.930 Y86.108 E1.11392
G1 X113.930 Y86.643 E0.01683
G1 X88.357 Y61.070 E1.13772
G1 X87.822 Y61.070 E0.01683
G1 X113.930 Y87.178 E1.16152
G1 X113.930 Y87.713 E0.01683
G1 X87.287 Y61.070 E1.18533
G1 X86.752 Y61.070 E0.01683
G1 X113.930 Y88.248 E1.20913
G1 X113.930 Y88.783 E0.01683
G1 X86.217 Y61.070 E1.23294
G1 X85.682 Y61.070 E0.01683
G1 X113.930 Y89.318 E1.25674
G1 X113.930 Y89.853 E0.01683
G1 X85.147 Y61.070 E1.28054
G1 X84.612 Y61.070 E0.01683
G1 X113.930 Y90.388 E1.30435
M73 P3 R59
G1 X113.930 Y90.923 E0.01683
G1 X84.077 Y61.070 E1.32815
G1 X83.542 Y61.070 E0.01683
G1 X113.930 Y91.458 E1.35196
G1 X113.930 Y91.993 E0.01683
G1 X83.007 Y61.070 E1.37576
G1 X82.472 Y61.070 E0.01683
G1 X113.930 Y92.528 E1.39956
G1 X113.930 Y93.063 E0.01683
G1 X81.937 Y61.070 E1.42337
M73 P3 R58
G1 X81.402 Y61.070 E0.01683
G1 X113.930 Y93.598 E1.44717
G1 X113.930 Y94.133 E0.01683
G1 X80.867 Y61.070 E1.47098
G1 X80.332 Y61.070 E0.01683
G1 X113.930 Y94.668 E1.49478
G1 X113.930 Y95.203 E0.01683
G1 X79.797 Y61.070 E1.51858
G1 X79.261 Y61.070 E0.01683
G1 X113.930 Y95.739 E1.54239
G1 X113.930 Y96.274 E0.01683
G1 X78.726 Y61.070 E1.56619
G1 X78.191 Y61.070 E0.01683
G1 X113.930 Y96.809 E1.59000
G1 X113.930 Y97.344 E0.01683
G1 X77.656 Y61.070 E1.61380
G1 X77.121 Y61.070 E0.01683
G1 X113.930 Y97.879 E1.63760
G1 X113.930 Y98.414 E0.01683
G1 X76.586 Y61.070 E1.66141
M73 P4 R58
G1 X76.051 Y61.070 E0.01683
G1 X113.930 Y98.949 E1.68521
G1 X113.930 Y99.484 E0.01683
G1 X75.516 Y61.070 E1.70901
G1 X74.981 Y61.070 E0.01683
G1 X113.930 Y100.019 E1.73282
G1 X113.930 Y100.554 E0.01683
G1 X74.446 Y61.070 E1.75662
G1 X73.911 Y61.070 E0.01683
G1 X113.930 Y101.089 E1.78043
G1 X113.930 Y101.624 E0.01683
G1 X73.376 Y61.070 E1.80423
G1 X72.841 Y61.070 E0.01683
G1 X113.930 Y102.159 E1.82803
G1 X113.930 Y102.694 E0.01683
G1 X72.306 Y61.070 E1.85184
G1 X71.771 Y61.070 E0.01683
G1 X113.930 Y103.229 E1.87564
G1 X113.930 Y103.764 E0.01683
G1 X71.236 Y61.070 E1.89945
G1 X70.701 Y61.070 E0.01683
G1 X113.930 Y104.299 E1.92325
G1 X113.930 Y104.834 E0.01683
G1 X70.166 Y61.070 E1.94705
M73 P5 R57
G1 X69.631 Y61.070 E0.01683
G1 X113.930 Y105.369 E1.97086
G1 X113.930 Y105.904 E0.01683
G1 X69.096 Y61.070 E1.99466
G1 X68.561 Y61.070 E0.01683
G1 X113.930 Y106.439 E2.01847
G1 X113.930 Y106.975 E0.01683
G1 X68.025 Y61.070 E2.04227
G1 X67.490 Y61.070 E0.01683
G1 X113.930 Y107.510 E2.06607
G1 X113.930 Y108.045 E0.01683
G1 X66.955 Y61.070 E2.08988
G1 X66.420 Y61.070 E0.01683
G1 X113.930 Y108.580 E2.11368
G1 X113.930 Y109.115 E0.01683
G1 X66.070 Y61.254 E2.12927
G1 X66.070 Y61.790 E0.01683
G1 X113.930 Y109.650 E2.12927
G1 X113.930 Y110.185 E0.01683
G1 X66.070 Y62.325 E2.12927
G1 X66.070 Y62.860 E0.01683
G1 X113.930 Y110.720 E2.12927
M73 P6 R57
G1 X113.930 Y111.255 E0.01683
G1 X66.070 Y63.395 E2.12927
G1 X66.070 Y63.930 E0.01683
G1 X113.930 Y111.790 E2.12927
G1 X113.930 Y112.325 E0.01683
G1 X66.070 Y64.465 E2.12927
G1 X66.070 Y65.000 E0.01683
G1 X113.930 Y112.860 E2.12927
G1 X113.930 Y113.395 E0.01683
G1 X66.070 Y65.535 E2.12927
G1 X66.070 Y66.070 E0.01683
G1 X113.930 Y113.930 E2.12927
G1 X113.930 Y114.465 E0.01683
G1 X66.070 Y66.605 E2.12927
M73 P6 R56
G1 X66.070 Y67.140 E0.01683
G1 X113.930 Y115.000 E2.12927
G1 X113.930 Y115.535 E0.01683
G1 X66.070 Y67.675 E2.12927
G1 X66.070 Y68.210 E0.01683
G1 X113.930 Y116.070 E2.12927
G1 X113.930 Y116.605 E0.01683
G1 X66.070 Y68.745 E2.12927
M73 P7 R56
G1 X66.070 Y69.280 E0.01683
G1 X113.930 Y117.140 E2.12927
G1 X113.930 Y117.675 E0.01683
G1 X66.070 Y69.815 E2.12927
G1 X66.070 Y70.350 E0.01683
G1 X113.930 Y118.211 E2.12927
G1 X113.930 Y118.746 E0.01683
G1 X66.070 Y70.885 E2.12927
G1 X66.070 Y71.420 E0.01683
G1 X113.580 Y118.930 E2.11368
G1 X113.045 Y118.930 E0.01683
G1 X66.070 Y71.955 E2.08988
G1 X66.070 Y72.490 E0.01683
G1 X112.510 Y118.930 E2.06607
G1 X111.974 Y118.930 E0.01683
G1 X66.070 Y73.026 E2.04227
G1 X66.070 Y73.561 E0.01683
G1 X111.439 Y118.930 E2.01847
G1 X110.904 Y118.930 E0.01683
G1 X66.070 Y74.096 E1.99466
G1 X66.070 Y74.631 E0.01683
G1 X110.369 Y118.930 E1.97086
M73 P8 R56
G1 X109.834 Y118.930 E0.01683
G1 X66.070 Y75.166 E1.94705
G1 X66.070 Y75.701 E0.01683
G1 X109.299 Y118.930 E1.92325
G1 X108.764 Y118.930 E0.01683
G1 X66.070 Y76.236 E1.89945
M73 P8 R55
G1 X66.070 Y76.771 E0.01683
G1 X108.229 Y118.930 E1.87564
G1 X107.694 Y118.930 E0.01683
G1 X66.070 Y77.306 E1.85184
G1 X66.070 Y77.841 E0.01683
G1 X107.159 Y118.930 E1.82803
G1 X106.624 Y118.930 E0.01683
G1 X66.070 Y78.376 E1.80423
G1 X66.070 Y78.911 E0.01683
G1 X106.089 Y118.930 E1.78043
G1 X105.554 Y118.930 E0.01683
G1 X66.070 Y79.446 E1.75662
G1 X66.070 Y79.981 E0.01683
G1 X105.019 Y118.930 E1.73282
G1 X104.484 Y118.930 E0.01683
G1 X66.070 Y80.516 E1.70901
G1 X66.070 Y81.051 E0.01683
G1 X103.949 Y118.930 E1.68521
M73 P9 R55
G1 X103.414 Y118.930 E0.01683
G1 X66.070 Y81.586 E1.66141
G1 X66.070 Y82.121 E0.01683
G1 X102.879 Y118.930 E1.63760
G1 X102.344 Y118.930 E0.01683
G1 X66.070 Y82.656 E1.61380
G1 X66.070 Y83.191 E0.01683
G1 X101.809 Y118.930 E1.58999
G1 X101.274 Y118.930 E0.01683
G1 X66.070 Y83.726 E1.56619
G1 X66.070 Y84.262 E0.01683
G1 X100.738 Y118.930 E1.54239
G1 X100.203 Y118.930 E0.01683
G1 X66.070 Y84.797 E1.51858
G1 X66.070 Y85.332 E0.01683
G1 X99.668 Y118.930 E1.49478
G1 X99.133 Y118.930 E0.01683
G1 X66.070 Y85.867 E1.47097
G1 X66.070 Y86.402 E0.01683
G1 X98.598 Y118.930 E1.44717
G1 X98.063 Y118.930 E0.01683
G1 X66.070 Y86.937 E1.42337
G1 X66.070 Y87.472 E0.01683
G1 X97.528 Y118.930 E1.39956
G1 X96.993 Y118.930 E0.01683
G1 X66.070 Y88.007 E1.37576
G1 X66.070 Y88.542 E0.01683
G1 X96.458 Y118.930 E1.35195
M73 P9 R54
G1 X95.923 Y118.930 E0.01683
G1 X66.070 Y89.077 E1.32815
M73 P10 R54
G1 X66.070 Y89.612 E0.01683
G1 X95.388 Y118.930 E1.30435
G1 X94.853 Y118.930 E0.01683
G1 X66.070 Y90.147 E1.28054
G1 X66.070 Y90.682 E0.01683
G1 X94.318 Y118.930 E1.25674
G1 X93.783 Y118.930 E0.01683
G1 X66.070 Y91.217 E1.23293
G1 X66.070 Y91.752 E0.01683
G1 X93.248 Y118.930 E1.20913
G1 X92.713 Y118.930 E0.01683
G1 X66.070 Y92.287 E1.18533
G1 X66.070 Y92.822 E0.01683
G1 X92.178 Y118.930 E1.16152
G1 X91.643 Y118.930 E0.01683
G1 X66.070 Y93.357 E1.13772
G1 X66.070 Y93.892 E0.01683
G1 X91.108 Y118.930 E1.11391
G1 X90.573 Y118.930 E0.01683
G1 X66.070 Y94.427 E1.09011
G1 X66.070 Y94.962 E0.01683
G1 X90.038 Y118.930 E1.06631
G1 X89.502 Y118.930 E0.01683
G1 X66.070 Y95.498 E1.04250
G1 X66.070 Y96.033 E0.01683
G1 X88.967 Y118.930 E1.01870
G1 X88.432 Y118.930 E0.01683
G1 X66.070 Y96.568 E0.99489
G1 X66.070 Y97.103 E0.01683
G1 X87.897 Y118.930 E0.97109
G1 X87.362 Y118.930 E0.01683
G1 X66.070 Y97.638 E0.94729
G1 X66.070 Y98.173 E0.01683
G1 X86.827 Y118.930 E0.92348
G1 X86.292 Y118.930 E0.01683
G1 X66.070 Y98.708 E0.89968
G1 X66.070 Y99.243 E0.01683
G1 X85.757 Y118.930 E0.87587
G1 X85.222 Y118.930 E0.01683
G1 X66.070 Y99.778 E0.85207
M73 P11 R54
G1 X66.070 Y100.313 E0.01683
G1 X84.687 Y118.930 E0.82827
G1 X84.152 Y118.930 E0.01683
G1 X66.070 Y100.848 E0.80446
G1 X66.070 Y101.383 E0.01683
G1 X83.617 Y118.930 E0.78066
G1 X83.082 Y118.930 E0.01683
G1 X66.070 Y101.918 E0.75685
G1 X66.070 Y102.453 E0.01683
G1 X82.547 Y118.930 E0.73305
G1 X82.012 Y118.930 E0.01683
G1 X66.070 Y102.988 E0.70925
G1 X66.070 Y103.523 E0.01683
G1 X81.477 Y118.930 E0.68544
G1 X80.942 Y118.930 E0.01683
G1 X66.070 Y104.058 E0.66164
G1 X66.070 Y104.593 E0.01683
G1 X80.407 Y118.930 E0.63784
G1 X79.872 Y118.930 E0.01683
G1 X66.070 Y105.128 E0.61403
G1 X66.070 Y105.663 E0.01683
G1 X79.337 Y118.930 E0.59023
G1 X78.802 Y118.930 E0.01683
G1 X66.070 Y106.198 E0.56642
G1 X66.070 Y106.734 E0.01683
G1 X78.266 Y118.930 E0.54262
G1 X77.731 Y118.930 E0.01683
G1 X66.070 Y107.269 E0.51882
G1 X66.070 Y107.804 E0.01683
G1 X77.196 Y118.930 E0.49501
G1 X76.661 Y118.930 E0.01683
G1 X66.070 Y108.339 E0.47121
G1 X66.070 Y108.874 E0.01683
G1 X76.126 Y118.930 E0.44740
G1 X75.591 Y118.930 E0.01683
G1 X66.070 Y109.409 E0.42360
G1 X66.070 Y109.944 E0.01683
G1 X75.056 Y118.930 E0.39980
G1 X74.521 Y118.930 E0.01683
G1 X66.070 Y110.479 E0.37599
G1 X66.070 Y111.014 E0.01683
G1 X73.986 Y118.930 E0.35219
G1 X73.451 Y118.930 E0.01683
G1 X66.070 Y111.549 E0.32838
G1 X66.070 Y112.084 E0.01683
M73 P11 R53
G1 X72.916 Y118.930 E0.30458
G1 X72.381 Y118.930 E0.01683
G1 X66.070 Y112.619 E0.28078
G1 X66.070 Y113.154 E0.01683
G1 X71.846 Y118.930 E0.25697
G1 X71.311 Y118.930 E0.01683
G1 X66.070 Y113.689 E0.23317
G1 X66.070 Y114.224 E0.01683
G1 X70.776 Y118.930 E0.20936
G1 X70.241 Y118.930 E0.01683
G1 X66.070 Y114.759 E0.18556
G1 X66.070 Y115.294 E0.01683
G1 X69.706 Y118.930 E0.16176
G1 X69.171 Y118.930 E0.01683
G1 X66.070 Y115.829 E0.13795
G1 X66.070 Y116.364 E0.01683
G1 X68.636 Y118.930 E0.11415
G1 X68.101 Y118.930 E0.01683
G1 X66.070 Y116.899 E0.09034
G1 X66.070 Y117.434 E0.01683
G1 X67.566 Y118.930 E0.06654
G1 X67.030 Y118.930 E0.01683
G1 X66.070 Y117.970 E0.04274
G1 X66.070 Y118.505 E0.01683
G1 X66.665 Y119.100 E0.02648
M204 S1250
; stop printing object road_blocker rev_4_pcb.stl id:0 copy 0
M106 S84.15
;LAYER_CHANGE
;Z:0.45
;HEIGHT:0.25
;BEFORE_LAYER_CHANGE
G92 E0.0
;0.45


G1 E-2.24000 F4200.000
;WIPE_START
G1 F7200.000
G1 X66.070 Y118.505 E-0.46648
G1 X66.070 Y117.970 E-0.29651
G1 X66.260 Y118.160 E-0.14901
;WIPE_END
G1 E-0.04800 F4200.000
G1 Z0.400 F9000.000
G1 Z0.450
;AFTER_LAYER_CHANGE
;0.45
M104 S210 ; set temperature
G1 Z0.650
G1 X64.201 Y122.239
G1 Z0.450
G1 E3.20000 F2400.000
;TYPE:Skirt
;WIDTH:0.42
G1 X63.512 Y121.854 E0.03003
G1 X63.140 Y121.480 E0.02012
G1 X62.859 Y121.032 E0.02012
G1 X62.684 Y120.534 E0.02012
G1 X62.623 Y120.013 E0.01997
G1 X62.623 Y59.981 E2.28586
G1 X62.760 Y59.204 E0.03003
G1 X63.146 Y58.512 E0.03017
G1 X63.514 Y58.144 E0.01983
G1 X63.954 Y57.865 E0.01983
G1 X64.444 Y57.689 E0.01983
G1 X64.961 Y57.623 E0.01983
G1 X115.004 Y57.623 E1.90552
G1 X115.895 Y57.798 E0.03459
G1 X116.659 Y58.297 E0.03474
G1 X117.176 Y59.044 E0.03460
G1 X117.376 Y59.930 E0.03459
G1 X117.377 Y120.019 E2.28803
G1 X117.240 Y120.796 E0.03003
G1 X116.854 Y121.488 E0.03017
G1 X116.483 Y121.858 E0.01997
G1 X116.036 Y122.140 E0.02012
G1 X115.537 Y122.316 E0.02012
G1 X115.016 Y122.377 E0.01997
