; generated by PrusaSlicer 2.3.3+win64 on 2021-10-08 at 12:49:37 UTC


;
;

;
;
; 

; external perimeters extrusion width = 0.45mm
; perimeters extrusion width = 0.45mm
; infill extrusion width = 0.45mm
; solid infill extrusion width = 0.45mm
; top infill extrusion width = 0.40mm
; first layer extrusion width = 0.42mm

M73 P0 R72
M201 X1250 Y1250 Z400 E5000 ; sets maximum accelerations, mm/sec^2
M203 X180 Y180 Z12 E80 ; sets maximum feedrates, mm/sec
M204 P1250 R1250 T1250 ; sets acceleration (P, T) and retract acceleration (R), mm/sec^2
M205 X8.00 Y8.00 Z2.00 E10.00 ; sets the jerk limits, mm/sec
M205 S0 T0 ; sets the minimum extruding and travel feed rate, mm/sec
M107
;TYPE:Custom
G90 ; use absolute coordinates
M83 ; extruder relative mode
M104 S170 ; set extruder temp for bed leveling
M140 S60 ; set bed temp
M109 R170 ; wait for bed leveling temp
M190 S60 ; wait for bed temp
G28 ; home all without mesh bed level
G29 ; mesh bed leveling 
M104 S215 ; set extruder temp
G92 E0.0
G1 Y-2.0 X179 F2400
M73 P0 R71
G1 Z3 F720
M109 S215 ; wait for extruder temp

; intro line
G1 X170 F1000
G1 Z0.2 F720
G1 X110.0 E8.0 F900
G1 X40.0 E10.0 F700
G92 E0.0

M221 S95 ; set flow
G21 ; set units to millimeters
G90 ; use absolute coordinates
M83 ; use relative distances for extrusion
M900 K0.2 ; Filament gcode LA 1.5
; ; Filament gcode LA 1.0
;LAYER_CHANGE
;Z:0.2
;HEIGHT:0.2
;BEFORE_LAYER_CHANGE
G92 E0.0
;0.2


G1 Z0.200 F9000.000
;AFTER_LAYER_CHANGE
;0.2
G1 E-3.20000 F4200.000
G1 Z0.400 F9000.000
G1 X57.722 Y44.320
G1 Z0.200
G1 E3.20000 F2400.000
M204 S800
;TYPE:Skirt
;WIDTH:0.42
G1 F1200.000
G1 X58.006 Y43.707 E0.02119
G1 X58.376 Y43.264 E0.01811
G1 X58.846 Y42.922 E0.01823
G1 X59.381 Y42.705 E0.01811
G1 X59.957 Y42.623 E0.01823
G1 X120.004 Y42.623 E1.88272
G1 X120.902 Y42.801 E0.02872
G1 X121.664 Y43.303 E0.02860
G1 X122.181 Y44.055 E0.02860
G1 X122.377 Y44.949 E0.02872
G1 X122.377 Y135.011 E2.82383
G1 X122.278 Y135.680 E0.02119
G1 X121.994 Y136.293 E0.02119
G1 X121.618 Y136.741 E0.01835
G1 X121.147 Y137.082 E0.01823
G1 X120.608 Y137.298 E0.01823
G1 X120.028 Y137.377 E0.01835
G1 X59.985 Y137.377 E1.88261
G1 X59.317 Y137.277 E0.02119
G1 X58.707 Y136.994 E0.02107
G1 X58.259 Y136.618 E0.01835
G1 X57.914 Y136.140 E0.01846
G1 X57.699 Y135.596 E0.01835
G1 X57.623 Y135.016 E0.01835
G1 X57.623 Y44.989 E2.82276
G1 X57.713 Y44.380 E0.01931
M204 S1250
; printing object road_blocker_test.stl id:0 copy 0
G1 E-2.24000 F4200.000
;WIPE_START
G1 F7200.000
G1 X58.006 Y43.707 E-0.40647
G1 X58.376 Y43.264 E-0.32005
G1 X58.647 Y43.067 E-0.18548
;WIPE_END
G1 E-0.04800 F4200.000
G1 Z0.400 F9000.000
G1 X84.678 Y66.425
G1 Z0.200
G1 E3.20000 F2400.000
M204 S800
;TYPE:Perimeter
G1 F1200.000
G1 X84.940 Y66.036 E0.01469
G1 X85.169 Y65.799 E0.01033
G1 X85.428 Y65.596 E0.01033
G1 X85.842 Y65.376 E0.01469
G1 X86.292 Y65.247 E0.01468
G1 X86.610 Y65.214 E0.01002
G1 X93.800 Y65.214 E0.22545
G1 X94.244 Y65.276 E0.01404
G1 X94.567 Y65.381 E0.01065
G1 X94.981 Y65.601 E0.01469
G1 X95.348 Y65.909 E0.01501
G1 X95.642 Y66.286 E0.01502
G1 X95.852 Y66.717 E0.01501
G1 X95.966 Y67.171 E0.01469
G1 X95.989 Y67.510 E0.01066
G1 X95.941 Y67.966 E0.01437
G1 X95.851 Y68.283 E0.01033
G1 X95.721 Y68.574 E0.01001
G1 X95.552 Y68.845 E0.01001
G1 X95.340 Y69.098 E0.01034
G1 X94.989 Y69.392 E0.01437
G1 X94.703 Y69.557 E0.01033
G1 X94.407 Y69.677 E0.01002
G1 X94.098 Y69.754 E0.01000
G1 X93.790 Y69.786 E0.00969
G1 X86.600 Y69.786 E0.22545
G1 X86.156 Y69.724 E0.01404
G1 X85.833 Y69.619 E0.01065
G1 X85.419 Y69.399 E0.01469
G1 X85.052 Y69.091 E0.01501
G1 X84.764 Y68.722 E0.01469
G1 X84.604 Y68.422 E0.01066
G1 X84.460 Y67.976 E0.01468
G1 X84.411 Y67.510 E0.01469
G1 X84.434 Y67.181 E0.01034
G1 X84.502 Y66.859 E0.01034
G1 X84.655 Y66.480 E0.01280
M204 S1250
G1 X85.005 Y66.622 F9000.000
M204 S800
;TYPE:External perimeter
G1 F1200.000
G1 X85.234 Y66.275 E0.01304
G1 X85.422 Y66.080 E0.00847
G1 X85.634 Y65.914 E0.00847
G1 X85.984 Y65.728 E0.01241
G1 X86.364 Y65.619 E0.01241
G1 X86.630 Y65.591 E0.00836
G1 X93.774 Y65.591 E0.22400
G1 X94.159 Y65.645 E0.01218
G1 X94.419 Y65.730 E0.00859
G1 X94.769 Y65.915 E0.01241
G1 X95.075 Y66.172 E0.01253
G1 X95.321 Y66.487 E0.01253
G1 X95.496 Y66.846 E0.01253
G1 X95.592 Y67.230 E0.01241
G1 X95.611 Y67.504 E0.00859
G1 X95.570 Y67.894 E0.01230
G1 X95.495 Y68.153 E0.00847
G1 X95.387 Y68.397 E0.00835
G1 X95.246 Y68.623 E0.00836
G1 X95.072 Y68.830 E0.00847
G1 X94.772 Y69.082 E0.01230
G1 X94.538 Y69.217 E0.00847
G1 X94.290 Y69.317 E0.00836
G1 X94.032 Y69.382 E0.00835
G1 X93.770 Y69.409 E0.00825
G1 X86.626 Y69.409 E0.22400
G1 X86.241 Y69.355 E0.01218
G1 X85.981 Y69.270 E0.00859
G1 X85.631 Y69.085 E0.01241
G1 X85.325 Y68.828 E0.01253
G1 X85.081 Y68.516 E0.01241
G1 X84.953 Y68.274 E0.00859
G1 X84.831 Y67.897 E0.01241
G1 X84.789 Y67.504 E0.01241
G1 X84.808 Y67.234 E0.00847
G1 X84.864 Y66.970 E0.00848
G1 X84.982 Y66.677 E0.00989
M204 S1250
G1 X84.794 Y66.282 F9000.000
G1 X84.297 Y66.060
M204 S800
;TYPE:Perimeter
G1 F1200.000
G1 X84.101 Y66.278 E0.00918
G1 X83.647 Y66.716 E0.01978
G1 X83.164 Y67.122 E0.01978
G1 X82.654 Y67.493 E0.01978
G1 X82.119 Y67.827 E0.01978
G1 X81.562 Y68.123 E0.01978
G1 X80.985 Y68.380 E0.01978
G1 X80.393 Y68.595 E0.01978
G1 X79.786 Y68.769 E0.01978
G1 X79.169 Y68.900 E0.01978
G1 X78.545 Y68.988 E0.01978
G1 X77.915 Y69.032 E0.01978
G1 X77.285 Y69.032 E0.01978
G1 X76.655 Y68.988 E0.01978
G1 X76.031 Y68.900 E0.01978
G1 X75.414 Y68.769 E0.01978
G1 X74.807 Y68.595 E0.01978
G1 X74.215 Y68.380 E0.01978
G1 X73.638 Y68.123 E0.01978
G1 X73.081 Y67.827 E0.01978
G1 X72.546 Y67.493 E0.01978
G1 X72.036 Y67.122 E0.01978
G1 X71.553 Y66.716 E0.01978
G1 X71.099 Y66.278 E0.01978
G1 X70.677 Y65.809 E0.01978
G1 X70.288 Y65.312 E0.01978
G1 X69.936 Y64.789 E0.01978
G1 X69.620 Y64.243 E0.01978
G1 X69.344 Y63.676 E0.01977
G1 X69.107 Y63.091 E0.01978
G1 X68.912 Y62.490 E0.01982
G1 X68.754 Y61.843 E0.02090
G1 X68.650 Y61.258 E0.01862
G1 X68.584 Y60.630 E0.01978
G1 X68.562 Y60.000 E0.01978
G1 X68.584 Y59.370 E0.01978
G1 X68.650 Y58.742 E0.01978
G1 X68.760 Y58.121 E0.01978
G1 X68.913 Y57.509 E0.01978
G1 X69.107 Y56.909 E0.01978
G1 X69.344 Y56.324 E0.01978
G1 X69.620 Y55.757 E0.01977
G1 X69.936 Y55.211 E0.01978
G1 X70.288 Y54.688 E0.01978
G1 X70.677 Y54.191 E0.01978
G1 X71.099 Y53.722 E0.01978
G1 X71.553 Y53.284 E0.01978
G1 X72.036 Y52.878 E0.01978
G1 X72.546 Y52.508 E0.01978
G1 X73.081 Y52.173 E0.01978
G1 X73.638 Y51.877 E0.01978
G1 X74.214 Y51.621 E0.01978
G1 X74.807 Y51.405 E0.01978
G1 X75.414 Y51.231 E0.01978
G1 X76.031 Y51.100 E0.01978
G1 X76.655 Y51.012 E0.01978
G1 X77.285 Y50.968 E0.01978
G1 X77.915 Y50.968 E0.01978
G1 X78.545 Y51.012 E0.01978
G1 X79.169 Y51.100 E0.01978
G1 X79.786 Y51.231 E0.01978
G1 X80.393 Y51.405 E0.01978
G1 X80.986 Y51.621 E0.01978
G1 X81.562 Y51.877 E0.01978
G1 X82.119 Y52.173 E0.01978
G1 X82.654 Y52.508 E0.01978
G1 X83.164 Y52.878 E0.01978
G1 X83.647 Y53.284 E0.01978
G1 X84.101 Y53.722 E0.01978
G1 X84.523 Y54.191 E0.01978
G1 X84.912 Y54.688 E0.01978
G1 X85.264 Y55.211 E0.01978
G1 X85.580 Y55.757 E0.01978
G1 X85.856 Y56.324 E0.01977
G1 X86.093 Y56.909 E0.01978
G1 X86.287 Y57.509 E0.01978
G1 X86.440 Y58.121 E0.01978
G1 X86.550 Y58.742 E0.01978
G1 X86.616 Y59.370 E0.01978
G1 X86.638 Y60.000 E0.01978
G1 X86.616 Y60.630 E0.01978
G1 X86.550 Y61.258 E0.01978
G1 X86.440 Y61.879 E0.01978
G1 X86.287 Y62.491 E0.01978
G1 X86.093 Y63.091 E0.01978
G1 X85.856 Y63.676 E0.01978
G1 X85.580 Y64.243 E0.01977
G1 X85.264 Y64.789 E0.01978
G1 X84.912 Y65.312 E0.01978
G1 X84.523 Y65.809 E0.01978
G1 X84.337 Y66.016 E0.00871
M204 S1250
G1 X84.057 Y65.763 F9000.000
M204 S800
;TYPE:External perimeter
G1 F1200.000
G1 X83.830 Y66.016 E0.01065
G1 X83.395 Y66.436 E0.01895
G1 X82.932 Y66.824 E0.01895
G1 X82.443 Y67.180 E0.01896
G1 X81.930 Y67.500 E0.01895
G1 X81.396 Y67.784 E0.01895
G1 X80.844 Y68.030 E0.01896
G1 X80.276 Y68.236 E0.01895
G1 X79.695 Y68.403 E0.01895
G1 X79.104 Y68.529 E0.01895
G1 X78.505 Y68.613 E0.01895
G1 X77.902 Y68.655 E0.01895
G1 X77.298 Y68.655 E0.01895
G1 X76.695 Y68.613 E0.01895
G1 X76.096 Y68.529 E0.01895
G1 X75.505 Y68.403 E0.01895
G1 X74.924 Y68.236 E0.01895
G1 X74.356 Y68.030 E0.01895
G1 X73.804 Y67.784 E0.01896
G1 X73.270 Y67.500 E0.01895
G1 X72.757 Y67.180 E0.01895
G1 X72.268 Y66.824 E0.01896
G1 X71.805 Y66.436 E0.01895
G1 X71.370 Y66.016 E0.01895
G1 X70.966 Y65.567 E0.01895
G1 X70.594 Y65.090 E0.01895
G1 X70.256 Y64.589 E0.01895
G1 X69.953 Y64.066 E0.01895
G1 X69.689 Y63.522 E0.01895
G1 X69.462 Y62.962 E0.01895
G1 X69.275 Y62.387 E0.01897
G1 X69.123 Y61.765 E0.02007
G1 X69.024 Y61.205 E0.01782
G1 X68.961 Y60.604 E0.01895
G1 X68.940 Y60.000 E0.01895
G1 X68.961 Y59.396 E0.01895
G1 X69.024 Y58.795 E0.01895
G1 X69.129 Y58.199 E0.01895
G1 X69.275 Y57.613 E0.01895
G1 X69.462 Y57.038 E0.01895
G1 X69.689 Y56.478 E0.01895
G1 X69.953 Y55.934 E0.01895
G1 X70.256 Y55.411 E0.01895
G1 X70.594 Y54.910 E0.01895
G1 X70.966 Y54.433 E0.01895
G1 X71.370 Y53.984 E0.01895
G1 X71.805 Y53.564 E0.01895
G1 X72.268 Y53.176 E0.01895
G1 X72.757 Y52.820 E0.01895
G1 X73.270 Y52.500 E0.01895
G1 X73.804 Y52.216 E0.01895
G1 X74.356 Y51.970 E0.01895
G1 X74.924 Y51.764 E0.01895
G1 X75.505 Y51.597 E0.01895
G1 X76.096 Y51.471 E0.01895
G1 X76.695 Y51.387 E0.01895
G1 X77.298 Y51.345 E0.01895
G1 X77.902 Y51.345 E0.01895
G1 X78.505 Y51.387 E0.01896
G1 X79.104 Y51.471 E0.01895
G1 X79.695 Y51.597 E0.01895
G1 X80.276 Y51.764 E0.01895
G1 X80.844 Y51.970 E0.01895
G1 X81.396 Y52.216 E0.01895
G1 X81.930 Y52.500 E0.01895
G1 X82.443 Y52.820 E0.01895
G1 X82.932 Y53.176 E0.01895
G1 X83.395 Y53.564 E0.01895
G1 X83.830 Y53.984 E0.01895
G1 X84.234 Y54.433 E0.01895
G1 X84.606 Y54.910 E0.01895
G1 X84.944 Y55.411 E0.01895
G1 X85.247 Y55.934 E0.01895
G1 X85.511 Y56.478 E0.01895
G1 X85.738 Y57.038 E0.01895
G1 X85.925 Y57.613 E0.01895
G1 X86.071 Y58.199 E0.01895
G1 X86.176 Y58.795 E0.01895
G1 X86.239 Y59.396 E0.01895
G1 X86.260 Y60.000 E0.01895
G1 X86.239 Y60.604 E0.01895
G1 X86.176 Y61.205 E0.01895
G1 X86.071 Y61.801 E0.01895
G1 X85.925 Y62.387 E0.01895
G1 X85.738 Y62.962 E0.01895
G1 X85.511 Y63.522 E0.01895
G1 X85.247 Y64.066 E0.01895
G1 X84.944 Y64.589 E0.01895
G1 X84.606 Y65.090 E0.01895
G1 X84.097 Y65.719 E0.02536
M204 S1250
G1 X84.171 Y66.083 F9000.000
G1 E-2.24000 F4200.000
;WIPE_START
G1 F7200.000
G1 X83.830 Y66.016 E-0.22152
G1 X83.395 Y66.436 E-0.33499
G1 X82.932 Y66.824 E-0.33498
G1 X82.902 Y66.846 E-0.02051
;WIPE_END
G1 E-0.04800 F4200.000
G1 Z0.400 F9000.000
G1 X70.014 Y52.562
G1 Z0.200
G1 E3.20000 F2400.000
M204 S800
;TYPE:Perimeter
G1 F1200.000
G1 X69.840 Y52.719 E0.00738
G1 X69.575 Y52.885 E0.00977
G1 X69.273 Y52.995 E0.01010
G1 X68.954 Y53.039 E0.01010
G1 X68.632 Y53.017 E0.01010
G1 X68.333 Y52.931 E0.00977
G1 X68.121 Y52.828 E0.00738
G1 X67.869 Y52.645 E0.00977
G1 X67.654 Y52.405 E0.01010
G1 X67.493 Y52.127 E0.01010
G1 X67.393 Y51.820 E0.01010
G1 X67.361 Y51.510 E0.00977
G1 X67.377 Y51.276 E0.00738
G1 X67.452 Y50.973 E0.00977
G1 X67.594 Y50.684 E0.01010
G1 X67.786 Y50.438 E0.00977
G1 X67.960 Y50.281 E0.00738
G1 X68.225 Y50.115 E0.00977
G1 X68.527 Y50.005 E0.01010
G1 X68.846 Y49.961 E0.01010
G1 X69.168 Y49.983 E0.01010
G1 X69.477 Y50.072 E0.01010
G1 X69.752 Y50.218 E0.00977
G1 X69.938 Y50.363 E0.00738
G1 X70.146 Y50.595 E0.00977
G1 X70.307 Y50.873 E0.01010
G1 X70.407 Y51.180 E0.01010
G1 X70.440 Y51.500 E0.01010
G1 X70.407 Y51.820 E0.01010
G1 X70.310 Y52.117 E0.00977
G1 X70.200 Y52.324 E0.00738
G1 X70.051 Y52.515 E0.00757
M204 S1250
G1 X69.738 Y52.304 F9000.000
M204 S800
;TYPE:External perimeter
G1 F1200.000
G1 X69.612 Y52.417 E0.00531
G1 X69.409 Y52.544 E0.00750
G1 X69.181 Y52.627 E0.00761
G1 X68.941 Y52.661 E0.00761
G1 X68.698 Y52.644 E0.00761
G1 X68.469 Y52.578 E0.00750
G1 X68.316 Y52.504 E0.00531
G1 X68.123 Y52.363 E0.00750
G1 X67.961 Y52.183 E0.00761
G1 X67.839 Y51.972 E0.00761
G1 X67.764 Y51.741 E0.00761
G1 X67.739 Y51.504 E0.00750
G1 X67.751 Y51.335 E0.00531
G1 X67.809 Y51.103 E0.00750
G1 X67.915 Y50.885 E0.00761
G1 X68.062 Y50.696 E0.00750
G1 X68.188 Y50.583 E0.00531
G1 X68.391 Y50.456 E0.00750
G1 X68.619 Y50.373 E0.00761
G1 X68.859 Y50.339 E0.00761
G1 X69.102 Y50.356 E0.00761
G1 X69.335 Y50.423 E0.00761
G1 X69.546 Y50.536 E0.00750
G1 X69.680 Y50.640 E0.00531
G1 X69.839 Y50.817 E0.00750
G1 X69.961 Y51.028 E0.00761
G1 X70.036 Y51.259 E0.00761
G1 X70.061 Y51.500 E0.00761
G1 X70.036 Y51.741 E0.00761
G1 X69.962 Y51.969 E0.00750
G1 X69.883 Y52.118 E0.00531
G1 X69.775 Y52.256 E0.00550
M204 S1250
G1 X69.786 Y52.466 F9000.000
G1 E-2.24000 F4200.000
;WIPE_START
G1 F7200.000
G1 X69.612 Y52.417 E-0.12671
G1 X69.409 Y52.544 E-0.13250
G1 X69.181 Y52.627 E-0.13453
G1 X68.941 Y52.661 E-0.13454
G1 X68.698 Y52.644 E-0.13454
G1 X68.469 Y52.578 E-0.13247
G1 X68.316 Y52.504 E-0.09383
G1 X68.283 Y52.479 E-0.02288
;WIPE_END
G1 E-0.04800 F4200.000
G1 Z0.400 F9000.000
G1 X69.168 Y66.983
G1 Z0.200
G1 E3.20000 F2400.000
M204 S800
;TYPE:Perimeter
M73 P1 R71
G1 F1200.000
G1 X69.477 Y67.072 E0.01010
G1 X69.752 Y67.218 E0.00977
G1 X69.938 Y67.363 E0.00738
G1 X70.146 Y67.595 E0.00978
G1 X70.307 Y67.873 E0.01009
G1 X70.407 Y68.180 E0.01010
G1 X70.440 Y68.500 E0.01010
G1 X70.407 Y68.820 E0.01010
G1 X70.310 Y69.117 E0.00978
G1 X70.200 Y69.324 E0.00738
G1 X70.008 Y69.570 E0.00977
G1 X69.761 Y69.777 E0.01010
G1 X69.477 Y69.928 E0.01010
G1 X69.177 Y70.014 E0.00977
G1 X68.954 Y70.038 E0.00705
G1 X68.729 Y70.030 E0.00705
G1 X68.424 Y69.965 E0.00978
G1 X68.130 Y69.834 E0.01010
G1 X67.869 Y69.645 E0.01010
G1 X67.654 Y69.405 E0.01010
G1 X67.493 Y69.127 E0.01009
G1 X67.393 Y68.820 E0.01010
G1 X67.360 Y68.500 E0.01010
G1 X67.393 Y68.180 E0.01010
G1 X67.490 Y67.883 E0.00978
G1 X67.600 Y67.676 E0.00738
G1 X67.792 Y67.430 E0.00977
G1 X68.039 Y67.223 E0.01010
G1 X68.323 Y67.072 E0.01010
G1 X68.623 Y66.986 E0.00977
G1 X68.857 Y66.961 E0.00738
G1 X69.108 Y66.979 E0.00789
M204 S1250
G1 X68.863 Y67.340 F9000.000
M204 S800
;TYPE:External perimeter
G1 F1200.000
G1 X69.102 Y67.356 E0.00749
G1 X69.335 Y67.423 E0.00761
G1 X69.546 Y67.535 E0.00749
G1 X69.680 Y67.640 E0.00531
G1 X69.840 Y67.818 E0.00750
G1 X69.961 Y68.028 E0.00761
G1 X70.036 Y68.259 E0.00761
G1 X70.061 Y68.500 E0.00761
G1 X70.036 Y68.741 E0.00761
G1 X69.962 Y68.969 E0.00750
G1 X69.883 Y69.118 E0.00531
G1 X69.735 Y69.307 E0.00749
G1 X69.549 Y69.463 E0.00762
G1 X69.335 Y69.577 E0.00761
G1 X69.105 Y69.643 E0.00749
G1 X68.940 Y69.660 E0.00520
G1 X68.775 Y69.654 E0.00519
G1 X68.541 Y69.604 E0.00750
G1 X68.319 Y69.506 E0.00761
G1 X68.123 Y69.363 E0.00761
G1 X67.960 Y69.182 E0.00762
G1 X67.839 Y68.972 E0.00761
G1 X67.764 Y68.741 E0.00761
G1 X67.739 Y68.500 E0.00761
G1 X67.764 Y68.259 E0.00761
G1 X67.838 Y68.031 E0.00750
G1 X67.917 Y67.882 E0.00531
G1 X68.065 Y67.693 E0.00749
G1 X68.251 Y67.537 E0.00762
G1 X68.465 Y67.423 E0.00761
G1 X68.695 Y67.357 E0.00749
G1 X68.804 Y67.346 E0.00343
M204 S1250
G1 X68.978 Y67.130 F9000.000
G1 E-2.24000 F4200.000
;WIPE_START
G1 F7200.000
G1 X69.102 Y67.356 E-0.16529
G1 X69.335 Y67.423 E-0.13451
G1 X69.546 Y67.535 E-0.13247
G1 X69.680 Y67.640 E-0.09383
G1 X69.840 Y67.818 E-0.13255
G1 X69.961 Y68.028 E-0.13446
G1 X70.027 Y68.232 E-0.11889
;WIPE_END
G1 E-0.04800 F4200.000
G1 Z0.400 F9000.000
G1 X95.160 Y61.879
G1 Z0.200
G1 E3.20000 F2400.000
M204 S800
;TYPE:Perimeter
G1 F1200.000
G1 X95.050 Y61.258 E0.01978
G1 X94.984 Y60.630 E0.01978
G1 X94.962 Y60.000 E0.01978
G1 X94.984 Y59.370 E0.01978
G1 X95.050 Y58.742 E0.01978
G1 X95.160 Y58.121 E0.01978
G1 X95.313 Y57.509 E0.01978
G1 X95.507 Y56.909 E0.01978
G1 X95.744 Y56.324 E0.01978
G1 X96.020 Y55.757 E0.01978
G1 X96.336 Y55.211 E0.01978
G1 X96.688 Y54.688 E0.01978
G1 X97.077 Y54.191 E0.01978
G1 X97.499 Y53.722 E0.01978
G1 X97.953 Y53.284 E0.01978
G1 X98.436 Y52.878 E0.01978
G1 X98.946 Y52.508 E0.01978
G1 X99.481 Y52.173 E0.01978
G1 X100.038 Y51.877 E0.01978
G1 X100.614 Y51.621 E0.01978
G1 X101.207 Y51.405 E0.01978
G1 X101.814 Y51.231 E0.01978
G1 X102.431 Y51.100 E0.01978
G1 X103.055 Y51.012 E0.01978
G1 X103.685 Y50.968 E0.01978
G1 X104.315 Y50.968 E0.01978
G1 X104.945 Y51.012 E0.01978
G1 X105.569 Y51.100 E0.01978
G1 X106.186 Y51.231 E0.01978
G1 X106.793 Y51.405 E0.01978
