; generated by PrusaSlicer 2.3.3+win64 on 2021-11-12 at 20:33:48 UTC


;
;

;
;
; 

; external perimeters extrusion width = 0.45mm
; perimeters extrusion width = 0.45mm
; infill extrusion width = 0.45mm
; solid infill extrusion width = 0.45mm
; top infill extrusion width = 0.40mm
; first layer extrusion width = 0.42mm

M73 P0 R16
M201 X1250 Y1250 Z400 E5000 ; sets maximum accelerations, mm/sec^2
M203 X180 Y180 Z12 E80 ; sets maximum feedrates, mm/sec
M204 P1250 R1250 T1250 ; sets acceleration (P, T) and retract acceleration (R), mm/sec^2
M205 X8.00 Y8.00 Z2.00 E10.00 ; sets the jerk limits, mm/sec
M205 S0 T0 ; sets the minimum extruding and travel feed rate, mm/sec
M107
;TYPE:Custom
G90 ; use absolute coordinates
M83 ; extruder relative mode
M104 S170 ; set extruder temp for bed leveling
M140 S60 ; set bed temp
M109 R170 ; wait for bed leveling temp
M190 S60 ; wait for bed temp
G28 ; home all without mesh bed level
G29 ; mesh bed leveling 
M104 S215 ; set extruder temp
G92 E0.0
G1 Y-2.0 X179 F2400
G1 Z3 F720
M109 S215 ; wait for extruder temp

; intro line
G1 X170 F1000
G1 Z0.2 F720
G1 X110.0 E8.0 F900
G1 X40.0 E10.0 F700
G92 E0.0

M221 S95 ; set flow
G21 ; set units to millimeters
G90 ; use absolute coordinates
M83 ; use relative distances for extrusion
M900 K0.2 ; Filament gcode LA 1.5
; ; Filament gcode LA 1.0
;LAYER_CHANGE
;Z:0.2
;HEIGHT:0.2
;BEFORE_LAYER_CHANGE
G92 E0.0
;0.2


M73 P1 R16
G1 E-3.20000 F4200.000
G1 Z0.200 F9000.000
;AFTER_LAYER_CHANGE
;0.2
G1 Z0.400
G1 X66.590 Y68.298
G1 Z0.200
G1 E3.20000 F2400.000
M204 S800
;TYPE:Skirt
;WIDTH:0.42
G1 F1200.000
G1 X67.340 Y67.804 E0.02813
G1 X68.215 Y67.623 E0.02802
G1 X111.754 Y67.623 E1.36514
G1 X112.642 Y67.797 E0.02837
G1 X113.401 Y68.289 E0.02837
G1 X113.920 Y69.030 E0.02837
G1 X114.125 Y69.911 E0.02837
G1 X114.127 Y110.042 E1.25827
M73 P2 R16
G1 X113.933 Y110.941 E0.02884
G1 X113.410 Y111.702 E0.02896
G1 X112.660 Y112.196 E0.02813
G1 X111.785 Y112.377 E0.02802
G1 X68.246 Y112.377 E1.36514
G1 X67.323 Y112.189 E0.02954
G1 X66.548 Y111.660 E0.02942
G1 X66.056 Y110.914 E0.02802
G1 X65.873 Y110.039 E0.02802
G1 X65.873 Y69.996 E1.25552
G1 X66.061 Y69.073 E0.02954
G1 X66.557 Y68.348 E0.02754
M204 S1250
; printing object road_blocker rev_4_pcb.stl id:0 copy 0
G1 E-2.24000 F4200.000
;WIPE_START
G1 F7200.000
G1 X67.340 Y67.804 E-0.52819
G1 X68.018 Y67.664 E-0.38381
;WIPE_END
G1 E-0.04800 F4200.000
G1 Z0.400 F9000.000
G1 X69.037 Y70.787
G1 Z0.200
G1 E3.20000 F2400.000
M204 S800
;TYPE:Perimeter
G1 F1200.000
G1 X110.963 Y70.787 E1.31456
G1 X110.963 Y109.213 E1.20482
M73 P3 R16
G1 X69.037 Y109.213 E1.31456
G1 X69.037 Y70.847 E1.20293
M204 S1250
G1 X68.660 Y70.410 F9000.000
M204 S800
;TYPE:External perimeter
G1 F1200.000
G1 X111.340 Y70.410 E1.33820
G1 X111.340 Y109.590 E1.22846
G1 X68.660 Y109.590 E1.33820
M73 P4 R16
G1 X68.660 Y70.470 E1.22658
M204 S1250
G1 X69.048 Y70.508 F9000.000
G1 E-2.24000 F4200.000
;WIPE_START
G1 F7200.000
G1 X70.306 Y70.468 E-0.91200
;WIPE_END
G1 E-0.04800 F4200.000
G1 Z0.400 F9000.000
G1 X110.082 Y70.900
G1 Z0.200
G1 E3.20000 F2400.000
M204 S800
;TYPE:Solid infill
;WIDTH:0.422454
G1 F1200.000
G1 X110.680 Y71.498 E0.02668
G1 X110.680 Y72.035 E0.01694
G1 X109.715 Y71.070 E0.04306
G1 X109.179 Y71.070 E0.01694
G1 X110.680 Y72.571 E0.06702
G1 X110.680 Y73.108 E0.01694
G1 X108.642 Y71.070 E0.09097
G1 X108.105 Y71.070 E0.01694
G1 X110.680 Y73.645 E0.11493
G1 X110.680 Y74.182 E0.01694
G1 X107.568 Y71.070 E0.13888
G1 X107.032 Y71.070 E0.01694
G1 X110.680 Y74.718 E0.16284
G1 X110.680 Y75.255 E0.01694
G1 X106.495 Y71.070 E0.18679
G1 X105.958 Y71.070 E0.01694
G1 X110.680 Y75.792 E0.21075
G1 X110.680 Y76.329 E0.01694
G1 X105.421 Y71.070 E0.23470
G1 X104.885 Y71.070 E0.01694
G1 X110.680 Y76.865 E0.25866
G1 X110.680 Y77.402 E0.01694
G1 X104.348 Y71.070 E0.28261
G1 X103.811 Y71.070 E0.01694
G1 X110.680 Y77.939 E0.30657
G1 X110.680 Y78.476 E0.01694
G1 X103.274 Y71.070 E0.33052
G1 X102.738 Y71.070 E0.01694
G1 X110.680 Y79.012 E0.35448
G1 X110.680 Y79.549 E0.01694
G1 X102.201 Y71.070 E0.37843
G1 X101.664 Y71.070 E0.01694
G1 X110.680 Y80.086 E0.40239
M73 P5 R16
G1 X110.680 Y80.623 E0.01694
G1 X101.127 Y71.070 E0.42634
M73 P5 R15
G1 X100.591 Y71.070 E0.01694
G1 X110.680 Y81.159 E0.45030
G1 X110.680 Y81.696 E0.01694
G1 X100.054 Y71.070 E0.47425
G1 X99.517 Y71.070 E0.01694
G1 X110.680 Y82.233 E0.49821
G1 X110.680 Y82.770 E0.01694
G1 X98.980 Y71.070 E0.52216
G1 X98.444 Y71.070 E0.01694
G1 X110.680 Y83.306 E0.54612
G1 X110.680 Y83.843 E0.01694
G1 X97.907 Y71.070 E0.57007
G1 X97.370 Y71.070 E0.01694
G1 X110.680 Y84.380 E0.59403
G1 X110.680 Y84.917 E0.01694
G1 X96.833 Y71.070 E0.61798
G1 X96.297 Y71.070 E0.01694
G1 X110.680 Y85.453 E0.64194
G1 X110.680 Y85.990 E0.01694
G1 X95.760 Y71.070 E0.66589
M73 P6 R15
G1 X95.223 Y71.070 E0.01694
G1 X110.680 Y86.527 E0.68985
G1 X110.680 Y87.064 E0.01694
G1 X94.686 Y71.070 E0.71380
G1 X94.150 Y71.070 E0.01694
G1 X110.680 Y87.600 E0.73776
G1 X110.680 Y88.137 E0.01694
G1 X93.613 Y71.070 E0.76171
G1 X93.076 Y71.070 E0.01694
G1 X110.680 Y88.674 E0.78567
G1 X110.680 Y89.210 E0.01694
G1 X92.540 Y71.070 E0.80962
G1 X92.003 Y71.070 E0.01694
G1 X110.680 Y89.747 E0.83358
G1 X110.680 Y90.284 E0.01694
G1 X91.466 Y71.070 E0.85753
M73 P7 R15
G1 X90.929 Y71.070 E0.01694
G1 X110.680 Y90.821 E0.88149
G1 X110.680 Y91.357 E0.01694
G1 X90.393 Y71.070 E0.90544
G1 X89.856 Y71.070 E0.01694
G1 X110.680 Y91.894 E0.92939
G1 X110.680 Y92.431 E0.01694
G1 X89.319 Y71.070 E0.95335
G1 X88.782 Y71.070 E0.01694
G1 X110.680 Y92.968 E0.97730
G1 X110.680 Y93.504 E0.01694
G1 X88.246 Y71.070 E1.00126
M73 P8 R15
G1 X87.709 Y71.070 E0.01694
G1 X110.680 Y94.041 E1.02521
G1 X110.680 Y94.578 E0.01694
G1 X87.172 Y71.070 E1.04917
G1 X86.635 Y71.070 E0.01694
G1 X110.680 Y95.115 E1.07312
G1 X110.680 Y95.651 E0.01694
G1 X86.099 Y71.070 E1.09708
G1 X85.562 Y71.070 E0.01694
G1 X110.680 Y96.188 E1.12103
G1 X110.680 Y96.725 E0.01694
G1 X85.025 Y71.070 E1.14499
M73 P9 R15
G1 X84.488 Y71.070 E0.01694
G1 X110.680 Y97.262 E1.16894
G1 X110.680 Y97.798 E0.01694
G1 X83.952 Y71.070 E1.19290
G1 X83.415 Y71.070 E0.01694
G1 X110.680 Y98.335 E1.21685
G1 X110.680 Y98.872 E0.01694
G1 X82.878 Y71.070 E1.24081
G1 X82.341 Y71.070 E0.01694
G1 X110.680 Y99.409 E1.26476
M73 P10 R15
G1 X110.680 Y99.945 E0.01694
G1 X81.805 Y71.070 E1.28872
G1 X81.268 Y71.070 E0.01694
G1 X110.680 Y100.482 E1.31267
G1 X110.680 Y101.019 E0.01694
G1 X80.731 Y71.070 E1.33663
G1 X80.194 Y71.070 E0.01694
G1 X110.680 Y101.556 E1.36058
G1 X110.680 Y102.092 E0.01694
G1 X79.658 Y71.070 E1.38454
M73 P11 R14
G1 X79.121 Y71.070 E0.01694
G1 X110.680 Y102.629 E1.40849
G1 X110.680 Y103.166 E0.01694
G1 X78.584 Y71.070 E1.43245
G1 X78.047 Y71.070 E0.01694
G1 X110.680 Y103.703 E1.45640
G1 X110.680 Y104.239 E0.01694
G1 X77.511 Y71.070 E1.48036
M73 P12 R14
G1 X76.974 Y71.070 E0.01694
G1 X110.680 Y104.776 E1.50431
G1 X110.680 Y105.313 E0.01694
G1 X76.437 Y71.070 E1.52827
G1 X75.901 Y71.070 E0.01694
G1 X110.680 Y105.849 E1.55222
G1 X110.680 Y106.386 E0.01694
G1 X75.364 Y71.070 E1.57618
M73 P13 R14
G1 X74.827 Y71.070 E0.01694
G1 X110.680 Y106.923 E1.60013
G1 X110.680 Y107.460 E0.01694
G1 X74.290 Y71.070 E1.62409
G1 X73.754 Y71.070 E0.01694
G1 X110.680 Y107.996 E1.64804
G1 X110.680 Y108.533 E0.01694
G1 X73.217 Y71.070 E1.67200
M73 P14 R14
G1 X72.680 Y71.070 E0.01694
G1 X110.540 Y108.930 E1.68971
G1 X110.004 Y108.930 E0.01694
G1 X72.143 Y71.070 E1.68971
G1 X71.607 Y71.070 E0.01694
G1 X109.467 Y108.930 E1.68971
M73 P15 R14
G1 X108.930 Y108.930 E0.01694
G1 X71.070 Y71.070 E1.68971
G1 X70.533 Y71.070 E0.01694
G1 X108.393 Y108.930 E1.68971
G1 X107.857 Y108.930 E0.01694
G1 X69.996 Y71.070 E1.68971
G1 X69.460 Y71.070 E0.01694
G1 X107.320 Y108.930 E1.68971
M73 P16 R14
G1 X106.783 Y108.930 E0.01694
G1 X69.320 Y71.467 E1.67200
G1 X69.320 Y72.004 E0.01694
G1 X106.246 Y108.930 E1.64804
G1 X105.710 Y108.930 E0.01694
G1 X69.320 Y72.540 E1.62409
M73 P17 R14
G1 X69.320 Y73.077 E0.01694
G1 X105.173 Y108.930 E1.60013
G1 X104.636 Y108.930 E0.01694
G1 X69.320 Y73.614 E1.57618
M73 P17 R13
G1 X69.320 Y74.151 E0.01694
G1 X104.099 Y108.930 E1.55222
G1 X103.563 Y108.930 E0.01694
G1 X69.320 Y74.687 E1.52827
M73 P18 R13
G1 X69.320 Y75.224 E0.01694
G1 X103.026 Y108.930 E1.50431
G1 X102.489 Y108.930 E0.01694
G1 X69.320 Y75.761 E1.48036
G1 X69.320 Y76.298 E0.01694
G1 X101.952 Y108.930 E1.45640
G1 X101.416 Y108.930 E0.01694
G1 X69.320 Y76.834 E1.43245
G1 X69.320 Y77.371 E0.01694
G1 X100.879 Y108.930 E1.40849
M73 P19 R13
G1 X100.342 Y108.930 E0.01694
G1 X69.320 Y77.908 E1.38454
G1 X69.320 Y78.445 E0.01694
G1 X99.805 Y108.930 E1.36058
G1 X99.269 Y108.930 E0.01694
G1 X69.320 Y78.981 E1.33663
G1 X69.320 Y79.518 E0.01694
G1 X98.732 Y108.930 E1.31267
M73 P20 R13
G1 X98.195 Y108.930 E0.01694
G1 X69.320 Y80.055 E1.28872
G1 X69.320 Y80.591 E0.01694
G1 X97.658 Y108.930 E1.26476
G1 X97.122 Y108.930 E0.01694
G1 X69.320 Y81.128 E1.24081
G1 X69.320 Y81.665 E0.01694
G1 X96.585 Y108.930 E1.21685
G1 X96.048 Y108.930 E0.01694
G1 X69.320 Y82.202 E1.19290
M73 P21 R13
G1 X69.320 Y82.738 E0.01694
G1 X95.512 Y108.930 E1.16894
G1 X94.975 Y108.930 E0.01694
G1 X69.320 Y83.275 E1.14499
G1 X69.320 Y83.812 E0.01694
G1 X94.438 Y108.930 E1.12103
G1 X93.901 Y108.930 E0.01694
G1 X69.320 Y84.349 E1.09708
G1 X69.320 Y84.885 E0.01694
G1 X93.365 Y108.930 E1.07312
M73 P22 R13
G1 X92.828 Y108.930 E0.01694
G1 X69.320 Y85.422 E1.04917
G1 X69.320 Y85.959 E0.01694
G1 X92.291 Y108.930 E1.02521
G1 X91.754 Y108.930 E0.01694
G1 X69.320 Y86.496 E1.00126
G1 X69.320 Y87.032 E0.01694
G1 X91.218 Y108.930 E0.97730
G1 X90.681 Y108.930 E0.01694
G1 X69.320 Y87.569 E0.95335
G1 X69.320 Y88.106 E0.01694
G1 X90.144 Y108.930 E0.92939
M73 P23 R13
G1 X89.607 Y108.930 E0.01694
G1 X69.320 Y88.643 E0.90544
G1 X69.320 Y89.179 E0.01694
G1 X89.071 Y108.930 E0.88148
G1 X88.534 Y108.930 E0.01694
G1 X69.320 Y89.716 E0.85753
M73 P23 R12
G1 X69.320 Y90.253 E0.01694
G1 X87.997 Y108.930 E0.83357
G1 X87.460 Y108.930 E0.01694
G1 X69.320 Y90.790 E0.80962
G1 X69.320 Y91.326 E0.01694
G1 X86.924 Y108.930 E0.78566
G1 X86.387 Y108.930 E0.01694
G1 X69.320 Y91.863 E0.76171
M73 P24 R12
G1 X69.320 Y92.400 E0.01694
G1 X85.850 Y108.930 E0.73775
G1 X85.313 Y108.930 E0.01694
G1 X69.320 Y92.937 E0.71380
G1 X69.320 Y93.473 E0.01694
G1 X84.777 Y108.930 E0.68984
G1 X84.240 Y108.930 E0.01694
G1 X69.320 Y94.010 E0.66589
G1 X69.320 Y94.547 E0.01694
G1 X83.703 Y108.930 E0.64193
G1 X83.166 Y108.930 E0.01694
G1 X69.320 Y95.084 E0.61798
G1 X69.320 Y95.620 E0.01694
G1 X82.630 Y108.930 E0.59402
G1 X82.093 Y108.930 E0.01694
G1 X69.320 Y96.157 E0.57007
G1 X69.320 Y96.694 E0.01694
G1 X81.556 Y108.930 E0.54611
G1 X81.019 Y108.930 E0.01694
M73 P25 R12
G1 X69.320 Y97.231 E0.52216
G1 X69.320 Y97.767 E0.01694
G1 X80.483 Y108.930 E0.49820
G1 X79.946 Y108.930 E0.01694
G1 X69.320 Y98.304 E0.47425
G1 X69.320 Y98.841 E0.01694
G1 X79.409 Y108.930 E0.45029
G1 X78.873 Y108.930 E0.01694
G1 X69.320 Y99.377 E0.42634
G1 X69.320 Y99.914 E0.01694
G1 X78.336 Y108.930 E0.40238
G1 X77.799 Y108.930 E0.01694
G1 X69.320 Y100.451 E0.37843
G1 X69.320 Y100.988 E0.01694
G1 X77.262 Y108.930 E0.35447
G1 X76.726 Y108.930 E0.01694
G1 X69.320 Y101.524 E0.33052
G1 X69.320 Y102.061 E0.01694
G1 X76.189 Y108.930 E0.30656
G1 X75.652 Y108.930 E0.01694
G1 X69.320 Y102.598 E0.28261
G1 X69.320 Y103.135 E0.01694
G1 X75.115 Y108.930 E0.25865
G1 X74.579 Y108.930 E0.01694
G1 X69.320 Y103.671 E0.23470
G1 X69.320 Y104.208 E0.01694
G1 X74.042 Y108.930 E0.21074
G1 X73.505 Y108.930 E0.01694
G1 X69.320 Y104.745 E0.18679
G1 X69.320 Y105.282 E0.01694
G1 X72.968 Y108.930 E0.16283
G1 X72.432 Y108.930 E0.01694
G1 X69.320 Y105.818 E0.13888
G1 X69.320 Y106.355 E0.01694
G1 X71.895 Y108.930 E0.11492
M73 P26 R12
G1 X71.358 Y108.930 E0.01694
G1 X69.320 Y106.892 E0.09097
G1 X69.320 Y107.429 E0.01694
G1 X70.821 Y108.930 E0.06701
G1 X70.285 Y108.930 E0.01694
G1 X69.320 Y107.965 E0.04306
G1 X69.320 Y108.502 E0.01694
G1 X69.918 Y109.100 E0.02668
M204 S1250
; stop printing object road_blocker rev_4_pcb.stl id:0 copy 0
M106 S84.15
;LAYER_CHANGE
;Z:0.35
;HEIGHT:0.15
;BEFORE_LAYER_CHANGE
G92 E0.0
;0.35


G1 E-2.24000 F4200.000
;WIPE_START
G1 F7200.000
G1 X69.320 Y108.502 E-0.46844
G1 X69.320 Y107.965 E-0.29744
G1 X69.506 Y108.152 E-0.14612
;WIPE_END
G1 E-0.04800 F4200.000
G1 Z0.400 F9000.000
;AFTER_LAYER_CHANGE
;0.35
M104 S210 ; set temperature
G1 X67.323 Y112.189
G1 Z0.350
G1 E3.20000 F2400.000
;TYPE:Skirt
;WIDTH:0.42
G1 X66.548 Y111.660 E0.02270
G1 X66.056 Y110.914 E0.02161
G1 X65.873 Y110.039 E0.02161
G1 X65.873 Y69.996 E0.96843
G1 X66.061 Y69.073 E0.02279
G1 X66.590 Y68.298 E0.02270
G1 X67.340 Y67.804 E0.02170
G1 X68.215 Y67.623 E0.02161
G1 X111.754 Y67.623 E1.05299
G1 X112.642 Y67.797 E0.02188
G1 X113.401 Y68.289 E0.02188
G1 X113.920 Y69.030 E0.02188
G1 X114.125 Y69.911 E0.02188
G1 X114.127 Y110.042 E0.97055
G1 X113.933 Y110.941 E0.02224
G1 X113.410 Y111.702 E0.02233
G1 X112.660 Y112.196 E0.02170
G1 X111.785 Y112.377 E0.02161
G1 X68.246 Y112.377 E1.05299
G1 X67.382 Y112.201 E0.02134
; printing object road_blocker rev_4_pcb.stl id:0 copy 0
G1 E-2.24000 F4200.000
;WIPE_START
G1 F7200.000
G1 X66.548 Y111.660 E-0.55085
G1 X66.189 Y111.116 E-0.36115
;WIPE_END
G1 E-0.04800 F4200.000
G1 Z0.550 F9000.000
G1 X68.893 Y109.357
G1 Z0.350
G1 E3.20000 F2400.000
M204 S800
;TYPE:Perimeter
;WIDTH:0.45
G1 F3000.000
G1 X68.893 Y70.643 E1.00873
G1 X111.107 Y70.643 E1.09993
G1 X111.107 Y109.357 E1.00873
G1 X68.953 Y109.357 E1.09836
M204 S1250
G1 X68.475 Y109.775 F9000.000
M204 S800
;TYPE:External perimeter
G1 F2400.000
G1 X68.475 Y70.225 E1.03051
M73 P27 R12
G1 X111.525 Y70.225 E1.12170
G1 X111.525 Y109.775 E1.03051
G1 X68.535 Y109.775 E1.12014
M204 S1250
G1 X68.584 Y109.390 F9000.000
G1 E-2.24000 F4200.000
;WIPE_START
G1 F7200.000
G1 X68.533 Y108.129 E-0.91200
;WIPE_END
G1 E-0.04800 F4200.000
G1 Z0.550 F9000.000
G1 X110.982 Y108.386
G1 Z0.350
G1 E3.20000 F2400.000
M204 S1000
;TYPE:Solid infill
;WIDTH:0.450791
G1 F8400.000
G1 X110.324 Y109.044 E0.02430
G1 X109.732 Y109.044 E0.01545
G1 X110.794 Y107.982 E0.03922
G1 X110.794 Y107.390 E0.01545
G1 X109.140 Y109.044 E0.06107
G1 X108.548 Y109.044 E0.01545
G1 X110.794 Y106.798 E0.08293
G1 X110.794 Y106.206 E0.01545
G1 X107.956 Y109.044 E0.10478
G1 X107.364 Y109.044 E0.01545
G1 X110.794 Y105.614 E0.12664
G1 X110.794 Y105.022 E0.01545
G1 X106.772 Y109.044 E0.14849
G1 X106.180 Y109.044 E0.01545
G1 X110.794 Y104.430 E0.17035
G1 X110.794 Y103.838 E0.01545
G1 X105.588 Y109.044 E0.19220
G1 X104.996 Y109.044 E0.01545
G1 X110.794 Y103.246 E0.21406
G1 X110.794 Y102.654 E0.01545
G1 X104.404 Y109.044 E0.23591
G1 X103.812 Y109.044 E0.01545
G1 X110.794 Y102.062 E0.25777
G1 X110.794 Y101.470 E0.01545
G1 X103.220 Y109.044 E0.27962
G1 X102.628 Y109.044 E0.01545
G1 X110.794 Y100.878 E0.30148
G1 X110.794 Y100.286 E0.01545
G1 X102.036 Y109.044 E0.32333
G1 X101.444 Y109.044 E0.01545
G1 X110.794 Y99.694 E0.34519
G1 X110.794 Y99.102 E0.01545
G1 X100.852 Y109.044 E0.36704
G1 X100.260 Y109.044 E0.01545
G1 X110.794 Y98.510 E0.38890
G1 X110.794 Y97.918 E0.01545
G1 X99.668 Y109.044 E0.41076
G1 X99.076 Y109.044 E0.01545
G1 X110.794 Y97.326 E0.43261
G1 X110.794 Y96.734 E0.01545
G1 X98.484 Y109.044 E0.45447
G1 X97.892 Y109.044 E0.01545
G1 X110.794 Y96.142 E0.47632
G1 X110.794 Y95.550 E0.01545
G1 X97.300 Y109.044 E0.49818
G1 X96.708 Y109.044 E0.01545
G1 X110.794 Y94.958 E0.52003
G1 X110.794 Y94.366 E0.01545
G1 X96.116 Y109.044 E0.54189
M73 P28 R12
G1 X95.524 Y109.044 E0.01545
G1 X110.794 Y93.774 E0.56374
G1 X110.794 Y93.182 E0.01545
G1 X94.932 Y109.044 E0.58560
G1 X94.340 Y109.044 E0.01545
G1 X110.794 Y92.590 E0.60745
G1 X110.794 Y91.998 E0.01545
G1 X93.748 Y109.044 E0.62931
G1 X93.156 Y109.044 E0.01545
G1 X110.794 Y91.406 E0.65116
G1 X110.794 Y90.814 E0.01545
G1 X92.564 Y109.044 E0.67302
G1 X91.972 Y109.044 E0.01545
G1 X110.794 Y90.222 E0.69487
G1 X110.794 Y89.630 E0.01545
G1 X91.380 Y109.044 E0.71673
G1 X90.788 Y109.044 E0.01545
G1 X110.794 Y89.038 E0.73858
G1 X110.794 Y88.446 E0.01545
G1 X90.196 Y109.044 E0.76044
G1 X89.604 Y109.044 E0.01545
G1 X110.794 Y87.854 E0.78229
G1 X110.794 Y87.262 E0.01545
G1 X89.012 Y109.044 E0.80415
