; generated by PrusaSlicer 2.3.3+win64 on 2021-11-13 at 16:59:09 UTC


;
;

;
;
; 

; external perimeters extrusion width = 0.45mm
; perimeters extrusion width = 0.45mm
; infill extrusion width = 0.45mm
; solid infill extrusion width = 0.45mm
; top infill extrusion width = 0.40mm
; first layer extrusion width = 0.42mm

M73 P0 R70
M201 X1250 Y1250 Z400 E5000 ; sets maximum accelerations, mm/sec^2
M203 X180 Y180 Z12 E80 ; sets maximum feedrates, mm/sec
M204 P1250 R1250 T1250 ; sets acceleration (P, T) and retract acceleration (R), mm/sec^2
M205 X8.00 Y8.00 Z2.00 E10.00 ; sets the jerk limits, mm/sec
M205 S0 T0 ; sets the minimum extruding and travel feed rate, mm/sec
M107
;TYPE:Custom
G90 ; use absolute coordinates
M83 ; extruder relative mode
M104 S170 ; set extruder temp for bed leveling
M140 S60 ; set bed temp
M109 R170 ; wait for bed leveling temp
M190 S60 ; wait for bed temp
G28 ; home all without mesh bed level
G29 ; mesh bed leveling 
M104 S215 ; set extruder temp
G92 E0.0
G1 Y-2.0 X179 F2400
G1 Z3 F720
M109 S215 ; wait for extruder temp

; intro line
G1 X170 F1000
G1 Z0.2 F720
G1 X110.0 E8.0 F900
G1 X40.0 E10.0 F700
G92 E0.0

M221 S95 ; set flow
G21 ; set units to millimeters
G90 ; use absolute coordinates
M83 ; use relative distances for extrusion
M900 K0.2 ; Filament gcode LA 1.5
; ; Filament gcode LA 1.0
;LAYER_CHANGE
;Z:0.2
;HEIGHT:0.2
;BEFORE_LAYER_CHANGE
G92 E0.0
;0.2


G1 E-3.20000 F4200.000
G1 Z0.200 F9000.000
;AFTER_LAYER_CHANGE
;0.2
G1 Z0.400
G1 X39.265 Y52.740
G1 Z0.200
G1 E3.20000 F2400.000
M204 S800
;TYPE:Skirt
;WIDTH:0.42
G1 F1200.000
G1 X39.991 Y52.623 E0.02308
G1 X140.004 Y52.623 E3.13582
G1 X140.902 Y52.801 E0.02872
G1 X141.667 Y53.305 E0.02872
G1 X142.184 Y54.062 E0.02872
M73 P0 R69
G1 X142.377 Y54.957 E0.02872
G1 X142.377 Y125.030 E2.19710
G1 X142.306 Y125.577 E0.01728
G1 X142.111 Y126.092 E0.01728
G1 X141.803 Y126.549 E0.01728
G1 X141.395 Y126.925 E0.01740
G1 X140.735 Y127.260 E0.02319
G1 X140.009 Y127.377 E0.02308
G1 X39.989 Y127.377 E3.13606
G1 X39.434 Y127.309 E0.01752
G1 X38.914 Y127.115 E0.01740
G1 X38.451 Y126.803 E0.01752
G1 X38.075 Y126.395 E0.01740
G1 X37.742 Y125.743 E0.02296
G1 X37.623 Y125.016 E0.02308
G1 X37.623 Y54.981 E2.19591
G1 X37.692 Y54.430 E0.01740
G1 X37.887 Y53.911 E0.01740
G1 X38.197 Y53.451 E0.01740
G1 X38.605 Y53.075 E0.01740
G1 X39.211 Y52.767 E0.02131
M204 S1250
; printing object road_blocker rev_4_pcb_cover_Sagi.stl id:0 copy 0
G1 E-2.24000 F4200.000
;WIPE_START
G1 F7200.000
G1 X39.991 Y52.623 E-0.43962
G1 X40.844 Y52.623 E-0.47238
;WIPE_END
G1 E-0.04800 F4200.000
G1 Z0.400 F9000.000
G1 X103.572 Y73.157
G1 Z0.200
G1 E3.20000 F2400.000
M204 S800
;TYPE:Perimeter
G1 F1200.000
G1 X103.716 Y72.713 E0.01464
G1 X103.891 Y72.280 E0.01464
G1 X104.095 Y71.860 E0.01464
G1 X104.329 Y71.456 E0.01464
G1 X104.590 Y71.069 E0.01464
G1 X104.877 Y70.701 E0.01464
G1 X105.189 Y70.354 E0.01464
G1 X105.525 Y70.030 E0.01464
G1 X105.883 Y69.730 E0.01464
G1 X106.260 Y69.456 E0.01464
G1 X106.632 Y69.224 E0.01373
G1 X107.067 Y68.990 E0.01550
G1 X107.495 Y68.799 E0.01467
G1 X107.906 Y68.650 E0.01373
G1 X108.381 Y68.511 E0.01550
G1 X108.839 Y68.414 E0.01467
G1 X109.301 Y68.349 E0.01464
G1 X109.767 Y68.317 E0.01464
G1 X110.233 Y68.317 E0.01464
G1 X110.699 Y68.349 E0.01464
G1 X111.161 Y68.414 E0.01464
G1 X111.618 Y68.511 E0.01464
G1 X112.067 Y68.640 E0.01464
G1 X112.505 Y68.799 E0.01464
G1 X112.932 Y68.989 E0.01464
G1 X113.344 Y69.208 E0.01464
G1 X113.740 Y69.456 E0.01464
G1 X114.094 Y69.713 E0.01373
G1 X114.474 Y70.029 E0.01550
G1 X114.811 Y70.354 E0.01467
G1 X115.123 Y70.701 E0.01464
G1 X115.410 Y71.069 E0.01464
G1 X115.671 Y71.456 E0.01464
G1 X115.905 Y71.860 E0.01464
G1 X116.109 Y72.280 E0.01464
G1 X116.284 Y72.713 E0.01464
G1 X116.428 Y73.157 E0.01464
G1 X116.541 Y73.610 E0.01464
G1 X116.623 Y74.070 E0.01467
G1 X116.672 Y74.562 E0.01550
G1 X116.688 Y75.000 E0.01373
G1 X116.671 Y75.467 E0.01464
G1 X116.622 Y75.931 E0.01464
G1 X116.541 Y76.390 E0.01464
G1 X116.428 Y76.843 E0.01464
G1 X116.284 Y77.288 E0.01467
G1 X116.097 Y77.746 E0.01550
G1 X115.905 Y78.140 E0.01373
G1 X115.671 Y78.544 E0.01464
G1 X115.410 Y78.931 E0.01464
G1 X115.123 Y79.299 E0.01464
G1 X114.811 Y79.646 E0.01464
G1 X114.475 Y79.970 E0.01464
G1 X114.117 Y80.270 E0.01464
G1 X113.740 Y80.544 E0.01464
G1 X113.344 Y80.792 E0.01464
G1 X112.932 Y81.011 E0.01464
G1 X112.532 Y81.189 E0.01373
G1 X112.068 Y81.360 E0.01550
G1 X111.618 Y81.489 E0.01467
G1 X111.161 Y81.586 E0.01464
G1 X110.699 Y81.651 E0.01464
G1 X110.233 Y81.683 E0.01464
G1 X109.767 Y81.683 E0.01464
G1 X109.301 Y81.651 E0.01464
G1 X108.839 Y81.586 E0.01464
G1 X108.382 Y81.489 E0.01464
G1 X107.961 Y81.368 E0.01373
G1 X107.496 Y81.201 E0.01550
G1 X107.068 Y81.011 E0.01467
G1 X106.656 Y80.792 E0.01464
G1 X106.260 Y80.544 E0.01464
G1 X105.906 Y80.287 E0.01373
G1 X105.526 Y79.971 E0.01550
G1 X105.189 Y79.646 E0.01467
G1 X104.877 Y79.299 E0.01464
G1 X104.590 Y78.931 E0.01464
G1 X104.329 Y78.544 E0.01464
G1 X104.095 Y78.140 E0.01464
G1 X103.891 Y77.720 E0.01464
G1 X103.716 Y77.287 E0.01464
G1 X103.572 Y76.843 E0.01464
G1 X103.459 Y76.390 E0.01464
G1 X103.377 Y75.930 E0.01467
G1 X103.328 Y75.438 E0.01550
G1 X103.312 Y75.000 E0.01373
G1 X103.329 Y74.533 E0.01464
G1 X103.378 Y74.069 E0.01464
G1 X103.459 Y73.610 E0.01464
G1 X103.557 Y73.215 E0.01275
M204 S1250
G1 X103.923 Y73.306 F9000.000
M204 S800
;TYPE:External perimeter
G1 F1200.000
G1 X104.070 Y72.842 E0.01528
G1 X104.235 Y72.433 E0.01381
G1 X104.428 Y72.038 E0.01381
G1 X104.649 Y71.656 E0.01381
G1 X104.895 Y71.291 E0.01381
G1 X105.166 Y70.944 E0.01381
G1 X105.461 Y70.617 E0.01381
G1 X105.778 Y70.311 E0.01381
G1 X106.115 Y70.027 E0.01381
G1 X106.471 Y69.769 E0.01381
G1 X106.821 Y69.550 E0.01293
G1 X107.233 Y69.329 E0.01467
G1 X107.636 Y69.149 E0.01382
G1 X108.024 Y69.008 E0.01293
G1 X108.473 Y68.877 E0.01467
G1 X108.904 Y68.786 E0.01382
G1 X109.340 Y68.724 E0.01381
G1 X109.780 Y68.694 E0.01381
G1 X110.220 Y68.694 E0.01381
G1 X110.660 Y68.724 E0.01381
G1 X111.096 Y68.786 E0.01381
G1 X111.527 Y68.877 E0.01381
G1 X111.950 Y68.999 E0.01381
G1 X112.364 Y69.149 E0.01381
G1 X112.766 Y69.328 E0.01381
G1 X113.155 Y69.535 E0.01381
G1 X113.529 Y69.769 E0.01381
G1 X113.862 Y70.011 E0.01293
G1 X114.222 Y70.310 E0.01467
G1 X114.539 Y70.617 E0.01382
G1 X114.834 Y70.944 E0.01381
G1 X115.105 Y71.291 E0.01381
G1 X115.351 Y71.656 E0.01381
G1 X115.572 Y72.038 E0.01381
G1 X115.765 Y72.433 E0.01381
G1 X115.930 Y72.842 E0.01381
G1 X116.066 Y73.261 E0.01381
G1 X116.172 Y73.688 E0.01381
G1 X116.249 Y74.122 E0.01382
G1 X116.296 Y74.588 E0.01467
G1 X116.310 Y75.000 E0.01293
G1 X116.295 Y75.440 E0.01381
G1 X116.249 Y75.878 E0.01381
G1 X116.172 Y76.312 E0.01381
G1 X116.066 Y76.739 E0.01381
G1 X115.930 Y77.159 E0.01382
G1 X115.752 Y77.592 E0.01467
G1 X115.572 Y77.962 E0.01293
G1 X115.351 Y78.344 E0.01381
G1 X115.105 Y78.709 E0.01381
G1 X114.834 Y79.056 E0.01381
G1 X114.539 Y79.383 E0.01381
G1 X114.222 Y79.689 E0.01381
G1 X113.885 Y79.973 E0.01381
G1 X113.529 Y80.231 E0.01381
G1 X113.155 Y80.465 E0.01381
G1 X112.766 Y80.672 E0.01381
G1 X112.389 Y80.839 E0.01293
G1 X111.950 Y81.001 E0.01467
G1 X111.527 Y81.123 E0.01382
G1 X111.096 Y81.214 E0.01381
G1 X110.660 Y81.276 E0.01381
G1 X110.220 Y81.306 E0.01381
G1 X109.780 Y81.306 E0.01381
G1 X109.340 Y81.276 E0.01381
G1 X108.904 Y81.214 E0.01381
G1 X108.473 Y81.123 E0.01381
G1 X108.077 Y81.009 E0.01293
G1 X107.637 Y80.851 E0.01467
G1 X107.234 Y80.672 E0.01382
G1 X106.845 Y80.465 E0.01381
G1 X106.471 Y80.231 E0.01381
G1 X106.138 Y79.989 E0.01293
G1 X105.778 Y79.690 E0.01467
G1 X105.461 Y79.383 E0.01382
G1 X105.166 Y79.056 E0.01381
G1 X104.895 Y78.709 E0.01381
G1 X104.649 Y78.344 E0.01381
G1 X104.428 Y77.962 E0.01381
G1 X104.235 Y77.567 E0.01381
G1 X104.070 Y77.158 E0.01381
G1 X103.934 Y76.739 E0.01381
G1 X103.828 Y76.312 E0.01381
G1 X103.751 Y75.878 E0.01382
G1 X103.704 Y75.412 E0.01467
G1 X103.690 Y75.000 E0.01293
G1 X103.705 Y74.560 E0.01381
G1 X103.751 Y74.122 E0.01381
G1 X103.828 Y73.688 E0.01381
G1 X103.908 Y73.364 E0.01046
M204 S1250
G1 X103.644 Y73.020 F9000.000
G1 E-2.24000 F4200.000
;WIPE_START
G1 F7200.000
G1 X104.070 Y72.842 E-0.30317
G1 X104.235 Y72.433 E-0.24408
G1 X104.428 Y72.038 E-0.24408
G1 X104.537 Y71.849 E-0.12067
;WIPE_END
G1 E-0.04800 F4200.000
G1 Z0.400 F9000.000
G1 X76.672 Y74.562
G1 Z0.200
G1 E3.20000 F2400.000
M204 S800
;TYPE:Perimeter
G1 F1200.000
G1 X76.688 Y75.000 E0.01373
G1 X76.671 Y75.467 E0.01464
G1 X76.622 Y75.931 E0.01464
G1 X76.541 Y76.390 E0.01464
G1 X76.428 Y76.843 E0.01464
G1 X76.284 Y77.287 E0.01464
G1 X76.109 Y77.720 E0.01464
G1 X75.905 Y78.140 E0.01464
G1 X75.671 Y78.545 E0.01467
G1 X75.393 Y78.954 E0.01550
G1 X75.123 Y79.299 E0.01373
G1 X74.811 Y79.646 E0.01464
G1 X74.475 Y79.970 E0.01464
G1 X74.117 Y80.270 E0.01464
G1 X73.740 Y80.544 E0.01464
G1 X73.344 Y80.792 E0.01464
G1 X72.932 Y81.011 E0.01464
G1 X72.505 Y81.201 E0.01464
G1 X72.067 Y81.360 E0.01464
G1 X71.618 Y81.489 E0.01464
G1 X71.161 Y81.586 E0.01464
G1 X70.699 Y81.651 E0.01464
G1 X70.233 Y81.683 E0.01464
G1 X69.767 Y81.683 E0.01464
G1 X69.301 Y81.651 E0.01464
G1 X68.839 Y81.586 E0.01464
G1 X68.382 Y81.489 E0.01464
G1 X67.961 Y81.368 E0.01373
G1 X67.496 Y81.201 E0.01550
G1 X67.068 Y81.011 E0.01467
G1 X66.656 Y80.792 E0.01464
G1 X66.260 Y80.544 E0.01464
G1 X65.906 Y80.287 E0.01373
G1 X65.526 Y79.971 E0.01550
G1 X65.189 Y79.646 E0.01467
G1 X64.877 Y79.299 E0.01464
G1 X64.590 Y78.931 E0.01464
G1 X64.329 Y78.544 E0.01464
G1 X64.095 Y78.140 E0.01464
G1 X63.891 Y77.720 E0.01464
G1 X63.716 Y77.287 E0.01464
G1 X63.572 Y76.843 E0.01464
G1 X63.459 Y76.390 E0.01464
G1 X63.377 Y75.930 E0.01467
G1 X63.328 Y75.438 E0.01550
G1 X63.312 Y75.000 E0.01373
G1 X63.329 Y74.533 E0.01464
G1 X63.378 Y74.068 E0.01467
G1 X63.466 Y73.582 E0.01550
G1 X63.572 Y73.157 E0.01373
G1 X63.716 Y72.712 E0.01467
G1 X63.903 Y72.254 E0.01550
G1 X64.095 Y71.860 E0.01373
G1 X64.329 Y71.455 E0.01467
G1 X64.607 Y71.046 E0.01550
G1 X64.877 Y70.701 E0.01373
G1 X65.189 Y70.354 E0.01464
G1 X65.525 Y70.030 E0.01464
G1 X65.883 Y69.730 E0.01464
G1 X66.260 Y69.456 E0.01464
G1 X66.656 Y69.208 E0.01464
G1 X67.068 Y68.989 E0.01464
G1 X67.495 Y68.799 E0.01464
G1 X67.933 Y68.640 E0.01464
G1 X68.382 Y68.511 E0.01464
G1 X68.839 Y68.414 E0.01464
G1 X69.301 Y68.349 E0.01464
G1 X69.767 Y68.317 E0.01464
G1 X70.233 Y68.317 E0.01464
G1 X70.699 Y68.349 E0.01464
G1 X71.161 Y68.414 E0.01464
G1 X71.618 Y68.511 E0.01464
G1 X72.067 Y68.640 E0.01464
G1 X72.505 Y68.799 E0.01464
G1 X72.932 Y68.989 E0.01464
G1 X73.344 Y69.208 E0.01464
G1 X73.740 Y69.456 E0.01464
G1 X74.094 Y69.713 E0.01373
G1 X74.474 Y70.029 E0.01550
G1 X74.811 Y70.354 E0.01467
G1 X75.123 Y70.701 E0.01464
G1 X75.410 Y71.069 E0.01464
G1 X75.671 Y71.456 E0.01464
G1 X75.905 Y71.860 E0.01464
G1 X76.109 Y72.280 E0.01464
G1 X76.284 Y72.713 E0.01464
G1 X76.428 Y73.157 E0.01464
G1 X76.541 Y73.610 E0.01464
G1 X76.623 Y74.070 E0.01467
G1 X76.666 Y74.503 E0.01362
M204 S1250
G1 X76.291 Y74.540 F9000.000
M204 S800
;TYPE:External perimeter
G1 F1200.000
G1 X76.310 Y75.000 E0.01442
G1 X76.295 Y75.440 E0.01381
G1 X76.249 Y75.878 E0.01381
G1 X76.172 Y76.312 E0.01381
G1 X76.066 Y76.739 E0.01381
G1 X75.930 Y77.158 E0.01381
G1 X75.765 Y77.567 E0.01381
G1 X75.572 Y77.962 E0.01381
M73 P1 R69
G1 X75.351 Y78.344 E0.01382
G1 X75.088 Y78.731 E0.01467
G1 X74.834 Y79.056 E0.01293
G1 X74.539 Y79.383 E0.01381
G1 X74.222 Y79.689 E0.01381
G1 X73.885 Y79.973 E0.01381
G1 X73.529 Y80.231 E0.01381
G1 X73.155 Y80.465 E0.01381
G1 X72.766 Y80.672 E0.01381
G1 X72.364 Y80.851 E0.01381
G1 X71.950 Y81.001 E0.01381
G1 X71.527 Y81.123 E0.01381
G1 X71.096 Y81.214 E0.01381
G1 X70.660 Y81.276 E0.01381
G1 X70.220 Y81.306 E0.01381
G1 X69.780 Y81.306 E0.01381
G1 X69.340 Y81.276 E0.01381
G1 X68.904 Y81.214 E0.01381
G1 X68.473 Y81.123 E0.01381
G1 X68.077 Y81.009 E0.01293
G1 X67.637 Y80.851 E0.01467
G1 X67.234 Y80.672 E0.01382
G1 X66.845 Y80.465 E0.01381
G1 X66.471 Y80.231 E0.01381
G1 X66.138 Y79.989 E0.01293
G1 X65.778 Y79.690 E0.01467
G1 X65.461 Y79.383 E0.01382
G1 X65.166 Y79.056 E0.01381
G1 X64.895 Y78.709 E0.01381
G1 X64.649 Y78.344 E0.01381
G1 X64.428 Y77.962 E0.01381
G1 X64.235 Y77.567 E0.01381
G1 X64.070 Y77.158 E0.01381
G1 X63.934 Y76.739 E0.01381
G1 X63.828 Y76.312 E0.01381
G1 X63.751 Y75.878 E0.01382
G1 X63.704 Y75.412 E0.01467
G1 X63.690 Y75.000 E0.01293
G1 X63.705 Y74.560 E0.01381
G1 X63.751 Y74.121 E0.01382
G1 X63.834 Y73.661 E0.01467
G1 X63.934 Y73.261 E0.01293
G1 X64.070 Y72.841 E0.01382
G1 X64.248 Y72.408 E0.01467
G1 X64.428 Y72.038 E0.01293
G1 X64.649 Y71.656 E0.01382
G1 X64.912 Y71.269 E0.01467
G1 X65.166 Y70.944 E0.01293
G1 X65.461 Y70.617 E0.01381
G1 X65.778 Y70.311 E0.01381
G1 X66.115 Y70.027 E0.01381
G1 X66.471 Y69.769 E0.01381
G1 X66.845 Y69.535 E0.01381
G1 X67.234 Y69.328 E0.01381
G1 X67.636 Y69.149 E0.01381
G1 X68.050 Y68.999 E0.01381
G1 X68.473 Y68.877 E0.01381
G1 X68.904 Y68.786 E0.01381
G1 X69.340 Y68.724 E0.01381
G1 X69.780 Y68.694 E0.01381
G1 X70.220 Y68.694 E0.01381
G1 X70.660 Y68.724 E0.01381
G1 X71.096 Y68.786 E0.01381
G1 X71.527 Y68.877 E0.01381
G1 X71.950 Y68.999 E0.01381
G1 X72.364 Y69.149 E0.01381
G1 X72.766 Y69.328 E0.01381
G1 X73.155 Y69.535 E0.01381
G1 X73.529 Y69.769 E0.01381
G1 X73.862 Y70.011 E0.01293
G1 X74.222 Y70.310 E0.01467
G1 X74.539 Y70.617 E0.01382
G1 X74.834 Y70.944 E0.01381
G1 X75.105 Y71.291 E0.01381
G1 X75.351 Y71.656 E0.01381
G1 X75.572 Y72.038 E0.01381
G1 X75.765 Y72.433 E0.01381
G1 X75.930 Y72.842 E0.01381
G1 X76.066 Y73.261 E0.01381
G1 X76.172 Y73.688 E0.01381
G1 X76.249 Y74.122 E0.01382
G1 X76.285 Y74.481 E0.01130
M204 S1250
G1 X76.651 Y74.714 F9000.000
G1 E-2.24000 F4200.000
;WIPE_START
G1 F7200.000
G1 X76.310 Y75.000 E-0.28810
G1 X76.295 Y75.440 E-0.24408
G1 X76.249 Y75.878 E-0.24408
G1 X76.206 Y76.119 E-0.13574
;WIPE_END
G1 E-0.04800 F4200.000
G1 Z0.400 F9000.000
G1 X40.787 Y55.787
G1 Z0.200
G1 E3.20000 F2400.000
M204 S800
;TYPE:Perimeter
G1 F1200.000
G1 X139.213 Y55.787 E3.08607
G1 X139.213 Y124.213 E2.14544
G1 X40.787 Y124.213 E3.08607
G1 X40.787 Y55.847 E2.14356
M204 S1250
G1 X40.410 Y55.410 F9000.000
M204 S800
;TYPE:External perimeter
G1 F1200.000
G1 X139.590 Y55.410 E3.10972
G1 X139.590 Y124.590 E2.16909
G1 X40.410 Y124.590 E3.10972
G1 X40.410 Y55.470 E2.16721
M204 S1250
G1 X40.802 Y55.491 F9000.000
G1 E-2.24000 F4200.000
;WIPE_START
G1 F7200.000
G1 X42.056 Y55.469 E-0.91200
;WIPE_END
G1 E-0.04800 F4200.000
G1 Z0.400 F9000.000
G1 X138.337 Y55.900
G1 Z0.200
G1 E3.20000 F2400.000
M204 S800
;TYPE:Solid infill
;WIDTH:0.420212
G1 F1200.000
G1 X138.930 Y56.493 E0.02631
G1 X138.930 Y57.027 E0.01674
G1 X137.973 Y56.070 E0.04246
G1 X137.440 Y56.070 E0.01674
G1 X138.930 Y57.560 E0.06613
G1 X138.930 Y58.094 E0.01674
G1 X136.906 Y56.070 E0.08980
G1 X136.372 Y56.070 E0.01674
G1 X138.930 Y58.628 E0.11347
G1 X138.930 Y59.161 E0.01674
G1 X135.839 Y56.070 E0.13715
G1 X135.305 Y56.070 E0.01674
G1 X138.930 Y59.695 E0.16082
G1 X138.930 Y60.228 E0.01674
G1 X134.772 Y56.070 E0.18449
G1 X134.238 Y56.070 E0.01674
G1 X138.930 Y60.762 E0.20816
G1 X138.930 Y61.295 E0.01674
G1 X133.705 Y56.070 E0.23184
M73 P1 R68
G1 X133.171 Y56.070 E0.01674
G1 X138.930 Y61.829 E0.25551
G1 X138.930 Y62.363 E0.01674
G1 X132.637 Y56.070 E0.27918
G1 X132.104 Y56.070 E0.01674
G1 X138.930 Y62.896 E0.30286
G1 X138.930 Y63.430 E0.01674
G1 X131.570 Y56.070 E0.32653
G1 X131.037 Y56.070 E0.01674
G1 X138.930 Y63.963 E0.35020
M73 P2 R68
G1 X138.930 Y64.497 E0.01674
G1 X130.503 Y56.070 E0.37387
G1 X129.970 Y56.070 E0.01674
G1 X138.930 Y65.030 E0.39755
G1 X138.930 Y65.564 E0.01674
G1 X129.436 Y56.070 E0.42122
G1 X128.902 Y56.070 E0.01674
G1 X138.930 Y66.098 E0.44489
G1 X138.930 Y66.631 E0.01674
G1 X128.369 Y56.070 E0.46857
G1 X127.835 Y56.070 E0.01674
G1 X138.930 Y67.165 E0.49224
G1 X138.930 Y67.698 E0.01674
G1 X127.302 Y56.070 E0.51591
G1 X126.768 Y56.070 E0.01674
G1 X138.930 Y68.232 E0.53958
G1 X138.930 Y68.765 E0.01674
G1 X126.235 Y56.070 E0.56326
G1 X125.701 Y56.070 E0.01674
G1 X138.930 Y69.299 E0.58693
G1 X138.930 Y69.833 E0.01674
G1 X125.167 Y56.070 E0.61060
G1 X124.634 Y56.070 E0.01674
G1 X138.930 Y70.366 E0.63427
