; generated by PrusaSlicer 2.3.3+win64 on 2021-10-16 at 06:34:28 UTC


;
;

;
;
; 

; external perimeters extrusion width = 0.45mm
; perimeters extrusion width = 0.45mm
; infill extrusion width = 0.45mm
; solid infill extrusion width = 0.45mm
; top infill extrusion width = 0.40mm
; first layer extrusion width = 0.42mm

M73 P0 R16
M201 X1250 Y1250 Z400 E5000 ; sets maximum accelerations, mm/sec^2
M203 X180 Y180 Z12 E80 ; sets maximum feedrates, mm/sec
M204 P1250 R1250 T1250 ; sets acceleration (P, T) and retract acceleration (R), mm/sec^2
M205 X8.00 Y8.00 Z2.00 E10.00 ; sets the jerk limits, mm/sec
M205 S0 T0 ; sets the minimum extruding and travel feed rate, mm/sec
M107
;TYPE:Custom
G90 ; use absolute coordinates
M83 ; extruder relative mode
M104 S170 ; set extruder temp for bed leveling
M140 S60 ; set bed temp
M109 R170 ; wait for bed leveling temp
M190 S60 ; wait for bed temp
G28 ; home all without mesh bed level
G29 ; mesh bed leveling 
M104 S215 ; set extruder temp
G92 E0.0
G1 Y-2.0 X179 F2400
M73 P0 R15
G1 Z3 F720
M109 S215 ; wait for extruder temp

; intro line
G1 X170 F1000
G1 Z0.2 F720
G1 X110.0 E8.0 F900
M73 P1 R15
G1 X40.0 E10.0 F700
G92 E0.0

M221 S95 ; set flow
G21 ; set units to millimeters
G90 ; use absolute coordinates
M83 ; use relative distances for extrusion
M900 K0.2 ; Filament gcode LA 1.5
; ; Filament gcode LA 1.0
;LAYER_CHANGE
;Z:0.2
;HEIGHT:0.2
;BEFORE_LAYER_CHANGE
G92 E0.0
;0.2


G1 E-3.20000 F4200.000
G1 Z0.200 F9000.000
;AFTER_LAYER_CHANGE
;0.2
G1 Z0.400
G1 X64.239 Y70.248
G1 Z0.200
G1 E3.20000 F2400.000
M204 S800
;TYPE:Skirt
;WIDTH:0.42
G1 F1200.000
G1 X64.980 Y70.123 E0.02355
G1 X115.004 Y70.123 E1.56847
M73 P2 R15
G1 X115.892 Y70.297 E0.02837
G1 X116.653 Y70.792 E0.02849
G1 X117.172 Y71.534 E0.02837
G1 X117.376 Y72.415 E0.02837
G1 X117.376 Y107.561 E1.10197
G1 X117.302 Y108.092 E0.01680
G1 X117.111 Y108.592 E0.01680
G1 X116.813 Y109.038 E0.01680
G1 X116.422 Y109.405 E0.01680
G1 X115.761 Y109.752 E0.02343
G1 X115.020 Y109.877 E0.02355
G1 X64.977 Y109.877 E1.56906
G1 X64.434 Y109.809 E0.01716
G1 X63.925 Y109.620 E0.01704
G1 X63.468 Y109.318 E0.01716
G1 X63.095 Y108.922 E0.01704
G1 X62.749 Y108.264 E0.02331
G1 X62.623 Y107.532 E0.02331
G1 X62.623 Y72.470 E1.09935
G1 X62.692 Y71.930 E0.01704
G1 X62.882 Y71.421 E0.01704
G1 X63.182 Y70.968 E0.01704
G1 X63.578 Y70.595 E0.01704
G1 X64.186 Y70.276 E0.02155
M204 S1250
; printing object Wemos holder.stl id:0 copy 0
G1 E-2.24000 F4200.000
;WIPE_START
G1 F7200.000
G1 X64.980 Y70.123 E-0.44791
G1 X65.817 Y70.123 E-0.46409
;WIPE_END
G1 E-0.04800 F4200.000
G1 Z0.400 F9000.000
G1 X96.671 Y98.664
G1 Z0.200
G1 E3.20000 F2400.000
M204 S800
;TYPE:Perimeter
G1 F1200.000
G1 X83.334 Y98.664 E0.41818
G1 X83.340 Y95.532 E0.09821
G1 X83.166 Y95.649 E0.00658
G1 X82.280 Y96.102 E0.03119
G1 X81.360 Y96.455 E0.03091
G1 X80.408 Y96.710 E0.03090
G1 X79.434 Y96.864 E0.03090
G1 X78.450 Y96.916 E0.03090
G1 X77.466 Y96.864 E0.03090
G1 X76.492 Y96.710 E0.03090
G1 X75.540 Y96.455 E0.03090
G1 X74.620 Y96.102 E0.03090
G1 X73.742 Y95.654 E0.03090
G1 X72.916 Y95.118 E0.03090
G1 X72.150 Y94.497 E0.03090
G1 X71.453 Y93.800 E0.03090
G1 X70.832 Y93.034 E0.03090
G1 X70.296 Y92.208 E0.03090
M73 P3 R15
G1 X69.848 Y91.330 E0.03090
G1 X69.495 Y90.410 E0.03090
G1 X69.240 Y89.458 E0.03090
G1 X69.086 Y88.484 E0.03090
G1 X69.034 Y87.500 E0.03090
G1 X69.086 Y86.516 E0.03090
G1 X69.240 Y85.542 E0.03090
G1 X69.495 Y84.590 E0.03090
G1 X69.848 Y83.670 E0.03090
G1 X70.296 Y82.792 E0.03090
G1 X70.832 Y81.966 E0.03090
G1 X71.453 Y81.200 E0.03090
G1 X72.150 Y80.503 E0.03090
G1 X72.916 Y79.882 E0.03090
G1 X73.657 Y79.401 E0.02771
G1 X74.616 Y78.900 E0.03392
G1 X75.540 Y78.545 E0.03106
G1 X76.492 Y78.290 E0.03090
G1 X77.466 Y78.136 E0.03090
G1 X78.450 Y78.084 E0.03090
G1 X79.434 Y78.136 E0.03090
G1 X80.408 Y78.290 E0.03090
G1 X81.360 Y78.545 E0.03090
G1 X82.280 Y78.898 E0.03090
G1 X83.158 Y79.346 E0.03090
G1 X83.984 Y79.882 E0.03090
G1 X84.750 Y80.503 E0.03090
G1 X85.447 Y81.200 E0.03090
G1 X86.068 Y81.966 E0.03090
G1 X86.604 Y82.792 E0.03090
G1 X87.052 Y83.670 E0.03090
G1 X87.405 Y84.590 E0.03090
G1 X87.660 Y85.542 E0.03090
G1 X87.814 Y86.516 E0.03090
G1 X87.866 Y87.500 E0.03090
G1 X87.814 Y88.484 E0.03090
G1 X87.660 Y89.458 E0.03090
G1 X87.404 Y90.414 E0.03105
G1 X87.035 Y91.346 E0.03143
G1 X92.564 Y91.345 E0.17336
G1 X92.196 Y90.414 E0.03139
G1 X91.940 Y89.458 E0.03105
G1 X91.786 Y88.484 E0.03090
G1 X91.734 Y87.500 E0.03090
G1 X91.786 Y86.516 E0.03090
G1 X91.940 Y85.542 E0.03090
G1 X92.195 Y84.590 E0.03090
G1 X92.548 Y83.670 E0.03090
G1 X92.996 Y82.792 E0.03090
G1 X93.532 Y81.966 E0.03090
G1 X94.153 Y81.200 E0.03090
G1 X94.850 Y80.503 E0.03090
G1 X95.616 Y79.882 E0.03090
G1 X96.442 Y79.346 E0.03090
G1 X97.320 Y78.898 E0.03090
G1 X98.240 Y78.545 E0.03090
G1 X99.192 Y78.290 E0.03090
G1 X100.166 Y78.136 E0.03090
G1 X101.048 Y78.090 E0.02771
G1 X102.129 Y78.135 E0.03392
G1 X103.108 Y78.290 E0.03106
G1 X104.060 Y78.545 E0.03090
G1 X104.980 Y78.898 E0.03090
G1 X105.858 Y79.346 E0.03090
G1 X106.684 Y79.882 E0.03090
G1 X107.450 Y80.503 E0.03090
G1 X108.147 Y81.200 E0.03090
G1 X108.768 Y81.966 E0.03090
G1 X109.304 Y82.792 E0.03090
G1 X109.752 Y83.670 E0.03090
G1 X110.105 Y84.590 E0.03090
G1 X110.360 Y85.542 E0.03090
G1 X110.514 Y86.516 E0.03090
G1 X110.566 Y87.500 E0.03090
G1 X110.514 Y88.484 E0.03090
G1 X110.360 Y89.458 E0.03090
G1 X110.105 Y90.410 E0.03090
G1 X109.752 Y91.330 E0.03090
G1 X109.304 Y92.208 E0.03090
G1 X108.768 Y93.034 E0.03090
G1 X108.147 Y93.800 E0.03090
G1 X107.450 Y94.497 E0.03090
G1 X106.684 Y95.118 E0.03090
G1 X105.858 Y95.654 E0.03090
G1 X105.070 Y96.055 E0.02771
G1 X104.064 Y96.454 E0.03392
G1 X103.108 Y96.710 E0.03106
G1 X102.134 Y96.864 E0.03090
G1 X101.150 Y96.916 E0.03090
G1 X100.166 Y96.864 E0.03090
G1 X99.192 Y96.710 E0.03090
G1 X98.240 Y96.455 E0.03090
G1 X97.319 Y96.101 E0.03095
G1 X96.649 Y95.750 E0.02370
G1 X96.671 Y98.604 E0.08949
M204 S1250
G1 X96.292 Y98.287 F9000.000
M204 S800
G1 F1200.000
G1 X83.712 Y98.287 E0.39443
G1 X83.717 Y95.531 E0.08641
G1 X83.741 Y95.003 E0.01657
G1 X83.778 Y94.728 E0.00870
G1 X83.391 Y95.042 E0.01563
G1 X82.974 Y95.324 E0.01579
G1 X82.126 Y95.757 E0.02984
G1 X81.243 Y96.096 E0.02967
G1 X80.329 Y96.341 E0.02966
G1 X79.395 Y96.489 E0.02966
G1 X78.450 Y96.538 E0.02966
G1 X77.505 Y96.489 E0.02966
G1 X76.571 Y96.341 E0.02966
G1 X75.657 Y96.096 E0.02966
G1 X74.774 Y95.757 E0.02966
G1 X73.931 Y95.327 E0.02966
G1 X73.138 Y94.812 E0.02966
G1 X72.402 Y94.217 E0.02966
G1 X71.733 Y93.548 E0.02966
G1 X71.138 Y92.812 E0.02966
G1 X70.623 Y92.019 E0.02966
G1 X70.193 Y91.176 E0.02966
G1 X69.854 Y90.293 E0.02966
G1 X69.609 Y89.379 E0.02966
G1 X69.461 Y88.445 E0.02966
G1 X69.412 Y87.500 E0.02966
G1 X69.461 Y86.555 E0.02966
G1 X69.609 Y85.621 E0.02966
G1 X69.854 Y84.707 E0.02966
G1 X70.193 Y83.824 E0.02966
G1 X70.623 Y82.981 E0.02966
G1 X71.138 Y82.188 E0.02966
G1 X71.733 Y81.452 E0.02966
G1 X72.402 Y80.783 E0.02966
G1 X73.138 Y80.188 E0.02966
G1 X73.847 Y79.727 E0.02653
G1 X74.771 Y79.244 E0.03268
G1 X75.657 Y78.904 E0.02976
G1 X76.571 Y78.659 E0.02966
G1 X77.505 Y78.511 E0.02966
G1 X78.450 Y78.462 E0.02966
G1 X79.395 Y78.511 E0.02966
G1 X80.329 Y78.659 E0.02966
G1 X81.243 Y78.904 E0.02966
G1 X82.126 Y79.243 E0.02966
G1 X82.969 Y79.673 E0.02966
G1 X83.762 Y80.188 E0.02966
G1 X84.498 Y80.783 E0.02966
G1 X85.167 Y81.452 E0.02966
G1 X85.762 Y82.188 E0.02966
G1 X86.277 Y82.981 E0.02966
G1 X86.707 Y83.824 E0.02966
G1 X87.046 Y84.707 E0.02966
G1 X87.291 Y85.621 E0.02966
G1 X87.439 Y86.555 E0.02966
G1 X87.488 Y87.500 E0.02966
G1 X87.439 Y88.445 E0.02966
G1 X87.291 Y89.379 E0.02966
G1 X87.045 Y90.296 E0.02975
G1 X86.687 Y91.203 E0.03058
G1 X86.396 Y91.654 E0.01682
G1 X86.272 Y91.804 E0.00611
G1 X86.887 Y91.724 E0.01944
G1 X91.722 Y91.713 E0.15160
G1 X92.716 Y91.724 E0.03117
G1 X93.328 Y91.804 E0.01936
G1 X93.204 Y91.654 E0.00611
G1 X92.913 Y91.203 E0.01682
G1 X92.555 Y90.296 E0.03058
G1 X92.309 Y89.379 E0.02975
G1 X92.161 Y88.445 E0.02966
G1 X92.112 Y87.500 E0.02966
G1 X92.161 Y86.555 E0.02966
G1 X92.309 Y85.621 E0.02966
G1 X92.554 Y84.707 E0.02966
G1 X92.893 Y83.824 E0.02966
M73 P4 R15
G1 X93.323 Y82.981 E0.02966
G1 X93.838 Y82.188 E0.02966
G1 X94.433 Y81.452 E0.02966
G1 X95.102 Y80.783 E0.02966
G1 X95.838 Y80.188 E0.02966
G1 X96.631 Y79.673 E0.02966
G1 X97.474 Y79.243 E0.02966
G1 X98.357 Y78.904 E0.02966
G1 X99.271 Y78.659 E0.02966
G1 X100.205 Y78.511 E0.02966
G1 X101.050 Y78.467 E0.02653
G1 X102.092 Y78.511 E0.03268
G1 X103.029 Y78.659 E0.02976
G1 X103.943 Y78.904 E0.02966
G1 X104.826 Y79.243 E0.02966
G1 X105.669 Y79.673 E0.02966
G1 X106.462 Y80.188 E0.02966
G1 X107.198 Y80.783 E0.02966
G1 X107.867 Y81.452 E0.02966
G1 X108.462 Y82.188 E0.02966
G1 X108.977 Y82.981 E0.02966
G1 X109.407 Y83.824 E0.02966
G1 X109.746 Y84.707 E0.02966
G1 X109.991 Y85.621 E0.02966
G1 X110.139 Y86.555 E0.02966
G1 X110.188 Y87.500 E0.02966
G1 X110.139 Y88.445 E0.02966
G1 X109.991 Y89.379 E0.02966
G1 X109.746 Y90.293 E0.02966
G1 X109.407 Y91.176 E0.02966
G1 X108.977 Y92.019 E0.02966
G1 X108.462 Y92.812 E0.02966
G1 X107.867 Y93.548 E0.02966
G1 X107.198 Y94.217 E0.02966
G1 X106.462 Y94.812 E0.02966
G1 X105.669 Y95.327 E0.02966
G1 X104.915 Y95.711 E0.02653
G1 X103.946 Y96.095 E0.03268
G1 X103.029 Y96.341 E0.02976
G1 X102.095 Y96.489 E0.02966
G1 X101.150 Y96.538 E0.02966
G1 X100.205 Y96.489 E0.02966
G1 X99.271 Y96.341 E0.02966
G1 X98.357 Y96.096 E0.02966
G1 X97.473 Y95.756 E0.02969
G1 X97.044 Y95.536 E0.01510
G1 X96.597 Y95.291 E0.01599
G1 X96.210 Y94.961 E0.01595
G1 X96.270 Y95.463 E0.01586
G1 X96.291 Y98.227 E0.08665
M204 S1250
G1 X95.912 Y97.910 F9000.000
M204 S800
;TYPE:External perimeter
G1 F1200.000
G1 X84.090 Y97.910 E0.37067
G1 X84.094 Y95.540 E0.07431
G1 X84.117 Y95.037 E0.01578
G1 X84.186 Y94.531 E0.01603
G1 X84.290 Y94.056 E0.01524
G1 X84.290 Y93.606 E0.01412
G1 X83.814 Y94.068 E0.02080
G1 X83.537 Y94.439 E0.01451
G1 X83.166 Y94.739 E0.01495
G1 X82.782 Y94.999 E0.01456
G1 X81.973 Y95.412 E0.02849
G1 X81.126 Y95.737 E0.02843
G1 X80.251 Y95.971 E0.02842
G1 X79.355 Y96.113 E0.02842
G1 X78.450 Y96.161 E0.02842
G1 X77.545 Y96.113 E0.02842
G1 X76.649 Y95.971 E0.02842
G1 X75.774 Y95.737 E0.02842
G1 X74.927 Y95.412 E0.02842
G1 X74.120 Y95.000 E0.02842
G1 X73.359 Y94.507 E0.02842
G1 X72.655 Y93.936 E0.02842
G1 X72.014 Y93.295 E0.02842
G1 X71.443 Y92.591 E0.02842
G1 X70.950 Y91.830 E0.02842
G1 X70.538 Y91.023 E0.02842
G1 X70.213 Y90.176 E0.02842
G1 X69.979 Y89.301 E0.02842
G1 X69.837 Y88.405 E0.02842
G1 X69.789 Y87.500 E0.02842
G1 X69.837 Y86.595 E0.02842
G1 X69.979 Y85.699 E0.02842
G1 X70.213 Y84.824 E0.02842
G1 X70.538 Y83.977 E0.02842
G1 X70.950 Y83.170 E0.02842
G1 X71.443 Y82.409 E0.02842
G1 X72.014 Y81.705 E0.02842
G1 X72.655 Y81.064 E0.02842
G1 X73.359 Y80.493 E0.02842
G1 X74.038 Y80.053 E0.02535
G1 X74.926 Y79.589 E0.03144
G1 X75.774 Y79.263 E0.02846
G1 X76.649 Y79.029 E0.02842
G1 X77.097 Y78.958 E0.01421
G1 X77.545 Y78.887 E0.01421
G1 X78.450 Y78.839 E0.02842
G1 X79.355 Y78.887 E0.02842
G1 X80.251 Y79.029 E0.02842
G1 X81.126 Y79.263 E0.02842
G1 X81.973 Y79.588 E0.02842
G1 X82.780 Y80.000 E0.02842
G1 X83.541 Y80.493 E0.02842
G1 X84.245 Y81.064 E0.02842
G1 X84.886 Y81.705 E0.02842
G1 X85.457 Y82.409 E0.02842
G1 X85.950 Y83.170 E0.02842
G1 X86.362 Y83.977 E0.02842
G1 X86.687 Y84.824 E0.02842
G1 X86.921 Y85.699 E0.02842
G1 X86.999 Y86.190 E0.01557
G1 X87.063 Y86.595 E0.01286
G1 X87.111 Y87.500 E0.02842
G1 X87.063 Y88.405 E0.02842
G1 X86.921 Y89.301 E0.02842
G1 X86.686 Y90.177 E0.02846
G1 X86.349 Y91.030 E0.02874
G1 X86.091 Y91.431 E0.01496
G1 X85.529 Y92.112 E0.02767
G1 X85.420 Y92.279 E0.00626
G1 X85.933 Y92.290 E0.01608
G1 X86.401 Y92.160 E0.01523
G1 X86.909 Y92.101 E0.01603
G1 X91.720 Y92.090 E0.15085
G1 X92.692 Y92.101 E0.03048
G1 X93.199 Y92.160 E0.01600
G1 X93.667 Y92.290 E0.01523
G1 X94.103 Y92.290 E0.01367
G1 X94.180 Y92.279 E0.00243
G1 X94.071 Y92.112 E0.00626
G1 X93.509 Y91.431 E0.02767
G1 X93.251 Y91.030 E0.01496
G1 X92.914 Y90.177 E0.02874
G1 X92.679 Y89.301 E0.02846
G1 X92.537 Y88.405 E0.02842
G1 X92.489 Y87.500 E0.02842
G1 X92.537 Y86.595 E0.02842
G1 X92.679 Y85.699 E0.02842
G1 X92.913 Y84.824 E0.02842
G1 X93.238 Y83.977 E0.02842
G1 X93.650 Y83.170 E0.02842
G1 X94.143 Y82.409 E0.02842
G1 X94.714 Y81.705 E0.02842
G1 X95.355 Y81.064 E0.02842
G1 X96.059 Y80.493 E0.02842
G1 X96.820 Y80.000 E0.02842
G1 X97.627 Y79.588 E0.02842
G1 X98.474 Y79.263 E0.02842
G1 X99.349 Y79.029 E0.02842
G1 X100.245 Y78.887 E0.02842
G1 X101.052 Y78.845 E0.02535
G1 X102.054 Y78.887 E0.03144
G1 X102.951 Y79.029 E0.02846
G1 X103.826 Y79.263 E0.02842
G1 X104.673 Y79.588 E0.02842
G1 X105.480 Y80.000 E0.02842
G1 X106.241 Y80.493 E0.02842
G1 X106.945 Y81.064 E0.02842
G1 X107.586 Y81.705 E0.02842
G1 X108.157 Y82.409 E0.02842
G1 X108.650 Y83.170 E0.02842
G1 X109.062 Y83.977 E0.02842
G1 X109.387 Y84.824 E0.02842
G1 X109.621 Y85.699 E0.02842
G1 X109.763 Y86.595 E0.02842
G1 X109.811 Y87.500 E0.02842
G1 X109.763 Y88.405 E0.02842
G1 X109.692 Y88.853 E0.01421
G1 X109.621 Y89.301 E0.01421
G1 X109.387 Y90.176 E0.02842
G1 X109.062 Y91.023 E0.02842
G1 X108.650 Y91.830 E0.02842
G1 X108.157 Y92.591 E0.02842
G1 X107.586 Y93.295 E0.02842
G1 X106.945 Y93.936 E0.02842
G1 X106.241 Y94.507 E0.02842
G1 X105.480 Y95.000 E0.02842
G1 X104.760 Y95.367 E0.02535
G1 X103.827 Y95.736 E0.03144
G1 X102.951 Y95.971 E0.02846
G1 X102.055 Y96.113 E0.02842
G1 X101.150 Y96.161 E0.02842
G1 X100.245 Y96.113 E0.02842
G1 X99.349 Y95.971 E0.02842
G1 X98.474 Y95.737 E0.02842
G1 X97.627 Y95.412 E0.02843
G1 X96.812 Y94.979 E0.02892
G1 X96.445 Y94.666 E0.01514
G1 X96.153 Y94.327 E0.01403
G1 X95.850 Y94.080 E0.01226
G1 X95.712 Y94.009 E0.00485
G1 X95.710 Y94.475 E0.01461
G1 X95.831 Y94.963 E0.01575
G1 X95.893 Y95.487 E0.01656
G1 X95.911 Y97.850 E0.07408
M204 S1250
G1 X95.915 Y98.310 F9000.000
G1 E-2.24000 F4200.000
;WIPE_START
G1 F7200.000
G1 X94.265 Y97.858 E-0.91200
;WIPE_END
G1 E-0.04800 F4200.000
G1 Z0.400 F9000.000
M73 P5 R15
G1 X70.505 Y80.275
G1 Z0.200
G1 E3.20000 F2400.000
M204 S800
;TYPE:Perimeter
G1 F1200.000
G1 X70.219 Y80.594 E0.01342
G1 X70.003 Y80.768 E0.00870
G1 X69.633 Y80.982 E0.01342
G1 X69.201 Y81.122 E0.01422
G1 X68.750 Y81.170 E0.01422
G1 X68.299 Y81.122 E0.01422
G1 X67.867 Y80.982 E0.01422
G1 X67.475 Y80.755 E0.01422
G1 X67.138 Y80.452 E0.01422
G1 X66.871 Y80.085 E0.01422
G1 X66.686 Y79.670 E0.01422
G1 X66.597 Y79.252 E0.01342
G1 X66.583 Y78.975 E0.00870
G1 X66.626 Y78.567 E0.01285
G1 X66.708 Y78.278 E0.00942
G1 X66.872 Y77.913 E0.01254
G1 X67.138 Y77.548 E0.01415
G1 X67.475 Y77.245 E0.01422
G1 X67.867 Y77.018 E0.01422
G1 X68.297 Y76.878 E0.01415
G1 X68.694 Y76.835 E0.01254
G1 X68.995 Y76.846 E0.00942
G1 X69.420 Y76.936 E0.01365
G1 X69.835 Y77.121 E0.01422
G1 X70.202 Y77.388 E0.01422
G1 X70.505 Y77.725 E0.01422
G1 X70.732 Y78.117 E0.01422
G1 X70.872 Y78.549 E0.01422
G1 X70.920 Y79.000 E0.01422
G1 X70.872 Y79.451 E0.01422
G1 X70.732 Y79.883 E0.01422
G1 X70.535 Y80.223 E0.01234
M204 S1250
G1 X70.209 Y80.035 F9000.000
M204 S800
G1 F1200.000
G1 X69.959 Y80.319 E0.01188
G1 X69.789 Y80.456 E0.00684
G1 X69.478 Y80.636 E0.01125
G1 X69.122 Y80.751 E0.01174
G1 X68.750 Y80.791 E0.01174
G1 X68.378 Y80.751 E0.01174
G1 X68.022 Y80.636 E0.01174
G1 X67.698 Y80.449 E0.01174
G1 X67.419 Y80.198 E0.01174
G1 X67.199 Y79.895 E0.01174
G1 X67.047 Y79.553 E0.01174
G1 X66.972 Y79.202 E0.01125
G1 X66.961 Y78.985 E0.00684
G1 X66.997 Y78.639 E0.01090
G1 X67.063 Y78.408 E0.00753
G1 X67.200 Y78.104 E0.01046
G1 X67.419 Y77.802 E0.01169
G1 X67.698 Y77.551 E0.01174
G1 X68.022 Y77.364 E0.01174
G1 X68.376 Y77.249 E0.01169
G1 X68.708 Y77.213 E0.01046
G1 X68.948 Y77.222 E0.00753
G1 X69.303 Y77.297 E0.01139
G1 X69.645 Y77.449 E0.01174
G1 X69.948 Y77.669 E0.01174
G1 X70.199 Y77.948 E0.01174
G1 X70.386 Y78.272 E0.01174
G1 X70.501 Y78.628 E0.01174
G1 X70.541 Y79.000 E0.01174
G1 X70.501 Y79.372 E0.01174
G1 X70.386 Y79.728 E0.01174
G1 X70.239 Y79.983 E0.00922
M204 S1250
G1 X69.698 Y80.045 F9000.000
M204 S800
;TYPE:External perimeter
G1 F1200.000
G1 X69.575 Y80.145 E0.00498
G1 X69.324 Y80.289 E0.00908
G1 X69.043 Y80.381 E0.00925
G1 X68.750 Y80.411 E0.00925
