; generated by PrusaSlicer 2.3.3+win64 on 2021-10-16 at 17:51:26 UTC


;
;

;
;
; 

; external perimeters extrusion width = 0.45mm
; perimeters extrusion width = 0.45mm
; infill extrusion width = 0.45mm
; solid infill extrusion width = 0.45mm
; top infill extrusion width = 0.40mm
; first layer extrusion width = 0.42mm

M73 P0 R73
M201 X1250 Y1250 Z400 E5000 ; sets maximum accelerations, mm/sec^2
M203 X180 Y180 Z12 E80 ; sets maximum feedrates, mm/sec
M204 P1250 R1250 T1250 ; sets acceleration (P, T) and retract acceleration (R), mm/sec^2
M205 X8.00 Y8.00 Z2.00 E10.00 ; sets the jerk limits, mm/sec
M205 S0 T0 ; sets the minimum extruding and travel feed rate, mm/sec
M107
;TYPE:Custom
G90 ; use absolute coordinates
M83 ; extruder relative mode
M104 S170 ; set extruder temp for bed leveling
M140 S60 ; set bed temp
M109 R170 ; wait for bed leveling temp
M190 S60 ; wait for bed temp
G28 ; home all without mesh bed level
G29 ; mesh bed leveling 
M104 S215 ; set extruder temp
G92 E0.0
G1 Y-2.0 X179 F2400
G1 Z3 F720
M109 S215 ; wait for extruder temp

; intro line
G1 X170 F1000
G1 Z0.2 F720
G1 X110.0 E8.0 F900
G1 X40.0 E10.0 F700
G92 E0.0

M221 S95 ; set flow
G21 ; set units to millimeters
G90 ; use absolute coordinates
M83 ; use relative distances for extrusion
M900 K0.2 ; Filament gcode LA 1.5
; ; Filament gcode LA 1.0
;LAYER_CHANGE
;Z:0.2
;HEIGHT:0.2
;BEFORE_LAYER_CHANGE
G92 E0.0
;0.2


G1 E-3.20000 F4200.000
G1 Z0.200 F9000.000
;AFTER_LAYER_CHANGE
;0.2
G1 Z0.400
G1 X39.265 Y52.740
G1 Z0.200
G1 E3.20000 F2400.000
M204 S800
;TYPE:Skirt
;WIDTH:0.42
G1 F1200.000
G1 X39.991 Y52.623 E0.02308
G1 X140.004 Y52.623 E3.13582
G1 X140.902 Y52.801 E0.02872
G1 X141.667 Y53.305 E0.02872
G1 X142.184 Y54.062 E0.02872
G1 X142.377 Y54.957 E0.02872
G1 X142.377 Y125.030 E2.19710
G1 X142.306 Y125.577 E0.01728
G1 X142.111 Y126.092 E0.01728
G1 X141.803 Y126.549 E0.01728
G1 X141.395 Y126.925 E0.01740
G1 X140.735 Y127.260 E0.02319
G1 X140.009 Y127.377 E0.02308
G1 X39.989 Y127.377 E3.13606
G1 X39.434 Y127.309 E0.01752
G1 X38.914 Y127.115 E0.01740
G1 X38.451 Y126.803 E0.01752
G1 X38.075 Y126.395 E0.01740
G1 X37.742 Y125.743 E0.02296
G1 X37.623 Y125.016 E0.02308
G1 X37.623 Y54.981 E2.19591
G1 X37.692 Y54.430 E0.01740
G1 X37.887 Y53.911 E0.01740
G1 X38.197 Y53.451 E0.01740
G1 X38.605 Y53.075 E0.01740
G1 X39.211 Y52.767 E0.02131
M204 S1250
; printing object road_blocker rev_2_cover_Netta.stl id:0 copy 0
G1 E-2.24000 F4200.000
;WIPE_START
G1 F7200.000
G1 X39.991 Y52.623 E-0.43962
G1 X40.844 Y52.623 E-0.47238
;WIPE_END
G1 E-0.04800 F4200.000
G1 Z0.400 F9000.000
G1 X103.235 Y73.060
G1 Z0.200
G1 E3.20000 F2400.000
M204 S800
;TYPE:Perimeter
G1 F1200.000
G1 X103.387 Y72.593 E0.01540
G1 X103.571 Y72.138 E0.01540
G1 X103.786 Y71.696 E0.01540
G1 X104.032 Y71.271 E0.01540
G1 X104.307 Y70.862 E0.01544
G1 X104.629 Y70.454 E0.01630
G1 X104.938 Y70.111 E0.01446
G1 X105.291 Y69.770 E0.01540
G1 X105.667 Y69.454 E0.01540
G1 X106.065 Y69.166 E0.01540
G1 X106.481 Y68.905 E0.01540
G1 X106.915 Y68.675 E0.01540
G1 X107.364 Y68.475 E0.01540
G1 X107.825 Y68.307 E0.01540
G1 X108.297 Y68.171 E0.01540
G1 X108.778 Y68.069 E0.01540
G1 X109.264 Y68.001 E0.01540
G1 X109.754 Y67.967 E0.01540
G1 X110.246 Y67.967 E0.01540
G1 X110.736 Y68.001 E0.01540
G1 X111.222 Y68.069 E0.01540
G1 X111.703 Y68.171 E0.01540
G1 X112.175 Y68.307 E0.01540
G1 X112.636 Y68.475 E0.01540
G1 X113.085 Y68.675 E0.01540
G1 X113.519 Y68.905 E0.01540
G1 X113.935 Y69.166 E0.01540
G1 X114.333 Y69.454 E0.01540
G1 X114.709 Y69.770 E0.01540
G1 X115.062 Y70.111 E0.01540
G1 X115.391 Y70.476 E0.01540
G1 X115.694 Y70.863 E0.01540
G1 X115.968 Y71.271 E0.01540
G1 X116.214 Y71.696 E0.01540
G1 X116.429 Y72.138 E0.01540
G1 X116.614 Y72.594 E0.01544
G1 X116.772 Y73.089 E0.01630
G1 X116.884 Y73.537 E0.01446
G1 X116.969 Y74.021 E0.01540
G1 X117.020 Y74.509 E0.01540
G1 X117.038 Y75.000 E0.01540
G1 X117.020 Y75.491 E0.01540
G1 X116.969 Y75.979 E0.01540
G1 X116.884 Y76.463 E0.01540
G1 X116.765 Y76.940 E0.01540
G1 X116.613 Y77.407 E0.01540
G1 X116.429 Y77.862 E0.01540
G1 X116.214 Y78.304 E0.01540
G1 X115.968 Y78.729 E0.01540
G1 X115.693 Y79.138 E0.01544
G1 X115.371 Y79.546 E0.01630
G1 X115.062 Y79.889 E0.01446
G1 X114.709 Y80.230 E0.01540
G1 X114.333 Y80.546 E0.01540
G1 X113.935 Y80.834 E0.01540
G1 X113.519 Y81.095 E0.01540
G1 X113.085 Y81.325 E0.01540
G1 X112.636 Y81.525 E0.01540
G1 X112.175 Y81.693 E0.01540
G1 X111.703 Y81.829 E0.01540
G1 X111.222 Y81.931 E0.01540
G1 X110.736 Y81.999 E0.01540
G1 X110.246 Y82.033 E0.01540
G1 X109.754 Y82.033 E0.01540
G1 X109.294 Y82.001 E0.01446
G1 X108.779 Y81.931 E0.01630
G1 X108.297 Y81.829 E0.01544
G1 X107.825 Y81.693 E0.01540
G1 X107.364 Y81.525 E0.01540
G1 X106.915 Y81.325 E0.01540
G1 X106.481 Y81.095 E0.01540
G1 X106.065 Y80.834 E0.01540
G1 X105.667 Y80.546 E0.01540
G1 X105.291 Y80.230 E0.01540
G1 X104.938 Y79.889 E0.01540
G1 X104.609 Y79.524 E0.01540
G1 X104.306 Y79.137 E0.01540
G1 X104.032 Y78.729 E0.01540
G1 X103.786 Y78.304 E0.01540
G1 X103.571 Y77.862 E0.01540
G1 X103.387 Y77.407 E0.01540
G1 X103.235 Y76.940 E0.01540
G1 X103.116 Y76.463 E0.01540
G1 X103.031 Y75.979 E0.01540
G1 X102.980 Y75.491 E0.01540
G1 X102.962 Y75.000 E0.01540
G1 X102.980 Y74.509 E0.01540
G1 X103.031 Y74.021 E0.01540
G1 X103.116 Y73.537 E0.01540
G1 X103.221 Y73.118 E0.01352
M204 S1250
G1 X103.586 Y73.210 F9000.000
M204 S800
;TYPE:External perimeter
G1 F1200.000
G1 X103.741 Y72.722 E0.01604
G1 X103.916 Y72.291 E0.01458
G1 X104.119 Y71.873 E0.01458
G1 X104.352 Y71.471 E0.01458
G1 X104.612 Y71.085 E0.01459
G1 X104.918 Y70.697 E0.01548
G1 X105.209 Y70.373 E0.01366
G1 X105.543 Y70.050 E0.01458
G1 X105.900 Y69.752 E0.01458
G1 X106.276 Y69.478 E0.01458
G1 X106.670 Y69.232 E0.01458
G1 X107.080 Y69.014 E0.01458
G1 X107.505 Y68.825 E0.01458
G1 X107.942 Y68.666 E0.01458
G1 X108.389 Y68.538 E0.01458
G1 X108.843 Y68.441 E0.01458
G1 X109.304 Y68.376 E0.01458
G1 X109.768 Y68.344 E0.01458
G1 X110.232 Y68.344 E0.01458
G1 X110.696 Y68.376 E0.01458
G1 X111.157 Y68.441 E0.01458
G1 X111.611 Y68.538 E0.01458
G1 X112.058 Y68.666 E0.01458
G1 X112.495 Y68.825 E0.01458
G1 X112.920 Y69.014 E0.01458
G1 X113.330 Y69.232 E0.01458
G1 X113.724 Y69.478 E0.01458
G1 X114.100 Y69.752 E0.01458
G1 X114.457 Y70.050 E0.01458
G1 X114.791 Y70.373 E0.01458
G1 X115.102 Y70.719 E0.01458
G1 X115.388 Y71.085 E0.01458
G1 X115.648 Y71.471 E0.01458
G1 X115.881 Y71.873 E0.01458
G1 X116.084 Y72.291 E0.01458
G1 X116.259 Y72.722 E0.01459
G1 X116.409 Y73.193 E0.01548
G1 X116.515 Y73.615 E0.01366
G1 X116.595 Y74.073 E0.01458
G1 X116.644 Y74.535 E0.01458
G1 X116.660 Y75.000 E0.01458
G1 X116.644 Y75.465 E0.01458
G1 X116.595 Y75.927 E0.01458
G1 X116.515 Y76.385 E0.01458
G1 X116.402 Y76.836 E0.01458
G1 X116.259 Y77.278 E0.01458
G1 X116.084 Y77.709 E0.01458
G1 X115.881 Y78.127 E0.01458
G1 X115.648 Y78.529 E0.01458
G1 X115.388 Y78.915 E0.01459
G1 X115.082 Y79.303 E0.01548
G1 X114.791 Y79.627 E0.01366
G1 X114.457 Y79.950 E0.01458
G1 X114.100 Y80.248 E0.01458
G1 X113.724 Y80.522 E0.01458
G1 X113.330 Y80.768 E0.01458
G1 X112.920 Y80.986 E0.01458
G1 X112.495 Y81.175 E0.01458
G1 X112.058 Y81.334 E0.01458
G1 X111.611 Y81.462 E0.01458
G1 X111.157 Y81.559 E0.01458
G1 X110.696 Y81.624 E0.01458
G1 X110.232 Y81.656 E0.01458
G1 X109.768 Y81.656 E0.01458
G1 X109.333 Y81.626 E0.01366
G1 X108.844 Y81.559 E0.01548
G1 X108.389 Y81.462 E0.01459
G1 X107.942 Y81.334 E0.01458
G1 X107.505 Y81.175 E0.01458
G1 X107.080 Y80.986 E0.01458
G1 X106.670 Y80.768 E0.01458
G1 X106.276 Y80.522 E0.01458
G1 X105.900 Y80.248 E0.01458
G1 X105.543 Y79.950 E0.01458
G1 X105.209 Y79.627 E0.01458
G1 X104.898 Y79.281 E0.01458
G1 X104.612 Y78.915 E0.01458
G1 X104.352 Y78.529 E0.01458
G1 X104.119 Y78.127 E0.01458
G1 X103.916 Y77.709 E0.01458
G1 X103.741 Y77.278 E0.01458
G1 X103.598 Y76.836 E0.01458
G1 X103.485 Y76.385 E0.01458
G1 X103.405 Y75.927 E0.01458
G1 X103.356 Y75.465 E0.01458
G1 X103.340 Y75.000 E0.01458
G1 X103.356 Y74.535 E0.01458
G1 X103.405 Y74.073 E0.01458
G1 X103.485 Y73.615 E0.01458
G1 X103.572 Y73.268 E0.01123
M204 S1250
G1 X103.307 Y72.923 F9000.000
G1 E-2.24000 F4200.000
;WIPE_START
G1 F7200.000
G1 X103.741 Y72.722 E-0.31671
G1 X103.916 Y72.291 E-0.25762
G1 X104.119 Y71.873 E-0.25762
G1 X104.192 Y71.748 E-0.08005
;WIPE_END
G1 E-0.04800 F4200.000
G1 Z0.400 F9000.000
G1 X135.319 Y58.749
G1 Z0.200
G1 E3.20000 F2400.000
M204 S800
;TYPE:Perimeter
G1 F1200.000
G1 X135.200 Y58.383 E0.01206
G1 X135.160 Y58.000 E0.01206
G1 X135.200 Y57.617 E0.01206
G1 X135.318 Y57.253 E0.01203
G1 X135.496 Y56.942 E0.01123
G1 X135.682 Y56.716 E0.00916
G1 X135.971 Y56.474 E0.01181
G1 X136.301 Y56.298 E0.01174
G1 X136.565 Y56.213 E0.00869
G1 X136.936 Y56.161 E0.01174
G1 X137.320 Y56.188 E0.01206
G1 X137.680 Y56.291 E0.01174
G1 X137.929 Y56.412 E0.00869
G1 X138.231 Y56.632 E0.01174
G1 X138.489 Y56.918 E0.01206
G1 X138.681 Y57.251 E0.01206
G1 X138.800 Y57.617 E0.01206
G1 X138.840 Y58.000 E0.01206
G1 X138.801 Y58.372 E0.01174
G1 X138.725 Y58.639 E0.00869
G1 X138.561 Y58.975 E0.01174
G1 X138.324 Y59.278 E0.01206
G1 X138.029 Y59.526 E0.01206
G1 X137.689 Y59.706 E0.01206
G1 X137.330 Y59.810 E0.01174
G1 X137.064 Y59.838 E0.00837
G1 X136.798 Y59.828 E0.00837
G1 X136.431 Y59.750 E0.01174
G1 X136.080 Y59.594 E0.01206
G1 X135.769 Y59.368 E0.01206
G1 X135.511 Y59.082 E0.01206
G1 X135.349 Y58.801 E0.01018
M204 S1250
G1 X135.675 Y58.612 F9000.000
M204 S800
;TYPE:External perimeter
G1 F1200.000
G1 X135.571 Y58.304 E0.01020
G1 X135.539 Y58.000 E0.00958
G1 X135.571 Y57.696 E0.00958
G1 X135.665 Y57.406 E0.00957
G1 X135.807 Y57.157 E0.00900
G1 X135.951 Y56.983 E0.00707
G1 X136.183 Y56.789 E0.00949
G1 X136.449 Y56.647 E0.00946
G1 X136.650 Y56.582 E0.00662
G1 X136.949 Y56.540 E0.00946
G1 X137.254 Y56.561 E0.00958
G1 X137.544 Y56.644 E0.00946
G1 X137.734 Y56.737 E0.00662
G1 X137.978 Y56.914 E0.00946
G1 X138.182 Y57.141 E0.00958
G1 X138.335 Y57.406 E0.00958
G1 X138.429 Y57.696 E0.00958
G1 X138.461 Y58.000 E0.00958
G1 X138.430 Y58.300 E0.00946
G1 X138.372 Y58.503 E0.00662
G1 X138.239 Y58.774 E0.00946
G1 X138.051 Y59.015 E0.00958
G1 X137.817 Y59.211 E0.00958
G1 X137.547 Y59.355 E0.00958
G1 X137.257 Y59.438 E0.00946
G1 X137.051 Y59.460 E0.00651
G1 X136.844 Y59.453 E0.00650
G1 X136.548 Y59.390 E0.00946
G1 X136.269 Y59.266 E0.00958
G1 X136.022 Y59.086 E0.00958
G1 X135.818 Y58.859 E0.00958
G1 X135.705 Y58.664 E0.00706
M204 S1250
G1 X135.351 Y58.581 F9000.000
G1 E-2.24000 F4200.000
;WIPE_START
G1 F7200.000
G1 X135.571 Y58.304 E-0.21306
G1 X135.539 Y58.000 E-0.16929
G1 X135.571 Y57.696 E-0.16929
G1 X135.665 Y57.406 E-0.16906
G1 X135.807 Y57.157 E-0.15907
G1 X135.844 Y57.112 E-0.03222
;WIPE_END
G1 E-0.04800 F4200.000
G1 Z0.400 F9000.000
G1 X136.926 Y120.162
G1 Z0.200
G1 E3.20000 F2400.000
M204 S800
;TYPE:Perimeter
G1 F1200.000
G1 X137.202 Y120.172 E0.00869
G1 X137.569 Y120.250 E0.01174
G1 X137.920 Y120.406 E0.01206
G1 X138.231 Y120.632 E0.01206
G1 X138.489 Y120.918 E0.01206
G1 X138.681 Y121.251 E0.01206
G1 X138.800 Y121.617 E0.01206
G1 X138.840 Y122.000 E0.01206
G1 X138.800 Y122.383 E0.01206
G1 X138.682 Y122.747 E0.01203
G1 X138.504 Y123.058 E0.01123
G1 X138.318 Y123.284 E0.00916
G1 X138.029 Y123.526 E0.01181
G1 X137.699 Y123.702 E0.01174
G1 X137.435 Y123.787 E0.00869
G1 X137.064 Y123.839 E0.01174
G1 X136.680 Y123.812 E0.01206
G1 X136.311 Y123.706 E0.01206
G1 X135.980 Y123.531 E0.01174
G1 X135.762 Y123.360 E0.00869
G1 X135.511 Y123.082 E0.01174
G1 X135.319 Y122.749 E0.01206
G1 X135.200 Y122.383 E0.01206
G1 X135.160 Y122.000 E0.01206
G1 X135.199 Y121.628 E0.01174
G1 X135.275 Y121.361 E0.00869
G1 X135.439 Y121.025 E0.01174
G1 X135.676 Y120.722 E0.01206
G1 X135.971 Y120.474 E0.01206
G1 X136.301 Y120.298 E0.01174
G1 X136.565 Y120.213 E0.00869
G1 X136.866 Y120.170 E0.00953
M204 S1250
G1 X136.919 Y120.544 F9000.000
M204 S800
;TYPE:External perimeter
G1 F1200.000
G1 X137.156 Y120.547 E0.00746
G1 X137.452 Y120.610 E0.00946
G1 X137.731 Y120.734 E0.00958
G1 X137.978 Y120.914 E0.00958
G1 X138.182 Y121.141 E0.00958
G1 X138.335 Y121.406 E0.00958
G1 X138.429 Y121.696 E0.00958
G1 X138.461 Y122.000 E0.00958
G1 X138.429 Y122.304 E0.00958
G1 X138.335 Y122.594 E0.00957
G1 X138.193 Y122.843 E0.00900
G1 X138.049 Y123.017 E0.00707
G1 X137.817 Y123.211 E0.00949
G1 X137.551 Y123.353 E0.00946
G1 X137.350 Y123.418 E0.00662
G1 X137.051 Y123.460 E0.00946
G1 X136.746 Y123.439 E0.00958
G1 X136.453 Y123.355 E0.00958
G1 X136.186 Y123.213 E0.00946
G1 X136.020 Y123.083 E0.00662
G1 X135.818 Y122.859 E0.00946
G1 X135.665 Y122.594 E0.00958
G1 X135.571 Y122.304 E0.00958
G1 X135.539 Y122.000 E0.00958
G1 X135.570 Y121.700 E0.00946
G1 X135.628 Y121.497 E0.00662
G1 X135.761 Y121.226 E0.00946
G1 X135.949 Y120.985 E0.00958
G1 X136.183 Y120.789 E0.00958
G1 X136.449 Y120.647 E0.00946
G1 X136.650 Y120.582 E0.00662
G1 X136.859 Y120.552 E0.00662
M204 S1250
G1 X137.025 Y120.331 F9000.000
G1 E-2.24000 F4200.000
;WIPE_START
G1 F7200.000
G1 X137.156 Y120.547 E-0.16471
G1 X137.452 Y120.610 E-0.16724
G1 X137.731 Y120.734 E-0.16930
G1 X137.978 Y120.914 E-0.16929
G1 X138.182 Y121.141 E-0.16929
G1 X138.247 Y121.254 E-0.07217
;WIPE_END
G1 E-0.04800 F4200.000
G1 Z0.400 F9000.000
G1 X44.840 Y122.000
G1 Z0.200
G1 E3.20000 F2400.000
M204 S800
;TYPE:Perimeter
G1 F1200.000
G1 X44.800 Y122.383 E0.01206
M73 P1 R73
G1 X44.682 Y122.747 E0.01203
G1 X44.504 Y123.058 E0.01123
G1 X44.318 Y123.284 E0.00916
G1 X44.029 Y123.526 E0.01181
G1 X43.699 Y123.702 E0.01174
G1 X43.435 Y123.787 E0.00869
G1 X43.064 Y123.839 E0.01174
G1 X42.680 Y123.812 E0.01206
G1 X42.311 Y123.706 E0.01206
G1 X41.980 Y123.531 E0.01174
G1 X41.762 Y123.360 E0.00869
G1 X41.511 Y123.082 E0.01174
G1 X41.319 Y122.749 E0.01206
G1 X41.200 Y122.383 E0.01206
G1 X41.160 Y122.000 E0.01206
G1 X41.199 Y121.628 E0.01174
M73 P1 R72
G1 X41.275 Y121.361 E0.00869
G1 X41.439 Y121.025 E0.01174
G1 X41.676 Y120.722 E0.01206
G1 X41.971 Y120.474 E0.01206
G1 X42.301 Y120.298 E0.01174
G1 X42.565 Y120.213 E0.00869
G1 X42.926 Y120.162 E0.01142
G1 X43.202 Y120.172 E0.00869
G1 X43.569 Y120.250 E0.01174
G1 X43.920 Y120.406 E0.01206
G1 X44.231 Y120.632 E0.01206
G1 X44.489 Y120.918 E0.01206
G1 X44.681 Y121.251 E0.01206
G1 X44.800 Y121.617 E0.01206
G1 X44.834 Y121.940 E0.01018
M204 S1250
G1 X44.459 Y121.980 F9000.000
M204 S800
;TYPE:External perimeter
G1 F1200.000
G1 X44.429 Y122.304 E0.01020
G1 X44.335 Y122.594 E0.00957
G1 X44.193 Y122.843 E0.00900
G1 X44.049 Y123.017 E0.00707
G1 X43.817 Y123.211 E0.00949
G1 X43.551 Y123.353 E0.00946
G1 X43.350 Y123.418 E0.00662
G1 X43.051 Y123.460 E0.00946
G1 X42.746 Y123.439 E0.00958
G1 X42.453 Y123.355 E0.00958
G1 X42.186 Y123.213 E0.00946
G1 X42.020 Y123.083 E0.00662
G1 X41.818 Y122.859 E0.00946
G1 X41.665 Y122.594 E0.00958
G1 X41.571 Y122.304 E0.00958
G1 X41.539 Y122.000 E0.00958
G1 X41.570 Y121.700 E0.00946
G1 X41.628 Y121.497 E0.00662
G1 X41.761 Y121.226 E0.00946
G1 X41.949 Y120.985 E0.00958
G1 X42.183 Y120.789 E0.00958
G1 X42.449 Y120.647 E0.00946
G1 X42.650 Y120.582 E0.00662
G1 X42.945 Y120.540 E0.00935
G1 X43.156 Y120.547 E0.00662
G1 X43.452 Y120.610 E0.00946
G1 X43.731 Y120.734 E0.00958
G1 X43.978 Y120.914 E0.00958
G1 X44.182 Y121.141 E0.00958
G1 X44.335 Y121.406 E0.00958
G1 X44.429 Y121.696 E0.00958
G1 X44.453 Y121.920 E0.00706
M204 S1250
G1 X44.743 Y122.140 F9000.000
G1 E-2.24000 F4200.000
;WIPE_START
G1 F7200.000
G1 X44.429 Y122.304 E-0.21306
G1 X44.335 Y122.594 E-0.16906
G1 X44.193 Y122.843 E-0.15907
G1 X44.049 Y123.017 E-0.12494
G1 X43.817 Y123.211 E-0.16769
G1 X43.693 Y123.278 E-0.07817
;WIPE_END
G1 E-0.04800 F4200.000
G1 Z0.400 F9000.000
G1 X66.481 Y81.095
G1 Z0.200
G1 E3.20000 F2400.000
M204 S800
;TYPE:Perimeter
G1 F1200.000
G1 X66.065 Y80.834 E0.01540
G1 X65.667 Y80.546 E0.01540
G1 X65.291 Y80.230 E0.01540
G1 X64.938 Y79.889 E0.01540
G1 X64.609 Y79.524 E0.01540
G1 X64.306 Y79.137 E0.01540
G1 X64.032 Y78.729 E0.01540
G1 X63.786 Y78.304 E0.01540
G1 X63.571 Y77.862 E0.01540
G1 X63.386 Y77.406 E0.01544
G1 X63.228 Y76.911 E0.01630
G1 X63.116 Y76.463 E0.01446
G1 X63.031 Y75.979 E0.01540
G1 X62.980 Y75.491 E0.01540
G1 X62.962 Y75.000 E0.01540
G1 X62.980 Y74.509 E0.01540
G1 X63.031 Y74.021 E0.01540
G1 X63.116 Y73.537 E0.01540
