; generated by PrusaSlicer 2.3.3+win64 on 2021-11-13 at 18:28:16 UTC


;
;

;
;
; 

; external perimeters extrusion width = 0.45mm
; perimeters extrusion width = 0.45mm
; infill extrusion width = 0.45mm
; solid infill extrusion width = 0.45mm
; top infill extrusion width = 0.40mm
; first layer extrusion width = 0.42mm

M73 P0 R72
M201 X1250 Y1250 Z400 E5000 ; sets maximum accelerations, mm/sec^2
M203 X180 Y180 Z12 E80 ; sets maximum feedrates, mm/sec
M204 P1250 R1250 T1250 ; sets acceleration (P, T) and retract acceleration (R), mm/sec^2
M205 X8.00 Y8.00 Z2.00 E10.00 ; sets the jerk limits, mm/sec
M205 S0 T0 ; sets the minimum extruding and travel feed rate, mm/sec
M107
;TYPE:Custom
G90 ; use absolute coordinates
M83 ; extruder relative mode
M104 S170 ; set extruder temp for bed leveling
M140 S60 ; set bed temp
M109 R170 ; wait for bed leveling temp
M190 S60 ; wait for bed temp
G28 ; home all without mesh bed level
G29 ; mesh bed leveling 
M104 S215 ; set extruder temp
G92 E0.0
G1 Y-2.0 X179 F2400
G1 Z3 F720
M109 S215 ; wait for extruder temp

; intro line
G1 X170 F1000
G1 Z0.2 F720
G1 X110.0 E8.0 F900
G1 X40.0 E10.0 F700
G92 E0.0

M221 S95 ; set flow
G21 ; set units to millimeters
G90 ; use absolute coordinates
M83 ; use relative distances for extrusion
M900 K0.2 ; Filament gcode LA 1.5
; ; Filament gcode LA 1.0
;LAYER_CHANGE
;Z:0.2
;HEIGHT:0.2
;BEFORE_LAYER_CHANGE
G92 E0.0
;0.2


G1 E-3.20000 F4200.000
G1 Z0.200 F9000.000
;AFTER_LAYER_CHANGE
;0.2
G1 Z0.400
G1 X39.265 Y52.740
G1 Z0.200
G1 E3.20000 F2400.000
M204 S800
;TYPE:Skirt
;WIDTH:0.42
G1 F1200.000
G1 X39.991 Y52.623 E0.02308
G1 X140.004 Y52.623 E3.13582
G1 X140.902 Y52.801 E0.02872
G1 X141.667 Y53.305 E0.02872
G1 X142.184 Y54.062 E0.02872
G1 X142.377 Y54.957 E0.02872
G1 X142.377 Y125.030 E2.19710
G1 X142.306 Y125.577 E0.01728
G1 X142.111 Y126.092 E0.01728
G1 X141.803 Y126.549 E0.01728
G1 X141.395 Y126.925 E0.01740
G1 X140.735 Y127.260 E0.02319
G1 X140.009 Y127.377 E0.02308
G1 X39.989 Y127.377 E3.13606
G1 X39.434 Y127.309 E0.01752
G1 X38.914 Y127.115 E0.01740
G1 X38.451 Y126.803 E0.01752
G1 X38.075 Y126.395 E0.01740
G1 X37.742 Y125.743 E0.02296
G1 X37.623 Y125.016 E0.02308
G1 X37.623 Y54.981 E2.19591
G1 X37.692 Y54.430 E0.01740
G1 X37.887 Y53.911 E0.01740
G1 X38.197 Y53.451 E0.01740
G1 X38.605 Y53.075 E0.01740
G1 X39.211 Y52.767 E0.02131
M204 S1250
; printing object road_blocker rev_4_pcb_cover_Sagi.stl id:0 copy 0
G1 E-2.24000 F4200.000
;WIPE_START
G1 F7200.000
G1 X39.991 Y52.623 E-0.43962
G1 X40.844 Y52.623 E-0.47238
;WIPE_END
G1 E-0.04800 F4200.000
G1 Z0.400 F9000.000
G1 X103.572 Y73.157
G1 Z0.200
G1 E3.20000 F2400.000
M204 S800
;TYPE:Perimeter
G1 F1200.000
G1 X103.716 Y72.713 E0.01464
G1 X103.891 Y72.280 E0.01464
G1 X104.095 Y71.860 E0.01464
G1 X104.329 Y71.456 E0.01464
G1 X104.590 Y71.069 E0.01464
G1 X104.877 Y70.701 E0.01464
G1 X105.189 Y70.354 E0.01464
G1 X105.525 Y70.030 E0.01464
G1 X105.883 Y69.730 E0.01464
G1 X106.260 Y69.456 E0.01464
G1 X106.632 Y69.224 E0.01373
G1 X107.067 Y68.990 E0.01550
G1 X107.495 Y68.799 E0.01467
G1 X107.906 Y68.650 E0.01373
G1 X108.381 Y68.511 E0.01550
G1 X108.839 Y68.414 E0.01467
G1 X109.301 Y68.349 E0.01464
G1 X109.767 Y68.317 E0.01464
G1 X110.233 Y68.317 E0.01464
G1 X110.699 Y68.349 E0.01464
G1 X111.161 Y68.414 E0.01464
G1 X111.618 Y68.511 E0.01464
G1 X112.067 Y68.640 E0.01464
G1 X112.505 Y68.799 E0.01464
G1 X112.932 Y68.989 E0.01464
G1 X113.344 Y69.208 E0.01464
G1 X113.740 Y69.456 E0.01464
G1 X114.094 Y69.713 E0.01373
G1 X114.474 Y70.029 E0.01550
G1 X114.811 Y70.354 E0.01467
G1 X115.123 Y70.701 E0.01464
G1 X115.410 Y71.069 E0.01464
G1 X115.671 Y71.456 E0.01464
G1 X115.905 Y71.860 E0.01464
G1 X116.109 Y72.280 E0.01464
G1 X116.284 Y72.713 E0.01464
G1 X116.428 Y73.157 E0.01464
G1 X116.541 Y73.610 E0.01464
G1 X116.623 Y74.070 E0.01467
G1 X116.672 Y74.562 E0.01550
G1 X116.688 Y75.000 E0.01373
G1 X116.671 Y75.467 E0.01464
G1 X116.622 Y75.931 E0.01464
G1 X116.541 Y76.390 E0.01464
G1 X116.428 Y76.843 E0.01464
G1 X116.284 Y77.288 E0.01467
G1 X116.097 Y77.746 E0.01550
G1 X115.905 Y78.140 E0.01373
G1 X115.671 Y78.544 E0.01464
G1 X115.410 Y78.931 E0.01464
G1 X115.123 Y79.299 E0.01464
G1 X114.811 Y79.646 E0.01464
G1 X114.475 Y79.970 E0.01464
G1 X114.117 Y80.270 E0.01464
G1 X113.740 Y80.544 E0.01464
G1 X113.344 Y80.792 E0.01464
G1 X112.932 Y81.011 E0.01464
G1 X112.532 Y81.189 E0.01373
G1 X112.068 Y81.360 E0.01550
G1 X111.618 Y81.489 E0.01467
G1 X111.161 Y81.586 E0.01464
G1 X110.699 Y81.651 E0.01464
G1 X110.233 Y81.683 E0.01464
G1 X109.767 Y81.683 E0.01464
G1 X109.301 Y81.651 E0.01464
M73 P0 R71
G1 X108.839 Y81.586 E0.01464
G1 X108.382 Y81.489 E0.01464
G1 X107.961 Y81.368 E0.01373
G1 X107.496 Y81.201 E0.01550
G1 X107.068 Y81.011 E0.01467
G1 X106.656 Y80.792 E0.01464
G1 X106.260 Y80.544 E0.01464
G1 X105.906 Y80.287 E0.01373
G1 X105.526 Y79.971 E0.01550
G1 X105.189 Y79.646 E0.01467
G1 X104.877 Y79.299 E0.01464
G1 X104.590 Y78.931 E0.01464
G1 X104.329 Y78.544 E0.01464
G1 X104.095 Y78.140 E0.01464
G1 X103.891 Y77.720 E0.01464
G1 X103.716 Y77.287 E0.01464
G1 X103.572 Y76.843 E0.01464
G1 X103.459 Y76.390 E0.01464
G1 X103.377 Y75.930 E0.01467
G1 X103.328 Y75.438 E0.01550
G1 X103.312 Y75.000 E0.01373
G1 X103.329 Y74.533 E0.01464
G1 X103.378 Y74.069 E0.01464
G1 X103.459 Y73.610 E0.01464
G1 X103.557 Y73.215 E0.01275
M204 S1250
G1 X103.923 Y73.306 F9000.000
M204 S800
;TYPE:External perimeter
G1 F1200.000
G1 X104.070 Y72.842 E0.01528
G1 X104.235 Y72.433 E0.01381
G1 X104.428 Y72.038 E0.01381
G1 X104.649 Y71.656 E0.01381
G1 X104.895 Y71.291 E0.01381
G1 X105.166 Y70.944 E0.01381
G1 X105.461 Y70.617 E0.01381
G1 X105.778 Y70.311 E0.01381
G1 X106.115 Y70.027 E0.01381
G1 X106.471 Y69.769 E0.01381
G1 X106.821 Y69.550 E0.01293
G1 X107.233 Y69.329 E0.01467
G1 X107.636 Y69.149 E0.01382
G1 X108.024 Y69.008 E0.01293
G1 X108.473 Y68.877 E0.01467
G1 X108.904 Y68.786 E0.01382
G1 X109.340 Y68.724 E0.01381
G1 X109.780 Y68.694 E0.01381
G1 X110.220 Y68.694 E0.01381
G1 X110.660 Y68.724 E0.01381
G1 X111.096 Y68.786 E0.01381
G1 X111.527 Y68.877 E0.01381
G1 X111.950 Y68.999 E0.01381
G1 X112.364 Y69.149 E0.01381
G1 X112.766 Y69.328 E0.01381
G1 X113.155 Y69.535 E0.01381
G1 X113.529 Y69.769 E0.01381
G1 X113.862 Y70.011 E0.01293
G1 X114.222 Y70.310 E0.01467
G1 X114.539 Y70.617 E0.01382
G1 X114.834 Y70.944 E0.01381
G1 X115.105 Y71.291 E0.01381
G1 X115.351 Y71.656 E0.01381
G1 X115.572 Y72.038 E0.01381
G1 X115.765 Y72.433 E0.01381
G1 X115.930 Y72.842 E0.01381
G1 X116.066 Y73.261 E0.01381
G1 X116.172 Y73.688 E0.01381
G1 X116.249 Y74.122 E0.01382
G1 X116.296 Y74.588 E0.01467
G1 X116.310 Y75.000 E0.01293
G1 X116.295 Y75.440 E0.01381
G1 X116.249 Y75.878 E0.01381
G1 X116.172 Y76.312 E0.01381
G1 X116.066 Y76.739 E0.01381
G1 X115.930 Y77.159 E0.01382
G1 X115.752 Y77.592 E0.01467
G1 X115.572 Y77.962 E0.01293
G1 X115.351 Y78.344 E0.01381
G1 X115.105 Y78.709 E0.01381
G1 X114.834 Y79.056 E0.01381
G1 X114.539 Y79.383 E0.01381
G1 X114.222 Y79.689 E0.01381
G1 X113.885 Y79.973 E0.01381
G1 X113.529 Y80.231 E0.01381
G1 X113.155 Y80.465 E0.01381
G1 X112.766 Y80.672 E0.01381
G1 X112.389 Y80.839 E0.01293
G1 X111.950 Y81.001 E0.01467
G1 X111.527 Y81.123 E0.01382
G1 X111.096 Y81.214 E0.01381
G1 X110.660 Y81.276 E0.01381
G1 X110.220 Y81.306 E0.01381
G1 X109.780 Y81.306 E0.01381
G1 X109.340 Y81.276 E0.01381
G1 X108.904 Y81.214 E0.01381
G1 X108.473 Y81.123 E0.01381
G1 X108.077 Y81.009 E0.01293
G1 X107.637 Y80.851 E0.01467
G1 X107.234 Y80.672 E0.01382
G1 X106.845 Y80.465 E0.01381
G1 X106.471 Y80.231 E0.01381
G1 X106.138 Y79.989 E0.01293
G1 X105.778 Y79.690 E0.01467
G1 X105.461 Y79.383 E0.01382
G1 X105.166 Y79.056 E0.01381
G1 X104.895 Y78.709 E0.01381
G1 X104.649 Y78.344 E0.01381
G1 X104.428 Y77.962 E0.01381
G1 X104.235 Y77.567 E0.01381
G1 X104.070 Y77.158 E0.01381
G1 X103.934 Y76.739 E0.01381
G1 X103.828 Y76.312 E0.01381
G1 X103.751 Y75.878 E0.01382
G1 X103.704 Y75.412 E0.01467
G1 X103.690 Y75.000 E0.01293
G1 X103.705 Y74.560 E0.01381
G1 X103.751 Y74.122 E0.01381
G1 X103.828 Y73.688 E0.01381
G1 X103.908 Y73.364 E0.01046
M204 S1250
G1 X103.644 Y73.020 F9000.000
G1 E-2.24000 F4200.000
;WIPE_START
G1 F7200.000
G1 X104.070 Y72.842 E-0.30317
G1 X104.235 Y72.433 E-0.24408
G1 X104.428 Y72.038 E-0.24408
G1 X104.537 Y71.849 E-0.12067
;WIPE_END
G1 E-0.04800 F4200.000
G1 Z0.400 F9000.000
G1 X135.364 Y58.728
G1 Z0.200
G1 E3.20000 F2400.000
M204 S800
;TYPE:Perimeter
G1 F1200.000
G1 X135.249 Y58.372 E0.01174
G1 X135.210 Y58.000 E0.01174
G1 X135.249 Y57.628 E0.01174
G1 X135.364 Y57.272 E0.01174
G1 X135.546 Y56.957 E0.01141
G1 X135.720 Y56.750 E0.00847
G1 X135.999 Y56.516 E0.01141
G1 X136.320 Y56.345 E0.01141
G1 X136.577 Y56.261 E0.00847
G1 X136.938 Y56.211 E0.01141
G1 X137.310 Y56.237 E0.01171
G1 X137.648 Y56.333 E0.01103
G1 X137.902 Y56.454 E0.00883
G1 X138.198 Y56.669 E0.01147
G1 X138.448 Y56.948 E0.01174
G1 X138.636 Y57.272 E0.01174
G1 X138.751 Y57.628 E0.01174
G1 X138.790 Y58.000 E0.01174
G1 X138.752 Y58.364 E0.01147
G1 X138.673 Y58.634 E0.00883
G1 X138.518 Y58.950 E0.01103
G1 X138.288 Y59.244 E0.01171
G1 X138.001 Y59.484 E0.01174
G1 X137.671 Y59.660 E0.01174
G1 X137.321 Y59.760 E0.01141
G1 X137.052 Y59.789 E0.00847
G1 X136.689 Y59.763 E0.01141
G1 X136.339 Y59.663 E0.01141
G1 X136.096 Y59.544 E0.00847
G1 X135.802 Y59.331 E0.01141
G1 X135.552 Y59.052 E0.01174
G1 X135.394 Y58.780 E0.00985
M204 S1250
G1 X135.721 Y58.592 F9000.000
M204 S800
;TYPE:External perimeter
G1 F1200.000
G1 X135.620 Y58.293 E0.00988
G1 X135.589 Y58.000 E0.00925
G1 X135.620 Y57.707 E0.00925
G1 X135.711 Y57.426 E0.00925
G1 X135.856 Y57.174 E0.00913
G1 X135.988 Y57.017 E0.00640
G1 X136.211 Y56.830 E0.00913
G1 X136.468 Y56.693 E0.00913
G1 X136.662 Y56.630 E0.00640
G1 X136.951 Y56.590 E0.00913
G1 X137.245 Y56.610 E0.00924
G1 X137.514 Y56.687 E0.00879
G1 X137.708 Y56.780 E0.00674
G1 X137.944 Y56.951 E0.00916
G1 X138.142 Y57.170 E0.00925
G1 X138.289 Y57.426 E0.00925
G1 X138.380 Y57.707 E0.00925
G1 X138.411 Y58.000 E0.00925
G1 X138.381 Y58.290 E0.00916
G1 X138.320 Y58.497 E0.00674
G1 X138.197 Y58.748 E0.00879
G1 X138.015 Y58.980 E0.00924
G1 X137.789 Y59.170 E0.00925
G1 X137.529 Y59.309 E0.00925
G1 X137.249 Y59.389 E0.00913
G1 X137.046 Y59.410 E0.00640
G1 X136.755 Y59.390 E0.00913
G1 X136.475 Y59.310 E0.00913
G1 X136.291 Y59.220 E0.00640
G1 X136.056 Y59.049 E0.00913
G1 X135.858 Y58.830 E0.00925
G1 X135.751 Y58.644 E0.00673
M204 S1250
G1 X135.407 Y58.562 F9000.000
G1 E-2.24000 F4200.000
;WIPE_START
G1 F7200.000
G1 X135.620 Y58.293 E-0.20727
G1 X135.589 Y58.000 E-0.16350
G1 X135.620 Y57.707 E-0.16350
G1 X135.711 Y57.426 E-0.16350
G1 X135.856 Y57.174 E-0.16145
G1 X135.918 Y57.101 E-0.05278
;WIPE_END
G1 E-0.04800 F4200.000
G1 Z0.400 F9000.000
G1 X137.311 Y120.237
G1 Z0.200
G1 E3.20000 F2400.000
M204 S800
;TYPE:Perimeter
G1 F1200.000
G1 X137.661 Y120.337 E0.01141
G1 X137.904 Y120.456 E0.00847
G1 X138.198 Y120.669 E0.01141
G1 X138.448 Y120.948 E0.01174
G1 X138.636 Y121.272 E0.01174
G1 X138.751 Y121.628 E0.01174
G1 X138.790 Y122.000 E0.01174
G1 X138.751 Y122.372 E0.01174
G1 X138.636 Y122.728 E0.01174
G1 X138.454 Y123.043 E0.01141
G1 X138.280 Y123.250 E0.00847
G1 X138.001 Y123.484 E0.01141
G1 X137.680 Y123.655 E0.01141
G1 X137.423 Y123.739 E0.00847
G1 X137.062 Y123.789 E0.01141
G1 X136.690 Y123.763 E0.01171
G1 X136.352 Y123.667 E0.01103
G1 X136.098 Y123.546 E0.00883
G1 X135.802 Y123.331 E0.01147
G1 X135.552 Y123.052 E0.01174
G1 X135.364 Y122.728 E0.01174
G1 X135.249 Y122.372 E0.01174
G1 X135.210 Y122.000 E0.01174
G1 X135.248 Y121.636 E0.01147
G1 X135.327 Y121.366 E0.00883
G1 X135.482 Y121.051 E0.01103
G1 X135.712 Y120.756 E0.01171
G1 X135.999 Y120.516 E0.01174
G1 X136.329 Y120.340 E0.01174
G1 X136.679 Y120.240 E0.01141
G1 X136.948 Y120.211 E0.00847
G1 X137.251 Y120.233 E0.00953
M204 S1250
G1 X137.225 Y120.609 F9000.000
M204 S800
;TYPE:External perimeter
G1 F1200.000
G1 X137.525 Y120.690 E0.00976
G1 X137.709 Y120.780 E0.00640
G1 X137.944 Y120.951 E0.00913
G1 X138.142 Y121.170 E0.00925
G1 X138.289 Y121.426 E0.00925
G1 X138.380 Y121.707 E0.00925
G1 X138.411 Y122.000 E0.00925
G1 X138.380 Y122.293 E0.00925
G1 X138.289 Y122.574 E0.00925
G1 X138.144 Y122.826 E0.00913
G1 X138.012 Y122.983 E0.00640
G1 X137.789 Y123.170 E0.00913
G1 X137.532 Y123.307 E0.00913
G1 X137.338 Y123.370 E0.00640
G1 X137.049 Y123.410 E0.00913
G1 X136.755 Y123.390 E0.00924
G1 X136.486 Y123.313 E0.00879
G1 X136.292 Y123.220 E0.00674
G1 X136.056 Y123.049 E0.00916
G1 X135.858 Y122.830 E0.00925
G1 X135.711 Y122.574 E0.00925
G1 X135.620 Y122.293 E0.00925
G1 X135.589 Y122.000 E0.00925
G1 X135.619 Y121.710 E0.00916
G1 X135.680 Y121.503 E0.00674
G1 X135.803 Y121.252 E0.00879
G1 X135.985 Y121.020 E0.00924
G1 X136.211 Y120.830 E0.00925
G1 X136.471 Y120.691 E0.00925
G1 X136.751 Y120.611 E0.00913
G1 X136.954 Y120.590 E0.00640
G1 X137.165 Y120.605 E0.00661
M204 S1250
G1 X137.425 Y120.370 F9000.000
G1 E-2.24000 F4200.000
;WIPE_START
G1 F7200.000
G1 X137.525 Y120.690 E-0.20523
G1 X137.709 Y120.780 E-0.11314
G1 X137.944 Y120.951 E-0.16145
G1 X138.142 Y121.170 E-0.16350
G1 X138.289 Y121.426 E-0.16350
G1 X138.348 Y121.606 E-0.10518
;WIPE_END
G1 E-0.04800 F4200.000
G1 Z0.400 F9000.000
G1 X44.790 Y122.000
M73 P1 R71
G1 Z0.200
G1 E3.20000 F2400.000
M204 S800
;TYPE:Perimeter
G1 F1200.000
G1 X44.751 Y122.372 E0.01174
G1 X44.636 Y122.728 E0.01174
G1 X44.454 Y123.043 E0.01141
G1 X44.280 Y123.250 E0.00847
G1 X44.001 Y123.484 E0.01141
G1 X43.680 Y123.655 E0.01141
G1 X43.423 Y123.739 E0.00847
G1 X43.062 Y123.789 E0.01141
G1 X42.690 Y123.763 E0.01171
G1 X42.352 Y123.667 E0.01103
G1 X42.098 Y123.546 E0.00883
G1 X41.802 Y123.331 E0.01147
G1 X41.552 Y123.052 E0.01174
G1 X41.364 Y122.728 E0.01174
G1 X41.249 Y122.372 E0.01174
G1 X41.210 Y122.000 E0.01174
G1 X41.248 Y121.636 E0.01147
G1 X41.327 Y121.366 E0.00883
G1 X41.482 Y121.050 E0.01103
G1 X41.712 Y120.756 E0.01171
G1 X41.999 Y120.516 E0.01174
G1 X42.329 Y120.340 E0.01174
G1 X42.679 Y120.240 E0.01141
G1 X42.948 Y120.211 E0.00847
G1 X43.311 Y120.237 E0.01141
G1 X43.661 Y120.337 E0.01141
G1 X43.904 Y120.456 E0.00847
G1 X44.198 Y120.669 E0.01141
G1 X44.448 Y120.948 E0.01174
G1 X44.636 Y121.272 E0.01174
G1 X44.751 Y121.628 E0.01174
G1 X44.784 Y121.940 E0.00985
M204 S1250
G1 X44.409 Y121.980 F9000.000
M204 S800
;TYPE:External perimeter
G1 F1200.000
G1 X44.380 Y122.293 E0.00988
G1 X44.289 Y122.574 E0.00925
G1 X44.144 Y122.826 E0.00913
G1 X44.012 Y122.983 E0.00640
G1 X43.789 Y123.170 E0.00913
G1 X43.532 Y123.307 E0.00913
G1 X43.338 Y123.370 E0.00640
G1 X43.049 Y123.410 E0.00913
G1 X42.755 Y123.390 E0.00924
G1 X42.486 Y123.313 E0.00879
G1 X42.292 Y123.220 E0.00674
G1 X42.056 Y123.049 E0.00916
G1 X41.858 Y122.830 E0.00925
G1 X41.711 Y122.574 E0.00925
G1 X41.620 Y122.293 E0.00925
G1 X41.589 Y122.000 E0.00925
G1 X41.619 Y121.710 E0.00916
G1 X41.680 Y121.503 E0.00674
G1 X41.803 Y121.252 E0.00879
G1 X41.985 Y121.020 E0.00924
G1 X42.211 Y120.830 E0.00925
G1 X42.471 Y120.691 E0.00925
G1 X42.751 Y120.611 E0.00913
G1 X42.954 Y120.590 E0.00640
G1 X43.245 Y120.610 E0.00913
G1 X43.525 Y120.690 E0.00913
G1 X43.709 Y120.780 E0.00640
G1 X43.944 Y120.951 E0.00913
G1 X44.142 Y121.170 E0.00925
G1 X44.289 Y121.426 E0.00925
G1 X44.380 Y121.707 E0.00925
G1 X44.403 Y121.920 E0.00673
M204 S1250
G1 X44.684 Y122.134 F9000.000
G1 E-2.24000 F4200.000
;WIPE_START
G1 F7200.000
G1 X44.380 Y122.293 E-0.20727
G1 X44.289 Y122.574 E-0.16350
G1 X44.144 Y122.826 E-0.16145
G1 X44.012 Y122.983 E-0.11315
G1 X43.789 Y123.170 E-0.16145
G1 X43.622 Y123.259 E-0.10518
;WIPE_END
G1 E-0.04800 F4200.000
G1 Z0.400 F9000.000
G1 X66.656 Y80.792
G1 Z0.200
G1 E3.20000 F2400.000
M204 S800
;TYPE:Perimeter
G1 F1200.000
G1 X66.260 Y80.544 E0.01464
G1 X65.906 Y80.287 E0.01373
G1 X65.526 Y79.971 E0.01550
G1 X65.189 Y79.646 E0.01467
G1 X64.877 Y79.299 E0.01464
G1 X64.590 Y78.931 E0.01464
G1 X64.329 Y78.544 E0.01464
G1 X64.095 Y78.140 E0.01464
G1 X63.891 Y77.720 E0.01464
G1 X63.716 Y77.287 E0.01464
G1 X63.572 Y76.843 E0.01464
G1 X63.459 Y76.390 E0.01464
G1 X63.377 Y75.930 E0.01467
G1 X63.328 Y75.438 E0.01550
G1 X63.312 Y75.000 E0.01373
G1 X63.329 Y74.533 E0.01464
G1 X63.378 Y74.068 E0.01467
G1 X63.466 Y73.582 E0.01550
