; generated by PrusaSlicer 2.3.3+win64 on 2021-10-23 at 06:47:20 UTC


;
;

;
;
; 

; external perimeters extrusion width = 0.45mm
; perimeters extrusion width = 0.45mm
; infill extrusion width = 0.45mm
; solid infill extrusion width = 0.45mm
; top infill extrusion width = 0.40mm
; first layer extrusion width = 0.42mm

M73 P0 R102
M201 X1250 Y1250 Z400 E5000 ; sets maximum accelerations, mm/sec^2
M203 X180 Y180 Z12 E80 ; sets maximum feedrates, mm/sec
M204 P1250 R1250 T1250 ; sets acceleration (P, T) and retract acceleration (R), mm/sec^2
M205 X8.00 Y8.00 Z2.00 E10.00 ; sets the jerk limits, mm/sec
M205 S0 T0 ; sets the minimum extruding and travel feed rate, mm/sec
M107
;TYPE:Custom
G90 ; use absolute coordinates
M83 ; extruder relative mode
M104 S170 ; set extruder temp for bed leveling
M140 S60 ; set bed temp
M109 R170 ; wait for bed leveling temp
M190 S60 ; wait for bed temp
G28 ; home all without mesh bed level
G29 ; mesh bed leveling 
M104 S215 ; set extruder temp
G92 E0.0
G1 Y-2.0 X179 F2400
G1 Z3 F720
M109 S215 ; wait for extruder temp

; intro line
G1 X170 F1000
G1 Z0.2 F720
G1 X110.0 E8.0 F900
G1 X40.0 E10.0 F700
G92 E0.0

M221 S95 ; set flow
G21 ; set units to millimeters
G90 ; use absolute coordinates
M83 ; use relative distances for extrusion
M900 K0.2 ; Filament gcode LA 1.5
; ; Filament gcode LA 1.0
;LAYER_CHANGE
;Z:0.2
;HEIGHT:0.2
;BEFORE_LAYER_CHANGE
G92 E0.0
;0.2


G1 E-3.20000 F4200.000
G1 Z0.200 F9000.000
;AFTER_LAYER_CHANGE
;0.2
G1 Z0.400
G1 X39.265 Y52.740
G1 Z0.200
G1 E3.20000 F2400.000
M204 S800
;TYPE:Skirt
;WIDTH:0.42
G1 F1200.000
G1 X39.991 Y52.623 E0.02308
G1 X140.004 Y52.623 E3.13582
G1 X140.902 Y52.801 E0.02872
G1 X141.667 Y53.305 E0.02872
G1 X142.184 Y54.062 E0.02872
G1 X142.377 Y54.957 E0.02872
G1 X142.377 Y125.030 E2.19710
G1 X142.306 Y125.577 E0.01728
G1 X142.111 Y126.092 E0.01728
G1 X141.803 Y126.549 E0.01728
G1 X141.395 Y126.925 E0.01740
G1 X140.735 Y127.260 E0.02319
G1 X140.009 Y127.377 E0.02308
G1 X39.989 Y127.377 E3.13606
G1 X39.434 Y127.309 E0.01752
G1 X38.914 Y127.115 E0.01740
G1 X38.451 Y126.803 E0.01752
G1 X38.075 Y126.395 E0.01740
G1 X37.742 Y125.743 E0.02296
G1 X37.623 Y125.016 E0.02308
G1 X37.623 Y54.981 E2.19591
M73 P0 R101
G1 X37.692 Y54.430 E0.01740
G1 X37.887 Y53.911 E0.01740
G1 X38.197 Y53.451 E0.01740
G1 X38.605 Y53.075 E0.01740
G1 X39.211 Y52.767 E0.02131
M204 S1250
; printing object road_blocker rev_3_cover_ido.stl id:0 copy 0
G1 E-2.24000 F4200.000
;WIPE_START
G1 F7200.000
G1 X39.991 Y52.623 E-0.43962
G1 X40.844 Y52.623 E-0.47238
;WIPE_END
G1 E-0.04800 F4200.000
G1 Z0.400 F9000.000
G1 X135.439 Y121.025
G1 Z0.200
G1 E3.20000 F2400.000
M204 S800
;TYPE:Perimeter
G1 F1200.000
G1 X135.676 Y120.722 E0.01206
G1 X135.971 Y120.474 E0.01206
G1 X136.301 Y120.298 E0.01174
G1 X136.565 Y120.213 E0.00869
G1 X136.926 Y120.162 E0.01142
G1 X137.202 Y120.172 E0.00869
G1 X137.569 Y120.250 E0.01174
G1 X137.920 Y120.406 E0.01206
G1 X138.231 Y120.632 E0.01206
G1 X138.489 Y120.918 E0.01206
G1 X138.681 Y121.251 E0.01206
G1 X138.800 Y121.617 E0.01206
G1 X138.840 Y122.000 E0.01206
G1 X138.800 Y122.383 E0.01206
G1 X138.682 Y122.747 E0.01203
G1 X138.504 Y123.058 E0.01123
G1 X138.318 Y123.284 E0.00916
G1 X138.029 Y123.526 E0.01181
G1 X137.699 Y123.702 E0.01174
G1 X137.435 Y123.787 E0.00869
G1 X137.064 Y123.839 E0.01174
G1 X136.680 Y123.812 E0.01206
G1 X136.311 Y123.706 E0.01206
G1 X135.980 Y123.531 E0.01174
G1 X135.762 Y123.360 E0.00869
G1 X135.511 Y123.082 E0.01174
G1 X135.319 Y122.749 E0.01206
G1 X135.200 Y122.383 E0.01206
G1 X135.160 Y122.000 E0.01206
G1 X135.199 Y121.628 E0.01174
G1 X135.275 Y121.361 E0.00869
G1 X135.413 Y121.079 E0.00986
M204 S1250
G1 X135.752 Y121.244 F9000.000
M204 S800
;TYPE:External perimeter
G1 F1200.000
G1 X135.949 Y120.985 E0.01020
G1 X136.183 Y120.789 E0.00958
G1 X136.449 Y120.647 E0.00946
G1 X136.650 Y120.582 E0.00662
G1 X136.945 Y120.540 E0.00935
G1 X137.156 Y120.547 E0.00662
G1 X137.452 Y120.610 E0.00946
G1 X137.731 Y120.734 E0.00958
G1 X137.978 Y120.914 E0.00958
G1 X138.182 Y121.141 E0.00958
G1 X138.335 Y121.406 E0.00958
G1 X138.429 Y121.696 E0.00958
G1 X138.461 Y122.000 E0.00958
G1 X138.429 Y122.304 E0.00958
G1 X138.335 Y122.594 E0.00957
G1 X138.193 Y122.843 E0.00900
G1 X138.049 Y123.017 E0.00707
G1 X137.817 Y123.211 E0.00949
G1 X137.551 Y123.353 E0.00946
G1 X137.350 Y123.418 E0.00662
G1 X137.051 Y123.460 E0.00946
G1 X136.746 Y123.439 E0.00958
G1 X136.453 Y123.355 E0.00958
G1 X136.186 Y123.213 E0.00946
G1 X136.020 Y123.083 E0.00662
G1 X135.818 Y122.859 E0.00946
G1 X135.665 Y122.594 E0.00958
G1 X135.571 Y122.304 E0.00958
G1 X135.539 Y122.000 E0.00958
G1 X135.570 Y121.700 E0.00946
G1 X135.628 Y121.497 E0.00662
G1 X135.726 Y121.298 E0.00694
M204 S1250
G1 X135.599 Y120.956 F9000.000
G1 E-2.24000 F4200.000
;WIPE_START
G1 F7200.000
G1 X135.949 Y120.985 E-0.21306
G1 X136.183 Y120.789 E-0.16929
G1 X136.449 Y120.647 E-0.16724
G1 X136.650 Y120.582 E-0.11702
G1 X136.945 Y120.540 E-0.16519
G1 X137.090 Y120.545 E-0.08020
;WIPE_END
G1 E-0.04800 F4200.000
G1 Z0.400 F9000.000
G1 X138.246 Y123.836
G1 Z0.200
G1 E3.20000 F2400.000
M204 S800
;TYPE:Perimeter
G1 F1200.000
G1 X138.587 Y123.550 E0.01393
G1 X138.836 Y123.237 E0.01255
G1 X138.836 Y123.836 E0.01877
G1 X138.306 Y123.836 E0.01660
M204 S1250
G1 E-2.24000 F4200.000
;WIPE_START
G1 F7200.000
G1 X138.587 Y123.550 E-0.22169
G1 X138.836 Y123.237 E-0.22177
G1 X138.836 Y123.836 E-0.33167
G1 X138.589 Y123.836 E-0.13688
;WIPE_END
G1 E-0.04800 F4200.000
G1 Z0.400 F9000.000
G1 X138.836 Y56.765
G1 Z0.200
G1 E3.20000 F2400.000
M204 S800
G1 F1200.000
G1 X138.796 Y56.695 E0.00252
G1 X138.485 Y56.351 E0.01455
G1 X138.229 Y56.164 E0.00994
G1 X138.836 Y56.164 E0.01904
G1 X138.836 Y56.705 E0.01695
M204 S1250
G1 X138.489 Y56.918 F9000.000
M204 S800
G1 F1200.000
G1 X138.681 Y57.251 E0.01206
G1 X138.800 Y57.617 E0.01206
G1 X138.840 Y58.000 E0.01206
G1 X138.801 Y58.372 E0.01174
G1 X138.725 Y58.639 E0.00869
G1 X138.561 Y58.975 E0.01174
G1 X138.324 Y59.278 E0.01206
G1 X138.029 Y59.526 E0.01206
G1 X137.689 Y59.706 E0.01206
G1 X137.330 Y59.810 E0.01174
G1 X137.064 Y59.838 E0.00837
G1 X136.798 Y59.828 E0.00837
G1 X136.431 Y59.750 E0.01174
G1 X136.080 Y59.594 E0.01206
G1 X135.769 Y59.368 E0.01206
G1 X135.511 Y59.082 E0.01206
G1 X135.319 Y58.749 E0.01206
G1 X135.200 Y58.383 E0.01206
G1 X135.160 Y58.000 E0.01206
G1 X135.200 Y57.617 E0.01206
G1 X135.318 Y57.253 E0.01203
G1 X135.496 Y56.942 E0.01123
G1 X135.682 Y56.716 E0.00916
G1 X135.971 Y56.474 E0.01181
G1 X136.301 Y56.298 E0.01174
G1 X136.565 Y56.213 E0.00869
G1 X136.936 Y56.161 E0.01174
G1 X137.320 Y56.188 E0.01206
G1 X137.680 Y56.291 E0.01174
G1 X137.929 Y56.412 E0.00869
G1 X138.231 Y56.632 E0.01174
G1 X138.449 Y56.874 E0.01018
M204 S1250
G1 X138.169 Y57.126 F9000.000
M204 S800
;TYPE:External perimeter
G1 F1200.000
G1 X138.335 Y57.406 E0.01020
G1 X138.429 Y57.696 E0.00958
G1 X138.461 Y58.000 E0.00958
G1 X138.430 Y58.300 E0.00946
G1 X138.372 Y58.503 E0.00662
G1 X138.239 Y58.774 E0.00946
G1 X138.051 Y59.015 E0.00958
G1 X137.817 Y59.211 E0.00958
G1 X137.547 Y59.355 E0.00958
G1 X137.257 Y59.438 E0.00946
G1 X137.051 Y59.460 E0.00651
G1 X136.844 Y59.453 E0.00650
G1 X136.548 Y59.390 E0.00946
G1 X136.269 Y59.266 E0.00958
G1 X136.022 Y59.086 E0.00958
G1 X135.818 Y58.859 E0.00958
G1 X135.665 Y58.594 E0.00958
G1 X135.571 Y58.304 E0.00958
G1 X135.539 Y58.000 E0.00958
G1 X135.571 Y57.696 E0.00958
G1 X135.665 Y57.406 E0.00957
G1 X135.807 Y57.157 E0.00900
G1 X135.951 Y56.983 E0.00707
G1 X136.183 Y56.789 E0.00949
G1 X136.449 Y56.647 E0.00946
G1 X136.650 Y56.582 E0.00662
G1 X136.949 Y56.540 E0.00946
G1 X137.254 Y56.561 E0.00958
G1 X137.544 Y56.644 E0.00946
G1 X137.734 Y56.737 E0.00662
G1 X137.978 Y56.914 E0.00946
G1 X138.128 Y57.081 E0.00706
M204 S1250
G1 X138.492 Y57.089 F9000.000
G1 E-2.24000 F4200.000
;WIPE_START
G1 F7200.000
G1 X138.335 Y57.406 E-0.21305
G1 X138.429 Y57.696 E-0.16929
G1 X138.461 Y58.000 E-0.16929
G1 X138.430 Y58.300 E-0.16724
G1 X138.372 Y58.503 E-0.11701
G1 X138.311 Y58.627 E-0.07610
;WIPE_END
G1 E-0.04800 F4200.000
G1 Z0.400 F9000.000
G1 X115.991 Y71.256
G1 Z0.200
G1 E3.20000 F2400.000
M204 S800
;TYPE:Perimeter
G1 F1200.000
G1 X116.238 Y71.683 E0.01546
G1 X116.454 Y72.126 E0.01546
G1 X116.639 Y72.584 E0.01546
G1 X116.791 Y73.053 E0.01546
G1 X116.910 Y73.531 E0.01546
G1 X116.996 Y74.019 E0.01553
G1 X117.049 Y74.537 E0.01632
G1 X117.065 Y75.000 E0.01453
G1 X117.048 Y75.493 E0.01546
G1 X116.996 Y75.983 E0.01546
G1 X116.910 Y76.469 E0.01546
G1 X116.791 Y76.947 E0.01546
G1 X116.638 Y77.418 E0.01553
G1 X116.441 Y77.900 E0.01632
G1 X116.238 Y78.317 E0.01453
G1 X115.991 Y78.744 E0.01546
G1 X115.716 Y79.153 E0.01546
G1 X115.412 Y79.541 E0.01546
G1 X115.082 Y79.908 E0.01546
G1 X114.727 Y80.250 E0.01546
G1 X114.350 Y80.567 E0.01546
G1 X113.951 Y80.857 E0.01546
G1 X113.532 Y81.118 E0.01546
G1 X113.097 Y81.350 E0.01546
G1 X112.674 Y81.538 E0.01453
G1 X112.185 Y81.719 E0.01632
G1 X111.709 Y81.855 E0.01553
G1 X111.227 Y81.958 E0.01546
G1 X110.738 Y82.026 E0.01546
G1 X110.247 Y82.061 E0.01546
G1 X109.753 Y82.061 E0.01546
G1 X109.262 Y82.026 E0.01546
G1 X108.773 Y81.958 E0.01546
G1 X108.291 Y81.855 E0.01546
G1 X107.845 Y81.727 E0.01453
G1 X107.355 Y81.551 E0.01632
G1 X106.903 Y81.350 E0.01553
G1 X106.468 Y81.118 E0.01546
G1 X106.049 Y80.857 E0.01546
G1 X105.674 Y80.585 E0.01453
G1 X105.274 Y80.252 E0.01632
G1 X104.918 Y79.908 E0.01553
G1 X104.588 Y79.541 E0.01546
G1 X104.284 Y79.153 E0.01546
G1 X104.009 Y78.744 E0.01546
G1 X103.762 Y78.317 E0.01546
G1 X103.546 Y77.874 E0.01546
G1 X103.361 Y77.416 E0.01546
G1 X103.209 Y76.947 E0.01546
G1 X103.090 Y76.469 E0.01546
G1 X103.004 Y75.981 E0.01553
G1 X102.951 Y75.463 E0.01632
G1 X102.935 Y75.000 E0.01453
G1 X102.952 Y74.507 E0.01546
G1 X103.004 Y74.017 E0.01546
G1 X103.090 Y73.531 E0.01546
G1 X103.209 Y73.053 E0.01546
G1 X103.361 Y72.584 E0.01546
G1 X103.546 Y72.126 E0.01546
G1 X103.762 Y71.683 E0.01546
G1 X104.009 Y71.256 E0.01546
G1 X104.284 Y70.847 E0.01546
G1 X104.588 Y70.459 E0.01546
G1 X104.918 Y70.092 E0.01546
G1 X105.273 Y69.750 E0.01546
G1 X105.650 Y69.433 E0.01546
G1 X106.049 Y69.143 E0.01546
G1 X106.442 Y68.897 E0.01453
G1 X106.901 Y68.651 E0.01632
G1 X107.353 Y68.450 E0.01553
G1 X107.789 Y68.291 E0.01453
G1 X108.289 Y68.145 E0.01632
G1 X108.773 Y68.042 E0.01553
G1 X109.262 Y67.974 E0.01546
G1 X109.753 Y67.939 E0.01546
G1 X110.247 Y67.939 E0.01546
G1 X110.738 Y67.974 E0.01546
G1 X111.227 Y68.042 E0.01546
G1 X111.709 Y68.145 E0.01546
G1 X112.183 Y68.281 E0.01546
G1 X112.647 Y68.450 E0.01546
G1 X113.097 Y68.650 E0.01546
G1 X113.532 Y68.882 E0.01546
G1 X113.951 Y69.143 E0.01546
G1 X114.326 Y69.415 E0.01453
G1 X114.726 Y69.748 E0.01632
G1 X115.082 Y70.092 E0.01553
G1 X115.412 Y70.459 E0.01546
G1 X115.716 Y70.847 E0.01546
G1 X115.958 Y71.206 E0.01358
M204 S1250
G1 X115.645 Y71.417 F9000.000
M204 S800
G1 F1200.000
G1 X115.905 Y71.860 E0.01610
G1 X116.109 Y72.280 E0.01464
G1 X116.284 Y72.713 E0.01464
G1 X116.428 Y73.157 E0.01464
G1 X116.541 Y73.610 E0.01464
G1 X116.623 Y74.070 E0.01467
G1 X116.672 Y74.562 E0.01550
G1 X116.688 Y75.000 E0.01373
G1 X116.671 Y75.467 E0.01464
G1 X116.622 Y75.931 E0.01464
G1 X116.541 Y76.390 E0.01464
G1 X116.428 Y76.843 E0.01464
G1 X116.284 Y77.288 E0.01467
G1 X116.097 Y77.746 E0.01550
G1 X115.905 Y78.140 E0.01373
G1 X115.671 Y78.544 E0.01464
G1 X115.410 Y78.931 E0.01464
G1 X115.123 Y79.299 E0.01464
G1 X114.811 Y79.646 E0.01464
G1 X114.475 Y79.970 E0.01464
G1 X114.117 Y80.270 E0.01464
G1 X113.740 Y80.544 E0.01464
G1 X113.344 Y80.792 E0.01464
G1 X112.932 Y81.011 E0.01464
G1 X112.532 Y81.189 E0.01373
G1 X112.068 Y81.360 E0.01550
G1 X111.618 Y81.489 E0.01467
G1 X111.161 Y81.586 E0.01464
G1 X110.699 Y81.651 E0.01464
G1 X110.233 Y81.683 E0.01464
G1 X109.767 Y81.683 E0.01464
G1 X109.301 Y81.651 E0.01464
G1 X108.839 Y81.586 E0.01464
G1 X108.382 Y81.489 E0.01464
G1 X107.961 Y81.368 E0.01373
G1 X107.496 Y81.201 E0.01550
G1 X107.068 Y81.011 E0.01467
G1 X106.656 Y80.792 E0.01464
G1 X106.260 Y80.544 E0.01464
G1 X105.906 Y80.287 E0.01373
G1 X105.526 Y79.971 E0.01550
G1 X105.189 Y79.646 E0.01467
G1 X104.877 Y79.299 E0.01464
G1 X104.590 Y78.931 E0.01464
G1 X104.329 Y78.544 E0.01464
G1 X104.095 Y78.140 E0.01464
G1 X103.891 Y77.720 E0.01464
G1 X103.716 Y77.287 E0.01464
G1 X103.572 Y76.843 E0.01464
G1 X103.459 Y76.390 E0.01464
G1 X103.377 Y75.930 E0.01467
G1 X103.328 Y75.438 E0.01550
G1 X103.312 Y75.000 E0.01373
G1 X103.329 Y74.533 E0.01464
G1 X103.378 Y74.069 E0.01464
G1 X103.459 Y73.610 E0.01464
G1 X103.572 Y73.157 E0.01464
G1 X103.716 Y72.713 E0.01464
G1 X103.891 Y72.280 E0.01464
G1 X104.095 Y71.860 E0.01464
G1 X104.329 Y71.456 E0.01464
G1 X104.590 Y71.069 E0.01464
G1 X104.877 Y70.701 E0.01464
G1 X105.189 Y70.354 E0.01464
G1 X105.525 Y70.030 E0.01464
G1 X105.883 Y69.730 E0.01464
G1 X106.260 Y69.456 E0.01464
G1 X106.632 Y69.224 E0.01373
G1 X107.067 Y68.990 E0.01550
G1 X107.495 Y68.799 E0.01467
G1 X107.906 Y68.650 E0.01373
G1 X108.381 Y68.511 E0.01550
G1 X108.839 Y68.414 E0.01467
G1 X109.301 Y68.349 E0.01464
G1 X109.767 Y68.317 E0.01464
G1 X110.233 Y68.317 E0.01464
G1 X110.699 Y68.349 E0.01464
G1 X111.161 Y68.414 E0.01464
G1 X111.618 Y68.511 E0.01464
G1 X112.067 Y68.640 E0.01464
G1 X112.505 Y68.799 E0.01464
G1 X112.932 Y68.989 E0.01464
G1 X113.344 Y69.208 E0.01464
G1 X113.740 Y69.456 E0.01464
G1 X114.094 Y69.713 E0.01373
G1 X114.474 Y70.029 E0.01550
G1 X114.811 Y70.354 E0.01467
G1 X115.123 Y70.701 E0.01464
G1 X115.410 Y71.069 E0.01464
G1 X115.612 Y71.368 E0.01129
M204 S1250
G1 X115.299 Y71.578 F9000.000
M204 S800
;TYPE:External perimeter
G1 F1200.000
G1 X115.572 Y72.038 E0.01674
G1 X115.765 Y72.433 E0.01381
G1 X115.930 Y72.842 E0.01381
G1 X116.066 Y73.261 E0.01381
G1 X116.172 Y73.688 E0.01381
G1 X116.249 Y74.122 E0.01382
G1 X116.296 Y74.588 E0.01467
G1 X116.310 Y75.000 E0.01293
G1 X116.295 Y75.440 E0.01381
G1 X116.249 Y75.878 E0.01381
G1 X116.172 Y76.312 E0.01381
G1 X116.066 Y76.739 E0.01381
G1 X115.930 Y77.159 E0.01382
G1 X115.752 Y77.592 E0.01467
G1 X115.572 Y77.962 E0.01293
G1 X115.351 Y78.344 E0.01381
G1 X115.105 Y78.709 E0.01381
G1 X114.834 Y79.056 E0.01381
G1 X114.539 Y79.383 E0.01381
G1 X114.222 Y79.689 E0.01381
G1 X113.885 Y79.973 E0.01381
G1 X113.529 Y80.231 E0.01381
G1 X113.155 Y80.465 E0.01381
G1 X112.766 Y80.672 E0.01381
G1 X112.389 Y80.839 E0.01293
G1 X111.950 Y81.001 E0.01467
G1 X111.527 Y81.123 E0.01382
G1 X111.096 Y81.214 E0.01381
G1 X110.660 Y81.276 E0.01381
G1 X110.220 Y81.306 E0.01381
G1 X109.780 Y81.306 E0.01381
G1 X109.340 Y81.276 E0.01381
G1 X108.904 Y81.214 E0.01381
G1 X108.473 Y81.123 E0.01381
G1 X108.077 Y81.009 E0.01293
G1 X107.637 Y80.851 E0.01467
G1 X107.234 Y80.672 E0.01382
G1 X106.845 Y80.465 E0.01381
G1 X106.471 Y80.231 E0.01381
G1 X106.138 Y79.989 E0.01293
G1 X105.778 Y79.690 E0.01467
G1 X105.461 Y79.383 E0.01382
G1 X105.166 Y79.056 E0.01381
G1 X104.895 Y78.709 E0.01381
G1 X104.649 Y78.344 E0.01381
G1 X104.428 Y77.962 E0.01381
G1 X104.235 Y77.567 E0.01381
G1 X104.070 Y77.158 E0.01381
G1 X103.934 Y76.739 E0.01381
G1 X103.828 Y76.312 E0.01381
G1 X103.751 Y75.878 E0.01382
G1 X103.704 Y75.412 E0.01467
G1 X103.690 Y75.000 E0.01293
G1 X103.705 Y74.560 E0.01381
G1 X103.751 Y74.122 E0.01381
G1 X103.828 Y73.688 E0.01381
G1 X103.934 Y73.261 E0.01381
G1 X104.070 Y72.842 E0.01381
G1 X104.235 Y72.433 E0.01381
G1 X104.428 Y72.038 E0.01381
G1 X104.649 Y71.656 E0.01381
G1 X104.895 Y71.291 E0.01381
G1 X105.166 Y70.944 E0.01381
G1 X105.461 Y70.617 E0.01381
G1 X105.778 Y70.311 E0.01381
G1 X106.115 Y70.027 E0.01381
G1 X106.471 Y69.769 E0.01381
G1 X106.821 Y69.550 E0.01293
G1 X107.233 Y69.329 E0.01467
G1 X107.636 Y69.149 E0.01382
G1 X108.024 Y69.008 E0.01293
G1 X108.473 Y68.877 E0.01467
G1 X108.904 Y68.786 E0.01382
G1 X109.340 Y68.724 E0.01381
G1 X109.780 Y68.694 E0.01381
G1 X110.220 Y68.694 E0.01381
G1 X110.660 Y68.724 E0.01381
G1 X111.096 Y68.786 E0.01381
G1 X111.527 Y68.877 E0.01381
G1 X111.950 Y68.999 E0.01381
G1 X112.364 Y69.149 E0.01381
G1 X112.766 Y69.328 E0.01381
G1 X113.155 Y69.535 E0.01381
G1 X113.529 Y69.769 E0.01381
G1 X113.862 Y70.011 E0.01293
G1 X114.222 Y70.310 E0.01467
G1 X114.539 Y70.617 E0.01382
