; generated by PrusaSlicer 2.5.0+win64 on 2022-10-27 at 09:37:54 UTC


;
;

;
;
; 

; external perimeters extrusion width = 0.45mm
; perimeters extrusion width = 0.45mm
; infill extrusion width = 0.45mm
; solid infill extrusion width = 0.45mm
; top infill extrusion width = 0.40mm
; support material extrusion width = 0.35mm
; first layer extrusion width = 0.42mm

M73 P0 R7
M201 X2500 Y2500 Z400 E5000 ; sets maximum accelerations, mm/sec^2
M203 X180 Y180 Z12 E80 ; sets maximum feedrates, mm / sec
M204 P1250 R1250 T2500 ; sets acceleration (P, T) and retract acceleration (R), mm/sec^2
M205 X8.00 Y8.00 Z2.00 E10.00 ; sets the jerk limits, mm/sec
M205 S0 T0 ; sets the minimum extruding and travel feed rate, mm/sec
M107
;TYPE:Custom
M862.3 P "MINI" ; printer model check
G90 ; use absolute coordinates
M83 ; extruder relative mode
M104 S170 ; set extruder temp for bed leveling
M140 S60 ; set bed temp
M109 R170 ; wait for bed leveling temp
M190 S60 ; wait for bed temp
M204 T1250 ; set travel acceleration
G28 ; home all without mesh bed level
G29 ; mesh bed leveling 
M204 T2500 ; restore travel acceleration
M104 S215 ; set extruder temp
G92 E0
G1 Y-2 X179 F2400
G1 Z3 F720
M109 S215 ; wait for extruder temp

; intro line
M73 P1 R7
G1 X170 F1000
G1 Z0.2 F720
G1 X110 E8 F900
G1 X40 E10 F700
G92 E0

M221 S95 ; set flow
G21 ; set units to millimeters
G90 ; use absolute coordinates
M83 ; use relative distances for extrusion
M900 K0.2 ; Filament gcode LA 1.5
; ; Filament gcode LA 1.0
M107
;LAYER_CHANGE
;Z:0.2
;HEIGHT:0.2
;BEFORE_LAYER_CHANGE
G92 E0.0
;0.2


M73 P2 R7
G1 E-3.2 F4200
M73 P3 R6
G1 Z.2 F720
;AFTER_LAYER_CHANGE
;0.2
G1 Z.4
G1 X73.405 Y77.269 F9000
G1 Z.2 F720
G1 E3.2 F2400
M204 P800
;TYPE:Skirt/Brim
;WIDTH:0.42
G1 F1200
G1 X74.7 Y76.946 E.04186
G1 X105.3 Y76.946 E.95944
G1 X106.717 Y77.339 E.04612
M73 P4 R6
G1 X107.731 Y78.405 E.04612
G1 X108.054 Y79.7 E.04186
G1 X108.054 Y100.3 E.6459
G1 X107.661 Y101.717 E.04612
G1 X106.595 Y102.731 E.04612
G1 X105.3 Y103.054 E.04186
G1 X74.7 Y103.054 E.95944
G1 X73.283 Y102.661 E.04612
G1 X72.269 Y101.595 E.04612
G1 X71.946 Y100.3 E.04186
G1 X71.946 Y79.7 E.6459
G1 X72.339 Y78.283 E.04612
M73 P5 R6
G1 X73.361 Y77.311 E.04424
M204 P1000
G1 X73.627 Y77.628 F9000
M204 P800
G1 F1200
G1 X73.76 Y77.517 E.00544
G1 X74.7 Y77.323 E.03008
G1 X105.3 Y77.323 E.95944
G1 X106.607 Y77.715 E.04278
G1 X107.483 Y78.76 E.04278
G1 X107.677 Y79.7 E.03008
G1 X107.677 Y100.3 E.6459
G1 X107.285 Y101.607 E.04278
G1 X106.24 Y102.483 E.04278
G1 X105.3 Y102.677 E.03008
G1 X74.7 Y102.677 E.95944
G1 X73.393 Y102.285 E.04278
M73 P6 R6
G1 X72.517 Y101.24 E.04278
G1 X72.323 Y100.3 E.03008
G1 X72.323 Y79.7 E.6459
G1 X72.715 Y78.393 E.04278
G1 X73.581 Y77.667 E.03546
M204 P1000
; printing object kcd1-11_switch.stl id:0 copy 0
G1 E-2.24 F4200
;WIPE_START
G1 F7200
G1 X73.76 Y77.517 E-.12943
G1 X74.7 Y77.323 E-.53172
G1 X75.153 Y77.323 E-.25085
;WIPE_END
G1 E-.048 F4200
G1 Z.4 F720
G1 X85.789 Y85.361 F9000
G1 X83.211 Y85.361
G1 X83.211 Y94.639
G1 X96.789 Y94.639
G1 X96.789 Y93.675
G1 X104.513 Y99.513
G1 Z.2 F720
G1 E3.2 F2400
M204 P800
;TYPE:Perimeter
;WIDTH:0.419999
G1 F1200
G1 X75.487 Y99.513 E.91008
G1 X75.487 Y80.487 E.59654
M73 P7 R6
G1 X104.513 Y80.487 E.91008
G1 X104.513 Y99.453 E.59466
M204 P1000
G1 X104.89 Y99.89 F9000
M204 P800
;TYPE:External perimeter
G1 F1200
G1 X75.11 Y99.89 E.93373
G1 X75.11 Y80.11 E.62019
M73 P8 R6
G1 X104.89 Y80.11 E.93373
G1 X104.89 Y99.83 E.61831
M204 P1000
G1 X104.498 Y99.812 F9000
M73 P9 R6
G1 E-3.2 F4200
G1 Z.4 F720
G1 X97.367 Y94.752 F9000
G1 Z.2 F720
G1 E3.2 F2400
M204 P800
;TYPE:Perimeter
G1 F1200
G1 X97.32 Y94.939 E.00603
G1 X97.132 Y95.144 E.00872
G1 X96.919 Y95.229 E.00718
G1 X96.821 Y95.237 E.00308
G1 X83.179 Y95.237 E.42776
G1 X82.868 Y95.144 E.01016
G1 X82.68 Y94.939 E.00872
G1 X82.613 Y94.671 E.00865
G1 X82.613 Y85.329 E.29294
G1 X82.68 Y85.061 E.00865
G1 X82.868 Y84.856 E.00872
G1 X83.081 Y84.771 E.00718
G1 X83.179 Y84.763 E.00308
G1 X96.821 Y84.763 E.42776
G1 X97.132 Y84.856 E.01016
G1 X97.32 Y85.061 E.00872
G1 X97.387 Y85.329 E.00865
G1 X97.381 Y94.694 E.29365
M204 P1000
G1 X97.01 Y94.671 F9000
M204 P800
;TYPE:External perimeter
G1 F1200
G1 X96.962 Y94.797 E.00421
G1 X96.821 Y94.86 E.00484
G1 X83.179 Y94.86 E.42776
G1 X83.038 Y94.797 E.00484
G1 X82.99 Y94.671 E.00421
G1 X82.99 Y85.329 E.29294
G1 X83.038 Y85.203 E.00421
M73 P10 R6
G1 X83.179 Y85.14 E.00484
G1 X96.821 Y85.14 E.42776
G1 X96.962 Y85.203 E.00484
G1 X97.01 Y85.329 E.00421
G1 X97.01 Y94.611 E.29106
M204 P1000
G1 X97.107 Y94.764 F9000
G1 E-3.2 F4200
G1 Z.4 F720
G1 X103.634 Y80.6 F9000
G1 Z.2 F720
G1 E3.2 F2400
M204 P800
;TYPE:Solid infill
;WIDTH:0.421696
G1 F1200
G1 X104.23 Y81.196 E.02655
G1 X104.23 Y81.732 E.01687
G1 X103.268 Y80.77 E.04286
G1 X102.732 Y80.77 E.01687
G1 X104.23 Y82.268 E.06672
G1 X104.23 Y82.803 E.01687
G1 X102.197 Y80.77 E.09057
G1 X101.661 Y80.77 E.01687
G1 X104.23 Y83.339 E.11443
G1 X104.23 Y83.875 E.01687
G1 X101.125 Y80.77 E.13829
G1 X100.59 Y80.77 E.01687
G1 X104.23 Y84.41 E.16215
G1 X104.23 Y84.946 E.01687
G1 X100.054 Y80.77 E.18601
G1 X99.518 Y80.77 E.01687
G1 X104.23 Y85.482 E.20987
G1 X104.23 Y86.017 E.01687
G1 X98.983 Y80.77 E.23373
G1 X98.447 Y80.77 E.01687
G1 X104.23 Y86.553 E.25759
G1 X104.23 Y87.089 E.01687
M73 P11 R6
G1 X97.911 Y80.77 E.28145
G1 X97.376 Y80.77 E.01687
G1 X104.23 Y87.624 E.30531
G1 X104.23 Y88.16 E.01687
G1 X96.84 Y80.77 E.32917
G1 X96.304 Y80.77 E.01687
G1 X104.23 Y88.696 E.35303
G1 X104.23 Y89.231 E.01687
G1 X95.769 Y80.77 E.37689
G1 X95.233 Y80.77 E.01687
G1 X104.23 Y89.767 E.40075
G1 X104.23 Y90.303 E.01687
G1 X94.697 Y80.77 E.42461
G1 X94.162 Y80.77 E.01687
M73 P12 R6
G1 X104.23 Y90.838 E.44847
G1 X104.23 Y91.374 E.01687
G1 X93.626 Y80.77 E.47232
G1 X93.09 Y80.77 E.01687
G1 X96.8 Y84.48 E.16526
G1 X97.07 Y84.516 E.00855
G1 X97.287 Y84.618 E.00757
G1 X97.455 Y84.763 E.00699
G1 X97.569 Y84.926 E.00626
G1 X97.636 Y85.09 E.00558
G1 X97.67 Y85.35 E.00824
G1 X104.23 Y91.91 E.2922
G1 X104.23 Y92.445 E.01687
G1 X97.67 Y85.885 E.2922
G1 X97.67 Y86.421 E.01687
G1 X104.23 Y92.981 E.2922
G1 X104.23 Y93.517 E.01687
G1 X97.67 Y86.957 E.2922
G1 X97.67 Y87.492 E.01687
G1 X104.23 Y94.052 E.2922
G1 X104.23 Y94.588 E.01687
M73 P13 R6
G1 X97.67 Y88.028 E.2922
G1 X97.67 Y88.564 E.01687
G1 X104.23 Y95.124 E.2922
G1 X104.23 Y95.659 E.01687
G1 X97.67 Y89.099 E.2922
G1 X97.67 Y89.635 E.01687
G1 X104.23 Y96.195 E.2922
G1 X104.23 Y96.731 E.01687
G1 X97.67 Y90.171 E.2922
G1 X97.67 Y90.706 E.01687
G1 X104.23 Y97.266 E.2922
G1 X104.23 Y97.802 E.01687
G1 X97.67 Y91.242 E.2922
G1 X97.67 Y91.778 E.01687
G1 X104.23 Y98.338 E.2922
G1 X104.23 Y98.873 E.01687
G1 X97.67 Y92.313 E.2922
M73 P14 R6
G1 X97.67 Y92.849 E.01687
G1 X104.051 Y99.23 E.28423
G1 X103.515 Y99.23 E.01687
G1 X97.67 Y93.385 E.26037
G1 X97.67 Y93.92 E.01687
G1 X102.98 Y99.23 E.23651
G1 X102.444 Y99.23 E.01687
G1 X97.67 Y94.456 E.21265
G1 X97.67 Y94.678 E.007
G1 X97.622 Y94.944 E.00851
G1 X101.908 Y99.23 E.19091
G1 X101.373 Y99.23 E.01687
G1 X97.414 Y95.272 E.17631
G1 X97.287 Y95.382 E.00529
G1 X97.084 Y95.477 E.00707
G1 X100.837 Y99.23 E.16717
G1 X100.301 Y99.23 E.01687
G1 X96.591 Y95.52 E.16526
G1 X96.055 Y95.52 E.01687
G1 X99.766 Y99.23 E.16526
G1 X99.23 Y99.23 E.01687
G1 X95.52 Y95.52 E.16526
G1 X94.984 Y95.52 E.01687
G1 X98.694 Y99.23 E.16526
G1 X98.159 Y99.23 E.01687
M73 P15 R6
G1 X94.448 Y95.52 E.16526
G1 X93.913 Y95.52 E.01687
G1 X97.623 Y99.23 E.16526
G1 X97.087 Y99.23 E.01687
G1 X93.377 Y95.52 E.16526
G1 X92.841 Y95.52 E.01687
G1 X96.552 Y99.23 E.16526
G1 X96.016 Y99.23 E.01687
G1 X92.306 Y95.52 E.16526
G1 X91.77 Y95.52 E.01687
G1 X95.48 Y99.23 E.16526
G1 X94.945 Y99.23 E.01687
G1 X91.234 Y95.52 E.16526
G1 X90.699 Y95.52 E.01687
G1 X94.409 Y99.23 E.16526
G1 X93.873 Y99.23 E.01687
G1 X90.163 Y95.52 E.16526
G1 X89.627 Y95.52 E.01687
G1 X93.338 Y99.23 E.16526
G1 X92.802 Y99.23 E.01687
G1 X89.092 Y95.52 E.16526
G1 X88.556 Y95.52 E.01687
G1 X92.266 Y99.23 E.16526
G1 X91.731 Y99.23 E.01687
G1 X88.02 Y95.52 E.16526
G1 X87.485 Y95.52 E.01687
G1 X91.195 Y99.23 E.16526
G1 X90.659 Y99.23 E.01687
M73 P16 R6
G1 X86.949 Y95.52 E.16526
G1 X86.413 Y95.52 E.01687
G1 X90.124 Y99.23 E.16526
G1 X89.588 Y99.23 E.01687
G1 X85.878 Y95.52 E.16526
G1 X85.342 Y95.52 E.01687
G1 X89.052 Y99.23 E.16526
G1 X88.517 Y99.23 E.01687
G1 X84.806 Y95.52 E.16526
G1 X84.271 Y95.52 E.01687
G1 X87.981 Y99.23 E.16526
G1 X87.445 Y99.23 E.01687
M73 P16 R5
G1 X83.565 Y95.35 E.17282
M204 P1000
G1 E-2.24 F4200
;WIPE_START
G1 F7200
G1 X84.729 Y96.514 E-.912
;WIPE_END
G1 E-.048 F4200
G1 Z.4 F720
G1 X97.166 Y95.016 F9000
G1 X97.166 Y84.984
G1 X96.434 Y84.984
G1 X96.434 Y84.65
G1 Z.2 F720
G1 E3.2 F2400
M204 P800
G1 F1200
G1 X92.555 Y80.77 E.17282
G1 X92.019 Y80.77 E.01687
G1 X95.729 Y84.48 E.16526
G1 X95.193 Y84.48 E.01687
G1 X91.483 Y80.77 E.16526
G1 X90.948 Y80.77 E.01687
G1 X94.658 Y84.48 E.16526
G1 X94.122 Y84.48 E.01687
G1 X90.412 Y80.77 E.16526
G1 X89.876 Y80.77 E.01687
G1 X93.586 Y84.48 E.16526
G1 X93.051 Y84.48 E.01687
M73 P17 R5
G1 X89.341 Y80.77 E.16526
G1 X88.805 Y80.77 E.01687
G1 X92.515 Y84.48 E.16526
G1 X91.979 Y84.48 E.01687
G1 X88.269 Y80.77 E.16526
G1 X87.734 Y80.77 E.01687
G1 X91.444 Y84.48 E.16526
G1 X90.908 Y84.48 E.01687
G1 X87.198 Y80.77 E.16526
G1 X86.662 Y80.77 E.01687
G1 X90.372 Y84.48 E.16526
G1 X89.837 Y84.48 E.01687
G1 X86.127 Y80.77 E.16526
G1 X85.591 Y80.77 E.01687
G1 X89.301 Y84.48 E.16526
G1 X88.765 Y84.48 E.01687
G1 X85.055 Y80.77 E.16526
G1 X84.519 Y80.77 E.01687
G1 X88.23 Y84.48 E.16526
G1 X87.694 Y84.48 E.01687
G1 X83.984 Y80.77 E.16526
G1 X83.448 Y80.77 E.01687
G1 X87.158 Y84.48 E.16526
G1 X86.623 Y84.48 E.01687
G1 X82.912 Y80.77 E.16526
G1 X82.377 Y80.77 E.01687
G1 X86.087 Y84.48 E.16526
G1 X85.551 Y84.48 E.01687
M73 P18 R5
G1 X81.841 Y80.77 E.16526
G1 X81.305 Y80.77 E.01687
G1 X85.016 Y84.48 E.16526
G1 X84.48 Y84.48 E.01687
G1 X80.77 Y80.77 E.16526
G1 X80.234 Y80.77 E.01687
G1 X83.944 Y84.48 E.16526
G1 X83.409 Y84.48 E.01687
G1 X79.698 Y80.77 E.16526
G1 X79.163 Y80.77 E.01687
G1 X82.916 Y84.523 E.16717
G1 X82.713 Y84.618 E.00707
G1 X82.585 Y84.728 E.00529
G1 X78.627 Y80.77 E.17631
G1 X78.091 Y80.77 E.01687
G1 X82.378 Y85.056 E.19091
G1 X82.33 Y85.322 E.0085
G1 X82.33 Y85.544 E.00701
G1 X77.556 Y80.77 E.21265
G1 X77.02 Y80.77 E.01687
G1 X82.33 Y86.08 E.23651
G1 X82.33 Y86.616 E.01687
G1 X76.484 Y80.77 E.26037
G1 X75.949 Y80.77 E.01687
G1 X82.33 Y87.151 E.28423
G1 X82.33 Y87.687 E.01687
M73 P19 R5
G1 X75.77 Y81.127 E.2922
G1 X75.77 Y81.662 E.01687
G1 X82.33 Y88.223 E.2922
G1 X82.33 Y88.758 E.01687
G1 X75.77 Y82.198 E.2922
G1 X75.77 Y82.734 E.01687
G1 X82.33 Y89.294 E.2922
G1 X82.33 Y89.83 E.01687
G1 X75.77 Y83.269 E.2922
G1 X75.77 Y83.805 E.01687
G1 X82.33 Y90.365 E.2922
G1 X82.33 Y90.901 E.01687
G1 X75.77 Y84.341 E.2922
G1 X75.77 Y84.876 E.01687
G1 X82.33 Y91.437 E.2922
G1 X82.33 Y91.972 E.01687
G1 X75.77 Y85.412 E.2922
G1 X75.77 Y85.948 E.01687
M73 P20 R5
G1 X82.33 Y92.508 E.2922
G1 X82.33 Y93.044 E.01687
G1 X75.77 Y86.483 E.2922
G1 X75.77 Y87.019 E.01687
G1 X82.33 Y93.579 E.2922
G1 X82.33 Y94.115 E.01687
G1 X75.77 Y87.555 E.2922
G1 X75.77 Y88.09 E.01687
G1 X82.33 Y94.651 E.2922
G1 X82.364 Y94.91 E.00823
G1 X82.431 Y95.074 E.00558
G1 X82.545 Y95.237 E.00626
G1 X82.713 Y95.382 E.00699
G1 X82.93 Y95.484 E.00757
G1 X83.199 Y95.52 E.00855
G1 X86.91 Y99.23 E.16526
G1 X86.374 Y99.23 E.01687
G1 X75.77 Y88.626 E.47232
G1 X75.77 Y89.162 E.01687
G1 X85.838 Y99.23 E.44846
G1 X85.303 Y99.23 E.01687
M73 P21 R5
G1 X75.77 Y89.697 E.4246
G1 X75.77 Y90.233 E.01687
G1 X84.767 Y99.23 E.40074
G1 X84.231 Y99.23 E.01687
G1 X75.77 Y90.769 E.37688
G1 X75.77 Y91.304 E.01687
G1 X83.696 Y99.23 E.35302
G1 X83.16 Y99.23 E.01687
G1 X75.77 Y91.84 E.32916
G1 X75.77 Y92.376 E.01687
G1 X82.624 Y99.23 E.3053
G1 X82.089 Y99.23 E.01687
G1 X75.77 Y92.911 E.28144
G1 X75.77 Y93.447 E.01687
M73 P22 R5
G1 X81.553 Y99.23 E.25758
G1 X81.017 Y99.23 E.01687
G1 X75.77 Y93.983 E.23372
G1 X75.77 Y94.518 E.01687
G1 X80.482 Y99.23 E.20987
G1 X79.946 Y99.23 E.01687
G1 X75.77 Y95.054 E.18601
G1 X75.77 Y95.59 E.01687
G1 X79.41 Y99.23 E.16215
G1 X78.875 Y99.23 E.01687
G1 X75.77 Y96.125 E.13829
G1 X75.77 Y96.661 E.01687
G1 X78.339 Y99.23 E.11443
G1 X77.803 Y99.23 E.01687
G1 X75.77 Y97.197 E.09057
G1 X75.77 Y97.732 E.01687
G1 X77.268 Y99.23 E.06671
G1 X76.732 Y99.23 E.01687
G1 X75.77 Y98.268 E.04285
G1 X75.77 Y98.804 E.01687
G1 X76.366 Y99.4 E.02655
M204 P1000
; stop printing object kcd1-11_switch.stl id:0 copy 0
M106 S84.15
;LAYER_CHANGE
;Z:0.4
;HEIGHT:0.2
;BEFORE_LAYER_CHANGE
G92 E0.0
;0.4


G1 E-2.24 F4200
;WIPE_START
G1 F7200
G1 X75.77 Y98.804 E-.46713
G1 X75.77 Y98.268 E-.29685
G1 X75.959 Y98.457 E-.14802
;WIPE_END
G1 E-.048 F4200
G1 Z.4 F720
;AFTER_LAYER_CHANGE
;0.4
M104 S210 ; set temperature
G1 Z.6
G1 X71.946 Y98.457 F9000
G1 Z.4 F720
G1 E3.2 F2400
;TYPE:Skirt/Brim
;WIDTH:0.42
G1 X71.946 Y79.7 E.58811
G1 X72.339 Y78.283 E.04612
G1 X73.405 Y77.269 E.04612
G1 X74.7 Y76.946 E.04186
G1 X105.3 Y76.946 E.95944
G1 X106.717 Y77.339 E.04612
M73 P23 R5
G1 X107.731 Y78.405 E.04612
G1 X108.054 Y79.7 E.04186
G1 X108.054 Y100.3 E.6459
G1 X107.661 Y101.717 E.04612
G1 X106.595 Y102.731 E.04612
G1 X105.3 Y103.054 E.04186
G1 X74.7 Y103.054 E.95944
G1 X73.283 Y102.661 E.04612
G1 X72.269 Y101.595 E.04612
G1 X71.946 Y100.3 E.04186
G1 X71.946 Y98.517 E.05591
G1 X72.323 Y98.517 F9000
G1 F2400
G1 X72.323 Y79.7 E.58999
G1 X72.715 Y78.393 E.04278
G1 X73.76 Y77.517 E.04278
G1 X74.7 Y77.323 E.03008
G1 X105.3 Y77.323 E.95944
G1 X106.607 Y77.715 E.04278
G1 X107.483 Y78.76 E.04278
G1 X107.677 Y79.7 E.03008
G1 X107.677 Y100.3 E.6459
G1 X107.285 Y101.607 E.04278
M73 P24 R5
G1 X106.24 Y102.483 E.04278
G1 X105.3 Y102.677 E.03008
G1 X74.7 Y102.677 E.95944
G1 X73.393 Y102.285 E.04278
G1 X72.517 Y101.24 E.04278
G1 X72.323 Y100.3 E.03008
G1 X72.323 Y98.577 E.05402
; printing object kcd1-11_switch.stl id:0 copy 0
G1 E-2.24 F4200
;WIPE_START
G1 F7200
G1 X72.323 Y96.931 E-.912
;WIPE_END
G1 E-.048 F4200
G1 Z.6 F720
G1 X75.311 Y97.184 F9000
G1 X104.689 Y99.689
G1 X104.689 Y99.668
G1 X104.668 Y99.668
G1 Z.4 F720
G1 E3.2 F2400
M204 P800
;TYPE:Perimeter
;WIDTH:0.449999
G1 X75.332 Y99.668 E.99298
G1 X75.332 Y80.332 E.65449
G1 X104.668 Y80.332 E.99298
G1 X104.668 Y99.608 E.65246
M204 P1000
G1 X105.075 Y100.075 F9000
M204 P800
;TYPE:External perimeter
M73 P25 R5
G1 F1800
G1 X74.925 Y100.075 E1.02054
G1 X74.925 Y79.925 E.68205
G1 X105.075 Y79.925 E1.02054
G1 X105.075 Y100.015 E.68002
M204 P1000
G1 X104.683 Y99.997 F9000
G1 E-3.2 F4200
G1 Z.6 F720
G1 X97.059 Y94.871 F9000
G1 Z.4 F720
G1 E3.2 F2400
M204 P800
;TYPE:Perimeter
G1 X96.949 Y94.987 E.00541
G1 X96.727 Y95.073 E.00805
G1 X96.621 Y95.082 E.00358
G1 X83.379 Y95.082 E.44826
G1 X83.051 Y94.987 E.01154
G1 X82.848 Y94.774 E.00998
G1 X82.768 Y94.471 E.01058
M73 P26 R5
G1 X82.768 Y85.529 E.30271
G1 X82.848 Y85.226 E.01058
G1 X83.051 Y85.013 E.00998
G1 X83.273 Y84.927 E.00805
G1 X83.379 Y84.918 E.00358
G1 X96.621 Y84.918 E.44826
G1 X96.949 Y85.013 E.01154
G1 X97.152 Y85.226 E.00998
G1 X97.232 Y85.529 E.01058
G1 X97.232 Y94.471 E.30271
G1 X97.152 Y94.774 E.01058
G1 X97.101 Y94.828 E.00253
M204 P1000
G1 X96.771 Y94.61 F9000
M204 P800
;TYPE:External perimeter
G1 F1800
G1 X96.621 Y94.675 E.00551
G1 X83.379 Y94.675 E.44826
G1 X83.229 Y94.61 E.00551
G1 X83.175 Y94.471 E.00504
G1 X83.175 Y85.529 E.30271
G1 X83.229 Y85.39 E.00504
G1 X83.379 Y85.325 E.00551
G1 X96.621 Y85.325 E.44826
G1 X96.771 Y85.39 E.00551
G1 X96.825 Y85.529 E.00504
G1 X96.825 Y94.471 E.30271
G1 X96.793 Y94.554 E.00301
M204 P1000
G1 X96.814 Y94.767 F9000
G1 E-3.2 F4200
G1 Z.6 F720
G1 X104.546 Y98.714 F9000
G1 Z.4 F720
G1 E3.2 F2400
;TYPE:Solid infill
;WIDTH:0.454103
G1 F4800
G1 X103.897 Y99.363 E.03135
G1 X103.316 Y99.363 E.01988
G1 X104.363 Y98.316 E.05061
G1 X104.363 Y97.734 E.01988
G1 X102.734 Y99.363 E.07873
G1 X102.153 Y99.363 E.01988
G1 X104.363 Y97.153 E.10685
G1 X104.363 Y96.571 E.01988
G1 X101.571 Y99.363 E.13496
G1 X100.99 Y99.363 E.01988
G1 X104.363 Y95.99 E.16308
G1 X104.363 Y95.408 E.01988
G1 X100.408 Y99.363 E.1912
G1 X99.827 Y99.363 E.01988
G1 X104.363 Y94.827 E.21931
