; generated by PrusaSlicer 2.5.0+win64 on 2022-10-28 at 06:59:30 UTC


;
;

;
;
; 

; external perimeters extrusion width = 0.45mm
; perimeters extrusion width = 0.45mm
; infill extrusion width = 0.45mm
; solid infill extrusion width = 0.45mm
; top infill extrusion width = 0.40mm
; support material extrusion width = 0.35mm
; first layer extrusion width = 0.42mm

M73 P0 R80
M201 X2500 Y2500 Z400 E5000 ; sets maximum accelerations, mm/sec^2
M203 X180 Y180 Z12 E80 ; sets maximum feedrates, mm / sec
M204 P1250 R1250 T2500 ; sets acceleration (P, T) and retract acceleration (R), mm/sec^2
M205 X8.00 Y8.00 Z2.00 E10.00 ; sets the jerk limits, mm/sec
M205 S0 T0 ; sets the minimum extruding and travel feed rate, mm/sec
M107
;TYPE:Custom
M862.3 P "MINI" ; printer model check
G90 ; use absolute coordinates
M83 ; extruder relative mode
M104 S170 ; set extruder temp for bed leveling
M140 S60 ; set bed temp
M109 R170 ; wait for bed leveling temp
M190 S60 ; wait for bed temp
M204 T1250 ; set travel acceleration
G28 ; home all without mesh bed level
G29 ; mesh bed leveling 
M204 T2500 ; restore travel acceleration
M104 S215 ; set extruder temp
G92 E0
G1 Y-2 X179 F2400
G1 Z3 F720
M109 S215 ; wait for extruder temp

; intro line
G1 X170 F1000
G1 Z0.2 F720
G1 X110 E8 F900
G1 X40 E10 F700
G92 E0

M221 S95 ; set flow
G21 ; set units to millimeters
G90 ; use absolute coordinates
M83 ; use relative distances for extrusion
M900 K0.2 ; Filament gcode LA 1.5
; ; Filament gcode LA 1.0
M107
;LAYER_CHANGE
;Z:0.2
;HEIGHT:0.2
;BEFORE_LAYER_CHANGE
G92 E0.0
;0.2


G1 E-3.2 F4200
G1 Z.2 F720
;AFTER_LAYER_CHANGE
;0.2
G1 Z.4
G1 X24.06 Y52.817 F9000
G1 Z.2 F720
G1 E3.2 F2400
M204 P800
;TYPE:Skirt/Brim
;WIDTH:0.42
G1 F1200
G1 X25 Y52.623 E.03008
G1 X155 Y52.623 E4.07606
G1 X156.307 Y53.015 E.04278
M73 P0 R79
G1 X157.183 Y54.06 E.04278
G1 X157.377 Y55 E.03008
G1 X157.377 Y125 E2.1948
G1 X156.985 Y126.307 E.04278
G1 X155.94 Y127.183 E.04278
G1 X155 Y127.377 E.03008
G1 X25 Y127.377 E4.07606
G1 X23.693 Y126.985 E.04278
G1 X22.817 Y125.94 E.04278
G1 X22.623 Y125 E.03008
G1 X22.623 Y55 E2.1948
G1 X23.015 Y53.693 E.04278
G1 X24.014 Y52.855 E.0409
M204 P1000
; printing object road_blocker rev_5_battery_cover.stl id:0 copy 0
G1 E-2.24 F4200
;WIPE_START
G1 F7200
G1 X25 Y52.623 E-.56121
G1 X25.633 Y52.623 E-.35079
;WIPE_END
G1 E-.048 F4200
G1 Z.4 F720
G1 X25.787 Y124.213 F9000
G1 Z.2 F720
G1 E3.2 F2400
M204 P800
;TYPE:Perimeter
;WIDTH:0.419999
G1 F1200
G1 X25.787 Y55.787 E2.14544
G1 X154.213 Y55.787 E4.0267
G1 X154.213 Y124.213 E2.14544
G1 X25.847 Y124.213 E4.02481
M204 P1000
M73 P1 R79
G1 X25.41 Y124.59 F9000
M204 P800
;TYPE:External perimeter
G1 F1200
G1 X25.41 Y55.41 E2.16909
G1 X154.59 Y55.41 E4.05034
G1 X154.59 Y124.59 E2.16909
G1 X25.47 Y124.59 E4.04846
M204 P1000
G1 X25.551 Y124.216 F9000
M73 P1 R78
G1 E-3.2 F4200
G1 Z.4 F720
G1 X152.024 Y60.517 F9000
G1 Z.2 F720
G1 E3.2 F2400
M204 P800
;TYPE:Perimeter
G1 F1200
G1 X151.594 Y60.732 E.01506
G1 X151.056 Y60.836 E.01719
G1 X150.528 Y60.77 E.01668
G1 X150.077 Y60.588 E.01526
G1 X149.729 Y60.324 E.01371
G1 X149.481 Y60.03 E.01203
G1 X149.3 Y59.692 E.01203
G1 X149.194 Y59.324 E.01203
G1 X149.166 Y58.941 E.01203
G1 X149.232 Y58.524 E.01323
G1 X149.476 Y57.978 E.01876
G1 X149.722 Y57.683 E.01203
G1 X150.023 Y57.446 E.01203
G1 X150.406 Y57.268 E.01323
G1 X150.955 Y57.164 E.01754
G1 X151.472 Y57.23 E.01632
G1 X151.866 Y57.382 E.01325
G1 X152.271 Y57.676 E.01571
G1 X152.519 Y57.97 E.01203
G1 X152.7 Y58.308 E.01203
G1 X152.806 Y58.676 E.01203
G1 X152.837 Y59 E.01019
G1 X152.768 Y59.476 E.01508
G1 X152.524 Y60.022 E.01876
G1 X152.278 Y60.317 E.01203
G1 X152.071 Y60.48 E.00827
M204 P1000
G1 X151.789 Y60.226 F9000
M204 P800
;TYPE:External perimeter
G1 F1200
G1 X151.516 Y60.363 E.00957
G1 X151.019 Y60.458 E.01587
G1 X150.53 Y60.382 E.01549
G1 X150.253 Y60.254 E.00957
G1 X150.009 Y60.071 E.00957
G1 X149.808 Y59.842 E.00957
G1 X149.659 Y59.576 E.00957
G1 X149.569 Y59.284 E.00957
G1 X149.541 Y58.98 E.00957
G1 X149.581 Y58.665 E.00996
G1 X149.773 Y58.21 E.01549
G1 X149.964 Y57.972 E.00956
G1 X150.2 Y57.779 E.00957
G1 X150.484 Y57.637 E.00996
G1 X150.981 Y57.542 E.01587
G1 X151.47 Y57.618 E.01549
G1 X151.747 Y57.746 E.00957
G1 X151.991 Y57.929 E.00957
G1 X152.192 Y58.158 E.00957
G1 X152.341 Y58.424 E.00957
G1 X152.431 Y58.716 E.00957
G1 X152.46 Y59 E.00895
G1 X152.419 Y59.335 E.01058
G1 X152.227 Y59.79 E.01549
G1 X152.036 Y60.028 E.00956
G1 X151.837 Y60.191 E.00807
M204 P1000
G1 X151.803 Y60.531 F9000
G1 E-3.2 F4200
G1 Z.4 F720
G1 X115.124 Y70.71 F9000
G1 Z.2 F720
G1 E3.2 F2400
M204 P800
;TYPE:Perimeter
G1 F1200
G1 X115.649 Y71.424 E.02777
G1 X116.092 Y72.245 E.02925
G1 X116.416 Y73.119 E.02925
G1 X116.615 Y74.03 E.02925
G1 X116.686 Y74.961 E.02925
G1 X116.626 Y75.891 E.02925
G1 X116.438 Y76.805 E.02925
G1 X116.111 Y77.71 E.03017
G1 X115.69 Y78.51 E.02835
G1 X115.147 Y79.267 E.02922
G1 X114.503 Y79.942 E.02925
G1 X113.771 Y80.521 E.02924
G1 X112.966 Y80.992 E.02925
G1 X112.104 Y81.346 E.02925
G1 X111.2 Y81.577 E.02925
G1 X110.273 Y81.68 E.02925
G1 X109.34 Y81.653 E.02925
G1 X108.421 Y81.497 E.02925
G1 X107.532 Y81.214 E.02924
G1 X106.691 Y80.81 E.02925
G1 X105.915 Y80.293 E.02925
G1 X105.218 Y79.673 E.02925
G1 X104.614 Y78.962 E.02925
G1 X104.115 Y78.174 E.02925
G1 X103.731 Y77.324 E.02925
G1 X103.468 Y76.429 E.02925
G1 X103.332 Y75.476 E.03017
G1 X103.328 Y74.572 E.02834
G1 X103.452 Y73.649 E.02923
G1 X103.704 Y72.75 E.02925
G1 X104.078 Y71.896 E.02925
G1 X104.586 Y71.079 E.03017
G1 X105.164 Y70.384 E.02834
G1 X105.853 Y69.756 E.02923
G1 X106.623 Y69.23 E.02925
G1 X107.459 Y68.816 E.02925
G1 X108.344 Y68.522 E.02924
G1 X109.262 Y68.355 E.02925
G1 X110.194 Y68.317 E.02925
G1 X111.122 Y68.409 E.02924
G1 X112.001 Y68.621 E.02836
G1 X112.894 Y68.973 E.03007
G1 X113.706 Y69.435 E.0293
G1 X114.444 Y70.005 E.02925
G1 X115.087 Y70.663 E.02884
M204 P1000
G1 X114.893 Y71.027 F9000
M204 P800
;TYPE:External perimeter
G1 F1200
G1 X115.344 Y71.645 E.02401
G1 X115.759 Y72.422 E.0276
G1 X116.062 Y73.248 E.0276
G1 X116.246 Y74.109 E.0276
G1 X116.31 Y74.987 E.0276
G1 X116.25 Y75.865 E.0276
G1 X116.069 Y76.727 E.0276
G1 X115.757 Y77.58 E.02848
G1 X115.358 Y78.333 E.02672
G1 X114.842 Y79.046 E.02759
G1 X114.232 Y79.68 E.0276
G1 X113.539 Y80.224 E.0276
G1 X112.778 Y80.665 E.0276
G1 X111.962 Y80.997 E.0276
G1 X111.109 Y81.212 E.0276
G1 X110.233 Y81.305 E.0276
G1 X109.354 Y81.276 E.0276
G1 X108.486 Y81.125 E.0276
G1 X107.649 Y80.855 E.0276
G1 X106.857 Y80.471 E.0276
G1 X106.126 Y79.98 E.0276
G1 X105.47 Y79.393 E.0276
G1 X104.903 Y78.719 E.0276
G1 X104.435 Y77.974 E.0276
G1 X104.075 Y77.17 E.0276
G1 X103.831 Y76.325 E.0276
G1 X103.706 Y75.425 E.02848
G1 X103.705 Y74.573 E.02672
G1 X103.825 Y73.701 E.02759
G1 X104.066 Y72.854 E.0276
G1 X104.423 Y72.049 E.0276
G1 X104.905 Y71.28 E.02848
G1 X105.452 Y70.626 E.02672
G1 X106.105 Y70.036 E.02759
G1 X106.834 Y69.542 E.0276
G1 X107.624 Y69.155 E.0276
G1 X108.461 Y68.881 E.0276
G1 X109.327 Y68.726 E.0276
G1 X110.207 Y68.694 E.0276
G1 X111.083 Y68.784 E.0276
G1 X111.911 Y68.987 E.02673
G1 X112.754 Y69.323 E.02845
G1 X113.517 Y69.762 E.02762
G1 X114.212 Y70.302 E.0276
G1 X114.857 Y70.978 E.0293
M204 P1000
G1 X115.287 Y70.958 F9000
G1 E-2.24 F4200
;WIPE_START
G1 F7200
G1 X115.344 Y71.645 E-.45758
G1 X115.73 Y72.368 E-.45442
;WIPE_END
G1 E-.048 F4200
G1 Z.4 F720
G1 X115.872 Y72.299 F9000
G1 X115.709 Y71.964
G1 X115.484 Y71.574
G1 X115.231 Y71.199
G1 X114.953 Y70.844
G1 X114.651 Y70.508
G1 X114.327 Y70.195
G1 X113.981 Y69.905
G1 X113.616 Y69.639
G1 X113.233 Y69.4
G1 X112.835 Y69.188
G1 X112.422 Y69.005
G1 X111.998 Y68.85
G1 X111.564 Y68.726
G1 X111.123 Y68.632
G1 X110.676 Y68.569
G1 X110.226 Y68.538
G1 X109.774 Y68.538
G1 X109.324 Y68.569
G1 X108.877 Y68.632
G1 X108.436 Y68.726
G1 X108.002 Y68.85
G1 X107.578 Y69.005
G1 X107.165 Y69.188
G1 X106.767 Y69.4
G1 X106.384 Y69.639
G1 X106.019 Y69.905
G1 X105.673 Y70.195
G1 X105.349 Y70.508
G1 X105.047 Y70.844
G1 X104.769 Y71.199
G1 X104.573 Y71.489
G1 X72.835 Y69.188
G1 X72.936 Y68.997
G1 Z.2 F720
G1 E3.2 F2400
M204 P800
;TYPE:Perimeter
G1 F1200
G1 X73.706 Y69.435 E.02779
G1 X74.444 Y70.005 E.02925
G1 X75.096 Y70.672 E.02925
G1 X75.649 Y71.424 E.02925
G1 X76.092 Y72.245 E.02925
G1 X76.416 Y73.119 E.02925
G1 X76.615 Y74.03 E.02925
G1 X76.686 Y74.961 E.02925
G1 X76.626 Y75.891 E.02925
G1 X76.438 Y76.805 E.02925
G1 X76.124 Y77.683 E.02925
G1 X75.691 Y78.51 E.02925
G1 X75.147 Y79.267 E.02925
G1 X74.503 Y79.942 E.02925
G1 X73.771 Y80.521 E.02924
G1 X72.966 Y80.992 E.02925
G1 X72.104 Y81.346 E.02925
G1 X71.2 Y81.577 E.02925
G1 X70.273 Y81.68 E.02925
G1 X69.34 Y81.653 E.02925
G1 X68.421 Y81.497 E.02925
G1 X67.532 Y81.214 E.02924
G1 X66.691 Y80.81 E.02925
G1 X65.915 Y80.293 E.02925
G1 X65.218 Y79.673 E.02925
G1 X64.614 Y78.962 E.02925
G1 X64.115 Y78.173 E.02928
G1 X63.731 Y77.324 E.02921
G1 X63.468 Y76.429 E.02925
G1 X63.332 Y75.476 E.03017
G1 X63.328 Y74.572 E.02834
G1 X63.468 Y73.571 E.03169
G1 X63.704 Y72.75 E.02678
G1 X64.078 Y71.896 E.02924
G1 X64.586 Y71.079 E.03017
G1 X65.164 Y70.384 E.02834
G1 X65.853 Y69.756 E.02923
G1 X66.623 Y69.23 E.02925
G1 X67.459 Y68.816 E.02925
G1 X68.344 Y68.522 E.02925
G1 X69.262 Y68.355 E.02925
G1 X70.194 Y68.317 E.02925
G1 X71.122 Y68.409 E.02924
G1 X72.001 Y68.621 E.02836
G1 X72.883 Y68.969 E.0297
M204 P1000
G1 X72.708 Y69.305 F9000
M204 P800
;TYPE:External perimeter
G1 F1200
G1 X73.517 Y69.762 E.02916
G1 X74.212 Y70.302 E.0276
G1 X74.825 Y70.934 E.0276
G1 X75.344 Y71.645 E.0276
G1 X75.759 Y72.422 E.0276
G1 X76.062 Y73.248 E.0276
G1 X76.246 Y74.109 E.0276
G1 X76.31 Y74.987 E.0276
G1 X76.25 Y75.865 E.0276
G1 X76.069 Y76.727 E.0276
G1 X75.77 Y77.554 E.0276
G1 X75.358 Y78.333 E.0276
G1 X74.842 Y79.046 E.0276
G1 X74.232 Y79.68 E.0276
G1 X73.539 Y80.224 E.0276
G1 X72.778 Y80.665 E.0276
G1 X71.962 Y80.997 E.0276
G1 X71.109 Y81.212 E.0276
G1 X70.233 Y81.305 E.0276
G1 X69.354 Y81.276 E.0276
G1 X68.486 Y81.125 E.0276
G1 X67.649 Y80.855 E.0276
G1 X66.857 Y80.471 E.0276
G1 X66.126 Y79.98 E.0276
G1 X65.47 Y79.393 E.0276
G1 X64.903 Y78.719 E.0276
G1 X64.435 Y77.974 E.02761
G1 X64.075 Y77.17 E.02759
G1 X63.831 Y76.325 E.0276
G1 X63.706 Y75.425 E.02848
G1 X63.705 Y74.573 E.02672
G1 X63.783 Y74.004 E.01799
G1 X63.831 Y73.675 E.01043
G1 X64.066 Y72.854 E.02678
G1 X64.423 Y72.049 E.0276
G1 X64.905 Y71.28 E.02848
G1 X65.452 Y70.626 E.02672
G1 X66.105 Y70.036 E.02759
G1 X66.834 Y69.542 E.0276
G1 X67.624 Y69.155 E.0276
G1 X68.461 Y68.881 E.0276
G1 X69.327 Y68.726 E.0276
G1 X70.207 Y68.694 E.0276
G1 X71.083 Y68.784 E.0276
G1 X71.911 Y68.987 E.02673
G1 X72.652 Y69.282 E.02502
M204 P1000
G1 X73.038 Y69.078 F9000
G1 E-2.24 F4200
;WIPE_START
G1 F7200
G1 X73.517 Y69.762 E-.54826
G1 X74.035 Y70.165 E-.36374
;WIPE_END
G1 E-.048 F4200
G1 Z.4 F720
G1 X74.141 Y70.039 F9000
G1 X73.981 Y69.905
G1 X73.616 Y69.639
G1 X73.233 Y69.4
G1 X72.835 Y69.188
G1 X72.422 Y69.005
G1 X71.998 Y68.85
G1 X71.564 Y68.726
G1 X71.123 Y68.632
G1 X70.676 Y68.569
G1 X70.226 Y68.538
G1 X69.774 Y68.538
G1 X69.324 Y68.569
G1 X68.877 Y68.632
G1 X68.436 Y68.726
G1 X68.002 Y68.85
G1 X67.578 Y69.005
G1 X67.165 Y69.188
G1 X66.767 Y69.4
G1 X66.384 Y69.639
G1 X66.019 Y69.905
G1 X65.673 Y70.195
G1 X65.349 Y70.508
G1 X65.047 Y70.844
G1 X45.016 Y93.741
G1 X45.016 Y102.366
G1 X34.984 Y102.366
G1 X34.984 Y102.067
G1 X34.767 Y102.067
G1 Z.2 F720
G1 E3.2 F2400
M204 P800
;TYPE:Perimeter
G1 F1200
G1 X34.763 Y87.979 E.44173
G1 X34.82 Y87.731 E.00798
G1 X34.962 Y87.548 E.00724
G1 X35.183 Y87.432 E.00785
G1 X35.329 Y87.413 E.00459
G1 X44.671 Y87.413 E.29294
G1 X44.948 Y87.485 E.00898
G1 X45.14 Y87.661 E.00814
G1 X45.235 Y87.927 E.00884
G1 X45.237 Y102.021 E.44194
G1 X45.173 Y102.283 E.00844
G1 X45.001 Y102.481 E.00824
G1 X44.752 Y102.581 E.00841
G1 X44.671 Y102.587 E.00252
G1 X35.329 Y102.587 E.29294
G1 X35.093 Y102.536 E.00757
G1 X34.868 Y102.35 E.00912
G1 X34.776 Y102.126 E.00762
M204 P1000
G1 X35.14 Y102.021 F9000
M204 P800
;TYPE:External perimeter
G1 F1200
G1 X35.14 Y87.979 E.44031
G1 X35.206 Y87.835 E.00495
G1 X35.329 Y87.79 E.00409
G1 X44.671 Y87.79 E.29294
G1 X44.811 Y87.852 E.00479
G1 X44.86 Y87.979 E.00425
G1 X44.86 Y102.021 E.44031
G1 X44.791 Y102.167 E.00507
G1 X44.671 Y102.21 E.00397
G1 X35.329 Y102.21 E.29294
G1 X35.192 Y102.152 E.00465
G1 X35.162 Y102.077 E.00252
M204 P1000
G1 X34.754 Y101.918 F9000
G1 E-3.2 F4200
G1 Z.4 F720
G1 X29.914 Y57.415 F9000
G1 Z.2 F720
G1 E3.2 F2400
M204 P800
;TYPE:Perimeter
G1 F1200
G1 X30.271 Y57.676 E.01389
G1 X30.519 Y57.97 E.01203
G1 X30.7 Y58.308 E.01203
G1 X30.806 Y58.676 E.01203
G1 X30.834 Y59.059 E.01203
G1 X30.768 Y59.476 E.01323
G1 X30.577 Y59.941 E.01578
G1 X30.278 Y60.317 E.01503
G1 X29.977 Y60.554 E.01203
G1 X29.594 Y60.732 E.01323
G1 X29.074 Y60.836 E.01665
G1 X28.528 Y60.77 E.01722
G1 X28.134 Y60.618 E.01325
G1 X27.729 Y60.324 E.01571
G1 X27.481 Y60.03 E.01203
G1 X27.3 Y59.692 E.01203
G1 X27.194 Y59.324 E.01203
G1 X27.166 Y58.941 E.01203
G1 X27.232 Y58.524 E.01323
G1 X27.476 Y57.978 E.01876
G1 X27.722 Y57.683 E.01203
G1 X27.925 Y57.512 E.00834
G1 X28.258 Y57.322 E.01202
G1 X28.838 Y57.176 E.01874
G1 X29.034 Y57.169 E.00616
G1 X29.623 Y57.274 E.01876
G1 X29.86 Y57.389 E.00825
M204 P1000
G1 X29.668 Y57.71 F9000
M204 P800
;TYPE:External perimeter
M73 P2 R78
G1 F1200
G1 X29.747 Y57.746 E.00272
G1 X29.991 Y57.929 E.00957
G1 X30.192 Y58.158 E.00957
G1 X30.341 Y58.424 E.00957
G1 X30.431 Y58.716 E.00957
G1 X30.459 Y59.02 E.00957
G1 X30.419 Y59.335 E.00996
G1 X30.227 Y59.79 E.01549
G1 X30.036 Y60.028 E.00956
G1 X29.8 Y60.221 E.00957
G1 X29.516 Y60.363 E.00996
G1 X29.019 Y60.458 E.01587
G1 X28.53 Y60.382 E.01549
G1 X28.253 Y60.254 E.00957
G1 X28.009 Y60.071 E.00957
G1 X27.808 Y59.842 E.00957
G1 X27.659 Y59.576 E.00957
G1 X27.569 Y59.284 E.00957
G1 X27.541 Y58.98 E.00957
G1 X27.581 Y58.665 E.00996
G1 X27.773 Y58.21 E.01549
G1 X27.964 Y57.972 E.00956
G1 X28.168 Y57.801 E.00834
G1 X28.484 Y57.637 E.01118
G1 X28.981 Y57.542 E.01587
G1 X29.47 Y57.618 E.01549
G1 X29.614 Y57.685 E.00497
M204 P1000
G1 X29.735 Y57.655 F9000
G1 E-2.24 F4200
;WIPE_START
G1 F7200
G1 X29.747 Y57.746 E-.08125
G1 X29.991 Y57.929 E-.16908
G1 X30.192 Y58.158 E-.16906
G1 X30.341 Y58.424 E-.16906
G1 X30.431 Y58.716 E-.16907
G1 X30.457 Y58.993 E-.15449
;WIPE_END
G1 E-.048 F4200
G1 Z.4 F720
G1 X30.616 Y58.988 F9000
G1 X30.616 Y59
G1 X30.612 Y59.113
G1 X27.388 Y120.887
G1 X27.384 Y121
G1 X27.388 Y121.113
G1 X27.4 Y121.225
G1 X27.419 Y121.336
G1 X27.447 Y121.445
G1 X27.481 Y121.553
G1 X27.524 Y121.657
G1 X27.573 Y121.759
G1 X27.629 Y121.856
G1 X27.693 Y121.95
G1 X27.762 Y122.039
G1 X27.838 Y122.123
G1 X27.919 Y122.201
G1 X28.005 Y122.274
G1 X28.096 Y122.34
G1 X28.154 Y122.376
G1 X28.044 Y122.553
G1 Z.2 F720
G1 E3.2 F2400
M204 P800
;TYPE:Perimeter
G1 F1200
G1 X27.729 Y122.324 E.01223
G1 X27.481 Y122.03 E.01203
G1 X27.3 Y121.692 E.01203
G1 X27.194 Y121.324 E.01203
G1 X27.166 Y120.941 E.01203
G1 X27.232 Y120.524 E.01323
G1 X27.476 Y119.978 E.01876
G1 X27.722 Y119.683 E.01203
G1 X28.023 Y119.446 E.01203
G1 X28.406 Y119.268 E.01323
G1 X28.944 Y119.164 E.01719
G1 X29.472 Y119.23 E.01668
G1 X29.945 Y119.425 E.01605
G1 X30.271 Y119.676 E.01292
G1 X30.499 Y119.939 E.01089
G1 X30.7 Y120.308 E.01318
G1 X30.806 Y120.676 E.01203
G1 X30.834 Y121.059 E.01203
G1 X30.768 Y121.476 E.01323
G1 X30.524 Y122.022 E.01876
G1 X30.278 Y122.317 E.01203
G1 X29.977 Y122.554 E.01203
G1 X29.594 Y122.732 E.01323
G1 X29.045 Y122.836 E.01754
G1 X28.528 Y122.77 E.01632
G1 X28.093 Y122.588 E.0148
M204 P1000
G1 X28.377 Y122.311 F9000
M204 P800
;TYPE:External perimeter
G1 F1200
G1 X28.253 Y122.254 E.00427
G1 X28.009 Y122.071 E.00957
G1 X27.808 Y121.842 E.00957
G1 X27.659 Y121.576 E.00957
G1 X27.569 Y121.284 E.00957
G1 X27.541 Y120.98 E.00957
G1 X27.581 Y120.665 E.00996
G1 X27.773 Y120.21 E.01549
G1 X27.964 Y119.972 E.00956
G1 X28.2 Y119.779 E.00957
G1 X28.484 Y119.637 E.00996
G1 X28.981 Y119.542 E.01587
G1 X29.47 Y119.618 E.01549
G1 X29.747 Y119.746 E.00957
G1 X29.991 Y119.929 E.00957
G1 X30.186 Y120.148 E.00919
G1 X30.341 Y120.424 E.00995
G1 X30.431 Y120.716 E.00957
G1 X30.459 Y121.02 E.00957
G1 X30.419 Y121.335 E.00996
