; generated by PrusaSlicer 2.5.0+win64 on 2022-10-16 at 06:05:58 UTC


;
;

;
;
; 

; external perimeters extrusion width = 0.45mm
; perimeters extrusion width = 0.45mm
; infill extrusion width = 0.45mm
; solid infill extrusion width = 0.45mm
; top infill extrusion width = 0.40mm
; first layer extrusion width = 0.42mm

M73 P0 R174
M201 X2500 Y2500 Z400 E5000 ; sets maximum accelerations, mm/sec^2
M203 X180 Y180 Z12 E80 ; sets maximum feedrates, mm / sec
M204 P1250 R1250 T2500 ; sets acceleration (P, T) and retract acceleration (R), mm/sec^2
M205 X8.00 Y8.00 Z2.00 E10.00 ; sets the jerk limits, mm/sec
M205 S0 T0 ; sets the minimum extruding and travel feed rate, mm/sec
M107
;TYPE:Custom
M862.3 P "MINI" ; printer model check
G90 ; use absolute coordinates
M83 ; extruder relative mode
M104 S170 ; set extruder temp for bed leveling
M140 S60 ; set bed temp
M109 R170 ; wait for bed leveling temp
M190 S60 ; wait for bed temp
M204 T1250 ; set travel acceleration
G28 ; home all without mesh bed level
G29 ; mesh bed leveling 
M204 T2500 ; restore travel acceleration
M104 S215 ; set extruder temp
G92 E0
G1 Y-2 X179 F2400
G1 Z3 F720
M109 S215 ; wait for extruder temp

; intro line
G1 X170 F1000
G1 Z0.2 F720
G1 X110 E8 F900
G1 X40 E10 F700
G92 E0

M221 S95 ; set flow
G21 ; set units to millimeters
G90 ; use absolute coordinates
M83 ; use relative distances for extrusion
M900 K0.2 ; Filament gcode LA 1.5
; ; Filament gcode LA 1.0
M107
;LAYER_CHANGE
;Z:0.2
;HEIGHT:0.2
;BEFORE_LAYER_CHANGE
G92 E0.0
;0.2


G1 E-3.2 F4200
G1 Z.2 F720
;AFTER_LAYER_CHANGE
;0.2
G1 Z.4
G1 X24.06 Y52.817 F9000
G1 Z.2 F720
G1 E3.2 F2400
M204 P800
;TYPE:Skirt/Brim
;WIDTH:0.42
G1 F1200
G1 X25 Y52.623 E.03008
G1 X155 Y52.623 E4.07606
G1 X156.307 Y53.015 E.04278
G1 X157.183 Y54.06 E.04278
G1 X157.377 Y55 E.03008
G1 X157.377 Y125 E2.1948
G1 X156.985 Y126.307 E.04278
G1 X155.94 Y127.183 E.04278
G1 X155 Y127.377 E.03008
G1 X25 Y127.377 E4.07606
G1 X23.693 Y126.985 E.04278
G1 X22.817 Y125.94 E.04278
G1 X22.623 Y125 E.03008
G1 X22.623 Y55 E2.1948
G1 X23.015 Y53.693 E.04278
G1 X24.014 Y52.855 E.0409
M204 P1000
; printing object road_blocker rev_5_battery.stl id:0 copy 0
G1 E-2.24 F4200
;WIPE_START
G1 F7200
G1 X25 Y52.623 E-.56121
G1 X25.633 Y52.623 E-.35079
;WIPE_END
G1 E-.048 F4200
G1 Z.4 F720
G1 X56.089 Y62.832 F9000
G1 Z.2 F720
G1 E3.2 F2400
M204 P800
;TYPE:Perimeter
;WIDTH:0.419999
G1 F1200
G1 X56.216 Y62.695 E.00587
G1 X56.287 Y62.421 E.00886
G1 X56.287 Y55.787 E.20802
G1 X154.213 Y55.787 E3.07039
G1 X154.213 Y124.213 E2.14544
G1 X25.787 Y124.213 E4.0267
G1 X25.787 Y55.787 E2.14544
M73 P0 R173
G1 X44.713 Y55.787 E.59341
G1 X44.713 Y62.421 E.20802
G1 X44.771 Y62.672 E.00806
G1 X44.951 Y62.882 E.00867
G1 X45.01 Y62.919 E.00218
G1 X45.279 Y62.987 E.00869
G1 X55.721 Y62.987 E.32743
G1 X55.77 Y62.985 E.00151
G1 X56.048 Y62.876 E.00937
M204 P1000
G1 X55.84 Y62.568 F9000
M204 P800
;TYPE:External perimeter
G1 F1200
G1 X55.91 Y62.421 E.00508
G1 X55.91 Y55.41 E.21984
G1 X154.59 Y55.41 E3.09404
G1 X154.59 Y124.59 E2.16909
G1 X25.41 Y124.59 E4.05034
G1 X25.41 Y55.41 E2.16909
G1 X45.09 Y55.41 E.61705
G1 X45.09 Y62.421 E.21984
G1 X45.169 Y62.575 E.00542
G1 X45.279 Y62.61 E.0036
G1 X55.721 Y62.61 E.32743
G1 X55.784 Y62.588 E.00207
M204 P1000
G1 X55.995 Y62.615 F9000
G1 E-2.24 F4200
;WIPE_START
G1 F7200
G1 X55.91 Y62.421 E-.11577
G1 X55.91 Y60.985 E-.79623
;WIPE_END
G1 E-.048 F4200
G1 Z.4 F720
G1 X84.089 Y84.431 F9000
G1 Z.2 F720
G1 E3.2 F2400
M204 P800
;TYPE:Perimeter
G1 F1200
G1 X84.027 Y84.498 E.00286
G1 X83.721 Y84.587 E.00998
G1 X75.279 Y84.587 E.26472
G1 X75.008 Y84.518 E.00874
G1 X74.802 Y84.326 E.00885
G1 X74.713 Y84.021 E.00995
G1 X74.713 Y75.579 E.26472
G1 X74.784 Y75.305 E.00886
G1 X74.962 Y75.11 E.00829
G1 X75.279 Y75.013 E.01038
G1 X83.721 Y75.013 E.26472
G1 X83.978 Y75.075 E.00828
G1 X84.184 Y75.254 E.00857
G1 X84.282 Y75.507 E.0085
G1 X84.287 Y75.579 E.00226
G1 X84.287 Y84.021 E.26472
G1 X84.215 Y84.298 E.00895
G1 X84.13 Y84.387 E.00387
M204 P1000
G1 X83.84 Y84.168 F9000
M204 P800
;TYPE:External perimeter
G1 F1200
G1 X83.721 Y84.21 E.00392
G1 X75.279 Y84.21 E.26472
G1 X75.133 Y84.142 E.00502
G1 X75.09 Y84.021 E.00401
G1 X75.09 Y75.579 E.26472
G1 X75.153 Y75.438 E.00482
G1 X75.279 Y75.39 E.00423
G1 X83.721 Y75.39 E.26472
G1 X83.869 Y75.461 E.00512
G1 X83.91 Y75.579 E.00392
G1 X83.91 Y84.021 E.26472
G1 X83.865 Y84.114 E.00323
M204 P1000
G1 X83.867 Y84.291 F9000
G1 E-2.24 F4200
;WIPE_START
G1 F7200
G1 X83.721 Y84.21 E-.0958
G1 X82.249 Y84.21 E-.8162
;WIPE_END
G1 E-.048 F4200
G1 Z.4 F720
G1 X154.1 Y56.663 F9000
G1 Z.2 F720
G1 E3.2 F2400
M204 P800
;TYPE:Solid infill
;WIDTH:0.420443
G1 F1200
G1 X153.506 Y56.07 E.02635
G1 X152.972 Y56.07 E.01676
G1 X153.93 Y57.028 E.04252
G1 X153.93 Y57.562 E.01676
G1 X152.438 Y56.07 E.06622
G1 X151.905 Y56.07 E.01676
G1 X153.93 Y58.095 E.08992
G1 X153.93 Y58.629 E.01676
G1 X151.371 Y56.07 E.11362
G1 X150.837 Y56.07 E.01676
G1 X153.93 Y59.163 E.13732
G1 X153.93 Y59.697 E.01676
G1 X150.303 Y56.07 E.16103
G1 X149.769 Y56.07 E.01676
G1 X153.93 Y60.231 E.18473
G1 X153.93 Y60.765 E.01676
G1 X149.235 Y56.07 E.20843
G1 X148.701 Y56.07 E.01676
G1 X153.93 Y61.299 E.23213
G1 X153.93 Y61.833 E.01676
G1 X148.167 Y56.07 E.25583
G1 X147.633 Y56.07 E.01676
G1 X153.93 Y62.367 E.27954
G1 X153.93 Y62.9 E.01676
G1 X147.1 Y56.07 E.30324
G1 X146.566 Y56.07 E.01676
G1 X153.93 Y63.434 E.32694
G1 X153.93 Y63.968 E.01676
G1 X146.032 Y56.07 E.35064
G1 X145.498 Y56.07 E.01676
G1 X153.93 Y64.502 E.37434
G1 X153.93 Y65.036 E.01676
G1 X144.964 Y56.07 E.39804
G1 X144.43 Y56.07 E.01676
G1 X153.93 Y65.57 E.42175
G1 X153.93 Y66.104 E.01676
G1 X143.896 Y56.07 E.44545
G1 X143.362 Y56.07 E.01676
G1 X153.93 Y66.638 E.46915
G1 X153.93 Y67.172 E.01676
G1 X142.828 Y56.07 E.49285
G1 X142.294 Y56.07 E.01676
G1 X153.93 Y67.706 E.51655
G1 X153.93 Y68.239 E.01676
G1 X141.761 Y56.07 E.54025
G1 X141.227 Y56.07 E.01676
G1 X153.93 Y68.773 E.56396
G1 X153.93 Y69.307 E.01676
G1 X140.693 Y56.07 E.58766
G1 X140.159 Y56.07 E.01676
G1 X153.93 Y69.841 E.61136
G1 X153.93 Y70.375 E.01676
G1 X139.625 Y56.07 E.63506
G1 X139.091 Y56.07 E.01676
G1 X153.93 Y70.909 E.65876
G1 X153.93 Y71.443 E.01676
G1 X138.557 Y56.07 E.68247
G1 X138.023 Y56.07 E.01676
G1 X153.93 Y71.977 E.70617
G1 X153.93 Y72.511 E.01676
G1 X137.489 Y56.07 E.72987
G1 X136.955 Y56.07 E.01676
G1 X153.93 Y73.045 E.75357
G1 X153.93 Y73.578 E.01676
G1 X136.422 Y56.07 E.77727
G1 X135.888 Y56.07 E.01676
M73 P1 R173
G1 X153.93 Y74.112 E.80097
G1 X153.93 Y74.646 E.01676
G1 X135.354 Y56.07 E.82468
G1 X134.82 Y56.07 E.01676
G1 X153.93 Y75.18 E.84838
G1 X153.93 Y75.714 E.01676
G1 X134.286 Y56.07 E.87208
G1 X133.752 Y56.07 E.01676
G1 X153.93 Y76.248 E.89578
G1 X153.93 Y76.782 E.01676
M73 P1 R172
G1 X133.218 Y56.07 E.91948
G1 X132.684 Y56.07 E.01676
G1 X153.93 Y77.316 E.94319
G1 X153.93 Y77.85 E.01676
G1 X132.15 Y56.07 E.96689
G1 X131.616 Y56.07 E.01676
G1 X153.93 Y78.384 E.99059
G1 X153.93 Y78.917 E.01676
G1 X131.083 Y56.07 E1.01429
G1 X130.549 Y56.07 E.01676
G1 X153.93 Y79.451 E1.03799
G1 X153.93 Y79.985 E.01676
G1 X130.015 Y56.07 E1.06169
G1 X129.481 Y56.07 E.01676
G1 X153.93 Y80.519 E1.0854
G1 X153.93 Y81.053 E.01676
G1 X128.947 Y56.07 E1.1091
G1 X128.413 Y56.07 E.01676
G1 X153.93 Y81.587 E1.1328
G1 X153.93 Y82.121 E.01676
G1 X127.879 Y56.07 E1.1565
G1 X127.345 Y56.07 E.01676
G1 X153.93 Y82.655 E1.1802
G1 X153.93 Y83.189 E.01676
G1 X126.811 Y56.07 E1.2039
G1 X126.277 Y56.07 E.01676
G1 X153.93 Y83.723 E1.22761
G1 X153.93 Y84.256 E.01676
G1 X125.744 Y56.07 E1.25131
G1 X125.21 Y56.07 E.01676
G1 X153.93 Y84.79 E1.27501
G1 X153.93 Y85.324 E.01676
G1 X124.676 Y56.07 E1.29871
G1 X124.142 Y56.07 E.01676
G1 X153.93 Y85.858 E1.32241
G1 X153.93 Y86.392 E.01676
G1 X123.608 Y56.07 E1.34612
G1 X123.074 Y56.07 E.01676
G1 X153.93 Y86.926 E1.36982
G1 X153.93 Y87.46 E.01676
G1 X122.54 Y56.07 E1.39352
G1 X122.006 Y56.07 E.01676
G1 X153.93 Y87.994 E1.41722
G1 X153.93 Y88.528 E.01676
G1 X121.472 Y56.07 E1.44092
G1 X120.938 Y56.07 E.01676
G1 X153.93 Y89.062 E1.46462
G1 X153.93 Y89.595 E.01676
G1 X120.405 Y56.07 E1.48833
G1 X119.871 Y56.07 E.01676
G1 X153.93 Y90.129 E1.51203
G1 X153.93 Y90.663 E.01676
G1 X119.337 Y56.07 E1.53573
G1 X118.803 Y56.07 E.01676
G1 X153.93 Y91.197 E1.55943
G1 X153.93 Y91.731 E.01676
G1 X118.269 Y56.07 E1.58313
G1 X117.735 Y56.07 E.01676
G1 X153.93 Y92.265 E1.60683
G1 X153.93 Y92.799 E.01676
M73 P1 R171
G1 X117.201 Y56.07 E1.63054
G1 X116.667 Y56.07 E.01676
G1 X153.93 Y93.333 E1.65424
G1 X153.93 Y93.867 E.01676
G1 X116.133 Y56.07 E1.67794
G1 X115.6 Y56.07 E.01676
G1 X153.93 Y94.4 E1.70164
G1 X153.93 Y94.934 E.01676
G1 X115.066 Y56.07 E1.72534
G1 X114.532 Y56.07 E.01676
G1 X153.93 Y95.468 E1.74905
G1 X153.93 Y96.002 E.01676
G1 X113.998 Y56.07 E1.77275
G1 X113.464 Y56.07 E.01676
G1 X153.93 Y96.536 E1.79645
G1 X153.93 Y97.07 E.01676
G1 X112.93 Y56.07 E1.82015
G1 X112.396 Y56.07 E.01676
G1 X153.93 Y97.604 E1.84385
G1 X153.93 Y98.138 E.01676
G1 X111.862 Y56.07 E1.86755
G1 X111.328 Y56.07 E.01676
G1 X153.93 Y98.672 E1.89126
G1 X153.93 Y99.206 E.01676
G1 X110.794 Y56.07 E1.91496
G1 X110.261 Y56.07 E.01676
M73 P2 R171
G1 X153.93 Y99.739 E1.93866
G1 X153.93 Y100.273 E.01676
G1 X109.727 Y56.07 E1.96236
G1 X109.193 Y56.07 E.01676
G1 X153.93 Y100.807 E1.98606
G1 X153.93 Y101.341 E.01676
G1 X108.659 Y56.07 E2.00976
G1 X108.125 Y56.07 E.01676
G1 X153.93 Y101.875 E2.03347
G1 X153.93 Y102.409 E.01676
G1 X107.591 Y56.07 E2.05717
G1 X107.057 Y56.07 E.01676
G1 X153.93 Y102.943 E2.08087
G1 X153.93 Y103.477 E.01676
M73 P2 R170
G1 X106.523 Y56.07 E2.10457
G1 X105.989 Y56.07 E.01676
G1 X153.93 Y104.011 E2.12827
G1 X153.93 Y104.545 E.01676
G1 X105.455 Y56.07 E2.15198
G1 X104.922 Y56.07 E.01676
G1 X153.93 Y105.078 E2.17568
G1 X153.93 Y105.612 E.01676
G1 X104.388 Y56.07 E2.19938
G1 X103.854 Y56.07 E.01676
G1 X153.93 Y106.146 E2.22308
G1 X153.93 Y106.68 E.01676
G1 X103.32 Y56.07 E2.24678
G1 X102.786 Y56.07 E.01676
G1 X153.93 Y107.214 E2.27048
G1 X153.93 Y107.748 E.01676
G1 X102.252 Y56.07 E2.29419
G1 X101.718 Y56.07 E.01676
G1 X153.93 Y108.282 E2.31789
G1 X153.93 Y108.816 E.01676
G1 X101.184 Y56.07 E2.34159
G1 X100.65 Y56.07 E.01676
G1 X153.93 Y109.35 E2.36529
G1 X153.93 Y109.884 E.01676
G1 X100.116 Y56.07 E2.38899
G1 X99.583 Y56.07 E.01676
G1 X153.93 Y110.417 E2.41269
G1 X153.93 Y110.951 E.01676
G1 X99.049 Y56.07 E2.4364
G1 X98.515 Y56.07 E.01676
G1 X153.93 Y111.485 E2.4601
G1 X153.93 Y112.019 E.01676
M73 P2 R169
G1 X97.981 Y56.07 E2.4838
G1 X97.447 Y56.07 E.01676
G1 X153.93 Y112.553 E2.5075
G1 X153.93 Y113.087 E.01676
G1 X96.913 Y56.07 E2.5312
G1 X96.379 Y56.07 E.01676
G1 X153.93 Y113.621 E2.55491
G1 X153.93 Y114.155 E.01676
G1 X95.845 Y56.07 E2.57861
G1 X95.311 Y56.07 E.01676
G1 X153.93 Y114.689 E2.60231
G1 X153.93 Y115.223 E.01676
M73 P3 R169
G1 X94.777 Y56.07 E2.62601
G1 X94.244 Y56.07 E.01676
G1 X153.93 Y115.756 E2.64971
G1 X153.93 Y116.29 E.01676
G1 X93.71 Y56.07 E2.67341
G1 X93.176 Y56.07 E.01676
G1 X153.93 Y116.824 E2.69712
G1 X153.93 Y117.358 E.01676
G1 X92.642 Y56.07 E2.72082
G1 X92.108 Y56.07 E.01676
G1 X153.93 Y117.892 E2.74452
G1 X153.93 Y118.426 E.01676
G1 X91.574 Y56.07 E2.76822
G1 X91.04 Y56.07 E.01676
G1 X153.93 Y118.96 E2.79192
G1 X153.93 Y119.494 E.01676
M73 P3 R168
G1 X90.506 Y56.07 E2.81563
G1 X89.972 Y56.07 E.01676
G1 X153.93 Y120.028 E2.83933
G1 X153.93 Y120.561 E.01676
G1 X89.439 Y56.07 E2.86303
G1 X88.905 Y56.07 E.01676
G1 X153.93 Y121.095 E2.88673
G1 X153.93 Y121.629 E.01676
G1 X88.371 Y56.07 E2.91043
G1 X87.837 Y56.07 E.01676
G1 X153.93 Y122.163 E2.93413
G1 X153.93 Y122.697 E.01676
G1 X87.303 Y56.07 E2.95784
G1 X86.769 Y56.07 E.01676
G1 X153.93 Y123.231 E2.98154
G1 X153.93 Y123.765 E.01676
G1 X86.235 Y56.07 E3.00524
G1 X85.701 Y56.07 E.01676
G1 X153.561 Y123.93 E3.01258
G1 X153.028 Y123.93 E.01676
G1 X85.167 Y56.07 E3.01258
G1 X84.633 Y56.07 E.01676
G1 X152.494 Y123.93 E3.01258
G1 X151.96 Y123.93 E.01676
G1 X84.1 Y56.07 E3.01258
G1 X83.566 Y56.07 E.01676
M73 P3 R167
G1 X151.426 Y123.93 E3.01258
G1 X150.892 Y123.93 E.01676
G1 X83.032 Y56.07 E3.01258
G1 X82.498 Y56.07 E.01676
M73 P4 R167
G1 X150.358 Y123.93 E3.01258
G1 X149.824 Y123.93 E.01676
G1 X81.964 Y56.07 E3.01258
G1 X81.43 Y56.07 E.01676
G1 X149.29 Y123.93 E3.01258
G1 X148.756 Y123.93 E.01676
G1 X80.896 Y56.07 E3.01258
G1 X80.362 Y56.07 E.01676
G1 X148.222 Y123.93 E3.01258
G1 X147.689 Y123.93 E.01676
G1 X79.828 Y56.07 E3.01258
G1 X79.294 Y56.07 E.01676
G1 X147.155 Y123.93 E3.01258
G1 X146.621 Y123.93 E.01676
G1 X78.761 Y56.07 E3.01258
G1 X78.227 Y56.07 E.01676
G1 X146.087 Y123.93 E3.01258
G1 X145.553 Y123.93 E.01676
G1 X77.693 Y56.07 E3.01258
G1 X77.159 Y56.07 E.01676
M73 P4 R166
G1 X145.019 Y123.93 E3.01258
G1 X144.485 Y123.93 E.01676
G1 X76.625 Y56.07 E3.01258
G1 X76.091 Y56.07 E.01676
G1 X143.951 Y123.93 E3.01258
G1 X143.417 Y123.93 E.01676
G1 X75.557 Y56.07 E3.01258
G1 X75.023 Y56.07 E.01676
G1 X142.884 Y123.93 E3.01258
G1 X142.35 Y123.93 E.01676
G1 X74.489 Y56.07 E3.01258
G1 X73.955 Y56.07 E.01676
G1 X141.816 Y123.93 E3.01258
G1 X141.282 Y123.93 E.01676
G1 X73.422 Y56.07 E3.01258
G1 X72.888 Y56.07 E.01676
G1 X140.748 Y123.93 E3.01258
G1 X140.214 Y123.93 E.01676
G1 X72.354 Y56.07 E3.01258
G1 X71.82 Y56.07 E.01676
G1 X139.68 Y123.93 E3.01258
G1 X139.146 Y123.93 E.01676
M73 P5 R166
G1 X71.286 Y56.07 E3.01258
G1 X70.752 Y56.07 E.01676
G1 X138.612 Y123.93 E3.01258
G1 X138.078 Y123.93 E.01676
M73 P5 R165
G1 X70.218 Y56.07 E3.01258
G1 X69.684 Y56.07 E.01676
G1 X137.545 Y123.93 E3.01258
G1 X137.011 Y123.93 E.01676
G1 X69.15 Y56.07 E3.01258
G1 X68.616 Y56.07 E.01676
G1 X136.477 Y123.93 E3.01258
G1 X135.943 Y123.93 E.01676
G1 X68.083 Y56.07 E3.01258
G1 X67.549 Y56.07 E.01676
G1 X135.409 Y123.93 E3.01258
G1 X134.875 Y123.93 E.01676
G1 X67.015 Y56.07 E3.01258
G1 X66.481 Y56.07 E.01676
G1 X134.341 Y123.93 E3.01258
G1 X133.807 Y123.93 E.01676
G1 X65.947 Y56.07 E3.01258
G1 X65.413 Y56.07 E.01676
G1 X133.273 Y123.93 E3.01258
G1 X132.739 Y123.93 E.01676
G1 X84.569 Y75.76 E2.13846
G1 X84.569 Y75.538 E.00697
G1 X84.513 Y75.27 E.0086
G1 X84.445 Y75.135 E.00475
G1 X84.347 Y75.005 E.00511
G1 X84.214 Y74.887 E.00557
G1 X84.048 Y74.795 E.00596
G1 X83.869 Y74.743 E.00585
G1 X83.539 Y74.73 E.01036
G1 X64.879 Y56.07 E.8284
G1 X64.345 Y56.07 E.01676
G1 X83.006 Y74.73 E.8284
G1 X82.472 Y74.73 E.01676
G1 X63.811 Y56.07 E.8284
G1 X63.277 Y56.07 E.01676
G1 X81.938 Y74.73 E.8284
G1 X81.404 Y74.73 E.01676
M73 P5 R164
G1 X62.744 Y56.07 E.8284
G1 X62.21 Y56.07 E.01676
G1 X80.87 Y74.73 E.8284
G1 X80.336 Y74.73 E.01676
G1 X61.676 Y56.07 E.8284
G1 X61.142 Y56.07 E.01676
G1 X79.802 Y74.73 E.8284
G1 X79.268 Y74.73 E.01676
G1 X60.608 Y56.07 E.8284
G1 X60.074 Y56.07 E.01676
G1 X78.734 Y74.73 E.8284
G1 X78.2 Y74.73 E.01676
G1 X59.54 Y56.07 E.8284
G1 X59.006 Y56.07 E.01676
G1 X77.667 Y74.73 E.8284
G1 X77.133 Y74.73 E.01676
G1 X58.472 Y56.07 E.8284
G1 X57.939 Y56.07 E.01676
G1 X76.599 Y74.73 E.8284
G1 X76.065 Y74.73 E.01676
G1 X57.405 Y56.07 E.8284
G1 X56.871 Y56.07 E.01676
G1 X75.531 Y74.73 E.8284
G1 X75.274 Y74.73 E.00805
G1 X75.036 Y74.769 E.00757
G1 X56.57 Y56.303 E.81981
G1 X56.569 Y56.836 E.01675
G1 X74.696 Y74.963 E.80473
G1 X74.605 Y75.062 E.00424
G1 X74.521 Y75.195 E.0049
G1 X74.487 Y75.288 E.00312
G1 X56.569 Y57.37 E.79544
G1 X56.569 Y57.904 E.01675
G1 X74.431 Y75.766 E.79296
G1 X74.431 Y76.299 E.01676
G1 X56.568 Y58.437 E.79298
G1 X56.568 Y58.971 E.01675
G1 X74.431 Y76.833 E.79299
G1 X74.431 Y77.367 E.01676
G1 X56.568 Y59.504 E.793
G1 X56.568 Y60.038 E.01675
G1 X74.431 Y77.901 E.79302
G1 X74.431 Y78.435 E.01676
G1 X56.567 Y60.571 E.79303
G1 X56.567 Y61.105 E.01675
G1 X74.431 Y78.969 E.79304
G1 X74.431 Y79.503 E.01676
G1 X56.567 Y61.639 E.79306
G1 X56.566 Y62.172 E.01675
G1 X74.431 Y80.037 E.79307
G1 X74.431 Y80.571 E.01676
G1 X56.53 Y62.669 E.7947
G1 X56.426 Y62.895 E.0078
G1 X56.331 Y63.005 E.00456
G1 X74.431 Y81.104 E.8035
G1 X74.431 Y81.638 E.01676
G1 X56.007 Y63.214 E.81791
G1 X55.913 Y63.249 E.00313
G1 X55.528 Y63.27 E.01209
G1 X74.431 Y82.172 E.83915
G1 X74.431 Y82.706 E.01676
M73 P6 R164
G1 X54.994 Y63.27 E.86285
G1 X54.46 Y63.27 E.01676
G1 X74.431 Y83.24 E.88655
