; generated by PrusaSlicer 2.5.0+win64 on 2022-10-25 at 16:06:28 UTC


;
;

;
;
; 

; external perimeters extrusion width = 0.45mm
; perimeters extrusion width = 0.45mm
; infill extrusion width = 0.45mm
; solid infill extrusion width = 0.45mm
; top infill extrusion width = 0.40mm
; support material extrusion width = 0.35mm
; first layer extrusion width = 0.42mm

M73 P0 R297
M201 X2500 Y2500 Z400 E5000 ; sets maximum accelerations, mm/sec^2
M203 X180 Y180 Z12 E80 ; sets maximum feedrates, mm / sec
M204 P1250 R1250 T2500 ; sets acceleration (P, T) and retract acceleration (R), mm/sec^2
M205 X8.00 Y8.00 Z2.00 E10.00 ; sets the jerk limits, mm/sec
M205 S0 T0 ; sets the minimum extruding and travel feed rate, mm/sec
M107
;TYPE:Custom
M862.3 P "MINI" ; printer model check
G90 ; use absolute coordinates
M83 ; extruder relative mode
M104 S170 ; set extruder temp for bed leveling
M140 S60 ; set bed temp
M109 R170 ; wait for bed leveling temp
M190 S60 ; wait for bed temp
M204 T1250 ; set travel acceleration
G28 ; home all without mesh bed level
G29 ; mesh bed leveling 
M204 T2500 ; restore travel acceleration
M104 S215 ; set extruder temp
G92 E0
G1 Y-2 X179 F2400
G1 Z3 F720
M109 S215 ; wait for extruder temp

; intro line
M73 P0 R296
G1 X170 F1000
G1 Z0.2 F720
G1 X110 E8 F900
G1 X40 E10 F700
G92 E0

M221 S95 ; set flow
G21 ; set units to millimeters
G90 ; use absolute coordinates
M83 ; use relative distances for extrusion
M900 K0.2 ; Filament gcode LA 1.5
; ; Filament gcode LA 1.0
M107
;LAYER_CHANGE
;Z:0.2
;HEIGHT:0.2
;BEFORE_LAYER_CHANGE
G92 E0.0
;0.2


G1 E-3.2 F4200
G1 Z.2 F720
;AFTER_LAYER_CHANGE
;0.2
G1 Z.4
G1 X23.329 Y53.309 F9000
G1 Z.2 F720
G1 E3.2 F2400
M204 P800
;TYPE:Skirt/Brim
;WIDTH:0.42
G1 F1200
G1 X25 Y52.623 E.05663
G1 X155 Y52.623 E4.07606
G1 X156.307 Y53.015 E.04278
G1 X157.297 Y54.388 E.0531
G1 X162.146 Y72.603 E.59098
G1 X162.226 Y73.214 E.01934
G1 X162.226 Y106.786 E1.05262
G1 X162.146 Y107.397 E.01934
G1 X157.297 Y125.612 E.59098
G1 X156.582 Y126.774 E.04278
G1 X155.939 Y127.184 E.02394
G1 X144.638 Y132.041 E.38566
G1 X143.699 Y132.234 E.03005
G1 X45.529 Y132.234 E3.07805
G1 X44.982 Y132.17 E.01728
G1 X24.453 Y127.313 E.66144
G1 X23.271 Y126.631 E.04278
G1 X22.646 Y125.332 E.0452
G1 X17.797 Y90.968 E1.08812
G1 X17.774 Y77.828 E.412
G1 X17.826 Y77.334 E.01557
G1 X22.675 Y54.506 E.73173
G1 X23.301 Y53.362 E.0409
M204 P1000
; printing object road_blocker rev_5_battery.stl id:0 copy 0
G1 E-2.24 F4200
;WIPE_START
G1 F7200
G1 X24.81 Y52.706 E-.912
;WIPE_END
G1 E-.048 F4200
G1 Z.4 F720
G1 X24.52 Y90.636 F9000
G1 Z.2 F720
G1 E3.2 F2400
M204 P800
;TYPE:Support material
G1 F1200
G1 X20.151 Y90.636 E.13698
G1 X20.151 Y77.828 E.40159
G1 X24.52 Y77.828 E.13698
G1 X24.52 Y90.58 E.39982
M204 P1000
G1 X23.802 Y90.467 F9000
M204 P800
G1 F1200
G1 X23.802 Y78.168 E.38563
G1 X23.383 Y78.168 E.01314
G1 X23.383 Y90.297 E.38031
G1 X22.964 Y90.297 E.01314
G1 X22.964 Y78.168 E.38031
G1 X22.545 Y78.168 E.01314
G1 X22.545 Y90.297 E.38031
G1 X22.126 Y90.297 E.01314
G1 X22.126 Y78.168 E.38031
G1 X21.707 Y78.168 E.01314
G1 X21.707 Y90.297 E.38031
G1 X21.288 Y90.297 E.01314
G1 X21.288 Y78.168 E.38031
G1 X20.869 Y78.168 E.01314
G1 X20.869 Y90.467 E.38563
M204 P1000
G1 E-2.24 F4200
;WIPE_START
G1 F7200
G1 X20.869 Y88.821 E-.912
;WIPE_END
G1 E-.048 F4200
G1 Z.4 F720
G1 X25.6 Y93.195 F9000
G1 X25.6 Y124.4
G1 X59.356 Y124.4
G1 X65.259 Y129.857
G1 Z.2 F720
G1 E3.2 F2400
M204 P800
G1 F1200
G1 X45.529 Y129.857 E.6186
G1 X45.529 Y125.48 E.13723
G1 X65.259 Y125.48 E.6186
G1 X65.259 Y129.8 E.13546
M204 P1000
G1 X64.861 Y129.687 F9000
M204 P800
G1 F1200
G1 X64.861 Y125.819 E.12127
G1 X64.442 Y125.819 E.01314
G1 X64.442 Y129.517 E.11595
G1 X64.023 Y129.517 E.01314
G1 X64.023 Y125.819 E.11595
G1 X63.604 Y125.819 E.01314
G1 X63.604 Y129.517 E.11595
G1 X63.185 Y129.517 E.01314
G1 X63.185 Y125.819 E.11595
G1 X62.766 Y125.819 E.01314
G1 X62.766 Y129.517 E.11595
G1 X62.348 Y129.517 E.01314
G1 X62.348 Y125.819 E.11595
G1 X61.929 Y125.819 E.01314
G1 X61.929 Y129.517 E.11595
G1 X61.51 Y129.517 E.01314
G1 X61.51 Y125.819 E.11595
G1 X61.091 Y125.819 E.01314
G1 X61.091 Y129.517 E.11595
G1 X60.672 Y129.517 E.01314
G1 X60.672 Y125.819 E.11595
G1 X60.253 Y125.819 E.01314
G1 X60.253 Y129.517 E.11595
G1 X59.834 Y129.517 E.01314
G1 X59.834 Y125.819 E.11595
G1 X59.415 Y125.819 E.01314
G1 X59.415 Y129.517 E.11595
G1 X58.996 Y129.517 E.01314
G1 X58.996 Y125.819 E.11595
G1 X58.577 Y125.819 E.01314
G1 X58.577 Y129.517 E.11595
G1 X58.158 Y129.517 E.01314
G1 X58.158 Y125.819 E.11595
G1 X57.739 Y125.819 E.01314
G1 X57.739 Y129.517 E.11595
G1 X57.32 Y129.517 E.01314
G1 X57.32 Y125.819 E.11595
G1 X56.901 Y125.819 E.01314
G1 X56.901 Y129.517 E.11595
G1 X56.482 Y129.517 E.01314
G1 X56.482 Y125.819 E.11595
G1 X56.063 Y125.819 E.01314
G1 X56.063 Y129.517 E.11595
G1 X55.644 Y129.517 E.01314
G1 X55.644 Y125.819 E.11595
G1 X55.225 Y125.819 E.01314
G1 X55.225 Y129.517 E.11595
G1 X54.806 Y129.517 E.01314
G1 X54.806 Y125.819 E.11595
G1 X54.387 Y125.819 E.01314
G1 X54.387 Y129.517 E.11595
G1 X53.968 Y129.517 E.01314
G1 X53.968 Y125.819 E.11595
G1 X53.549 Y125.819 E.01314
G1 X53.549 Y129.517 E.11595
G1 X53.13 Y129.517 E.01314
G1 X53.13 Y125.819 E.11595
G1 X52.711 Y125.819 E.01314
G1 X52.711 Y129.517 E.11595
G1 X52.292 Y129.517 E.01314
G1 X52.292 Y125.819 E.11595
G1 X51.873 Y125.819 E.01314
G1 X51.873 Y129.517 E.11595
G1 X51.454 Y129.517 E.01314
G1 X51.454 Y125.819 E.11595
G1 X51.035 Y125.819 E.01314
G1 X51.035 Y129.517 E.11595
G1 X50.616 Y129.517 E.01314
G1 X50.616 Y125.819 E.11595
G1 X50.197 Y125.819 E.01314
G1 X50.197 Y129.517 E.11595
G1 X49.778 Y129.517 E.01314
G1 X49.778 Y125.819 E.11595
G1 X49.359 Y125.819 E.01314
G1 X49.359 Y129.517 E.11595
G1 X48.94 Y129.517 E.01314
G1 X48.94 Y125.819 E.11595
G1 X48.521 Y125.819 E.01314
G1 X48.521 Y129.517 E.11595
G1 X48.102 Y129.517 E.01314
G1 X48.102 Y125.819 E.11595
G1 X47.683 Y125.819 E.01314
G1 X47.683 Y129.517 E.11595
G1 X47.264 Y129.517 E.01314
G1 X47.264 Y125.819 E.11595
G1 X46.845 Y125.819 E.01314
G1 X46.845 Y129.517 E.11595
G1 X46.426 Y129.517 E.01314
G1 X46.426 Y125.819 E.11595
G1 X46.007 Y125.819 E.01314
G1 X46.007 Y129.687 E.12127
M204 P1000
G1 E-3.2 F4200
G1 Z.4 F720
G1 X143.699 Y129.857 F9000
G1 Z.2 F720
G1 E3.2 F2400
M204 P800
G1 F1200
G1 X121.663 Y129.857 E.69094
G1 X121.663 Y125.48 E.13723
G1 X143.699 Y125.48 E.69094
G1 X143.699 Y129.8 E.13546
M204 P1000
G1 X143.21 Y129.687 F9000
M204 P800
G1 F1200
G1 X143.21 Y125.819 E.12127
G1 X142.791 Y125.819 E.01314
G1 X142.791 Y129.517 E.11595
G1 X142.372 Y129.517 E.01314
G1 X142.372 Y125.819 E.11595
G1 X141.953 Y125.819 E.01314
G1 X141.953 Y129.517 E.11595
G1 X141.534 Y129.517 E.01314
G1 X141.534 Y125.819 E.11595
G1 X141.115 Y125.819 E.01314
G1 X141.115 Y129.517 E.11595
G1 X140.696 Y129.517 E.01314
G1 X140.696 Y125.819 E.11595
G1 X140.277 Y125.819 E.01314
M73 P0 R295
G1 X140.277 Y129.517 E.11595
G1 X139.858 Y129.517 E.01314
G1 X139.858 Y125.819 E.11595
G1 X139.439 Y125.819 E.01314
G1 X139.439 Y129.517 E.11595
G1 X139.02 Y129.517 E.01314
G1 X139.02 Y125.819 E.11595
G1 X138.601 Y125.819 E.01314
G1 X138.601 Y129.517 E.11595
G1 X138.182 Y129.517 E.01314
G1 X138.182 Y125.819 E.11595
G1 X137.763 Y125.819 E.01314
G1 X137.763 Y129.517 E.11595
G1 X137.344 Y129.517 E.01314
G1 X137.344 Y125.819 E.11595
G1 X136.925 Y125.819 E.01314
G1 X136.925 Y129.517 E.11595
G1 X136.506 Y129.517 E.01314
G1 X136.506 Y125.819 E.11595
G1 X136.087 Y125.819 E.01314
G1 X136.087 Y129.517 E.11595
G1 X135.668 Y129.517 E.01314
G1 X135.668 Y125.819 E.11595
G1 X135.25 Y125.819 E.01314
G1 X135.25 Y129.517 E.11595
G1 X134.831 Y129.517 E.01314
G1 X134.831 Y125.819 E.11595
G1 X134.412 Y125.819 E.01314
G1 X134.412 Y129.517 E.11595
G1 X133.993 Y129.517 E.01314
G1 X133.993 Y125.819 E.11595
G1 X133.574 Y125.819 E.01314
G1 X133.574 Y129.517 E.11595
G1 X133.155 Y129.517 E.01314
G1 X133.155 Y125.819 E.11595
G1 X132.736 Y125.819 E.01314
G1 X132.736 Y129.517 E.11595
G1 X132.317 Y129.517 E.01314
G1 X132.317 Y125.819 E.11595
G1 X131.898 Y125.819 E.01314
G1 X131.898 Y129.517 E.11595
G1 X131.479 Y129.517 E.01314
G1 X131.479 Y125.819 E.11595
G1 X131.06 Y125.819 E.01314
G1 X131.06 Y129.517 E.11595
G1 X130.641 Y129.517 E.01314
G1 X130.641 Y125.819 E.11595
G1 X130.222 Y125.819 E.01314
G1 X130.222 Y129.517 E.11595
G1 X129.803 Y129.517 E.01314
G1 X129.803 Y125.819 E.11595
G1 X129.384 Y125.819 E.01314
G1 X129.384 Y129.517 E.11595
G1 X128.965 Y129.517 E.01314
G1 X128.965 Y125.819 E.11595
G1 X128.546 Y125.819 E.01314
G1 X128.546 Y129.517 E.11595
G1 X128.127 Y129.517 E.01314
G1 X128.127 Y125.819 E.11595
G1 X127.708 Y125.819 E.01314
G1 X127.708 Y129.517 E.11595
G1 X127.289 Y129.517 E.01314
G1 X127.289 Y125.819 E.11595
G1 X126.87 Y125.819 E.01314
G1 X126.87 Y129.517 E.11595
G1 X126.451 Y129.517 E.01314
G1 X126.451 Y125.819 E.11595
G1 X126.032 Y125.819 E.01314
G1 X126.032 Y129.517 E.11595
G1 X125.613 Y129.517 E.01314
G1 X125.613 Y125.819 E.11595
G1 X125.194 Y125.819 E.01314
G1 X125.194 Y129.517 E.11595
G1 X124.775 Y129.517 E.01314
G1 X124.775 Y125.819 E.11595
G1 X124.356 Y125.819 E.01314
G1 X124.356 Y129.517 E.11595
G1 X123.937 Y129.517 E.01314
G1 X123.937 Y125.819 E.11595
G1 X123.518 Y125.819 E.01314
G1 X123.518 Y129.517 E.11595
G1 X123.099 Y129.517 E.01314
G1 X123.099 Y125.819 E.11595
G1 X122.68 Y125.819 E.01314
G1 X122.68 Y129.517 E.11595
G1 X122.261 Y129.517 E.01314
G1 X122.261 Y125.65 E.12127
M204 P1000
G1 E-2.24 F4200
;WIPE_START
G1 F7200
G1 X122.261 Y127.295 E-.912
;WIPE_END
G1 E-.048 F4200
G1 Z.4 F720
G1 X127.567 Y124.4 F9000
G1 X154.4 Y124.4
G1 X154.4 Y109.759
G1 X159.849 Y106.786
G1 Z.2 F720
G1 E3.2 F2400
M204 P800
G1 F1200
G1 X155.48 Y106.786 E.13698
G1 X155.48 Y73.214 E1.05262
G1 X159.849 Y73.214 E.13698
G1 X159.849 Y106.729 E1.05085
M204 P1000
G1 X159.131 Y106.616 F9000
M204 P800
G1 F1200
G1 X159.131 Y73.553 E1.03666
G1 X158.712 Y73.553 E.01314
G1 X158.712 Y106.447 E1.03134
G1 X158.293 Y106.447 E.01314
G1 X158.293 Y73.553 E1.03134
G1 X157.874 Y73.553 E.01314
G1 X157.874 Y106.447 E1.03134
G1 X157.455 Y106.447 E.01314
G1 X157.455 Y73.553 E1.03134
G1 X157.036 Y73.553 E.01314
G1 X157.036 Y106.447 E1.03134
G1 X156.617 Y106.447 E.01314
G1 X156.617 Y73.553 E1.03134
G1 X156.198 Y73.553 E.01314
G1 X156.198 Y106.616 E1.03666
M204 P1000
G1 E-2.24 F4200
;WIPE_START
G1 F7200
G1 X156.198 Y104.971 E-.912
;WIPE_END
G1 E-.048 F4200
G1 Z.4 F720
G1 X154.4 Y122.399 F9000
G1 X154.4 Y124.213
G1 X154.213 Y124.213
G1 Z.2 F720
G1 E3.2 F2400
M204 P800
;TYPE:Perimeter
;WIDTH:0.419999
G1 F1200
G1 X25.787 Y124.213 E4.0267
G1 X25.787 Y55.787 E2.14544
G1 X154.213 Y55.787 E4.0267
G1 X154.213 Y124.153 E2.14356
M204 P1000
G1 X154.59 Y124.59 F9000
M204 P800
;TYPE:External perimeter
G1 F1200
G1 X25.41 Y124.59 E4.05034
G1 X25.41 Y55.41 E2.16909
G1 X154.59 Y55.41 E4.05034
G1 X154.59 Y124.53 E2.16721
M204 P1000
M73 P0 R294
G1 X154.195 Y124.525 F9000
G1 E-3.2 F4200
G1 Z.4 F720
G1 X108.127 Y108.005 F9000
G1 Z.2 F720
G1 E3.2 F2400
M204 P800
;TYPE:Perimeter
G1 F1200
G1 X108.193 Y108.067 E.00285
G1 X108.285 Y108.325 E.00859
G1 X108.287 Y108.379 E.00167
G1 X108.287 Y116.821 E.26472
G1 X108.221 Y117.088 E.0086
G1 X108.033 Y117.294 E.00874
G1 X107.819 Y117.379 E.00721
G1 X107.721 Y117.387 E.00308
G1 X99.279 Y117.387 E.26472
G1 X99.061 Y117.344 E.00696
G1 X98.826 Y117.161 E.00933
G1 X98.727 Y116.946 E.00743
G1 X98.713 Y116.821 E.00392
G1 X98.713 Y108.379 E.26472
G1 X98.784 Y108.104 E.0089
G1 X98.98 Y107.898 E.00891
G1 X99.279 Y107.813 E.00973
G1 X107.721 Y107.813 E.26472
G1 X107.993 Y107.882 E.00878
G1 X108.082 Y107.965 E.00382
M204 P1000
G1 X107.865 Y108.256 F9000
M204 P800
;TYPE:External perimeter
G1 F1200
G1 X107.91 Y108.379 E.00408
G1 X107.91 Y116.821 E.26472
G1 X107.851 Y116.958 E.00466
G1 X107.721 Y117.01 E.00439
G1 X99.279 Y117.01 E.26472
G1 X99.149 Y116.958 E.00439
G1 X99.09 Y116.821 E.00466
G1 X99.09 Y108.379 E.26472
G1 X99.158 Y108.233 E.00503
G1 X99.279 Y108.19 E.00401
G1 X107.721 Y108.19 E.26472
G1 X107.811 Y108.231 E.00308
M204 P1000
G1 X107.992 Y108.226 F9000
G1 E-3.2 F4200
G1 Z.4 F720
G1 X153.337 Y55.9 F9000
G1 Z.2 F720
G1 E3.2 F2400
M204 P800
;TYPE:Solid infill
;WIDTH:0.420443
G1 F1200
G1 X153.93 Y56.494 E.02635
G1 X153.93 Y57.028 E.01676
G1 X152.972 Y56.07 E.04252
G1 X152.438 Y56.07 E.01676
G1 X153.93 Y57.562 E.06622
G1 X153.93 Y58.095 E.01676
G1 X151.905 Y56.07 E.08992
G1 X151.371 Y56.07 E.01676
G1 X153.93 Y58.629 E.11362
G1 X153.93 Y59.163 E.01676
G1 X150.837 Y56.07 E.13732
G1 X150.303 Y56.07 E.01676
G1 X153.93 Y59.697 E.16103
G1 X153.93 Y60.231 E.01676
G1 X149.769 Y56.07 E.18473
G1 X149.235 Y56.07 E.01676
G1 X153.93 Y60.765 E.20843
G1 X153.93 Y61.299 E.01676
G1 X148.701 Y56.07 E.23213
G1 X148.167 Y56.07 E.01676
G1 X153.93 Y61.833 E.25583
G1 X153.93 Y62.367 E.01676
G1 X147.633 Y56.07 E.27954
G1 X147.1 Y56.07 E.01676
G1 X153.93 Y62.9 E.30324
G1 X153.93 Y63.434 E.01676
G1 X146.566 Y56.07 E.32694
G1 X146.032 Y56.07 E.01676
G1 X153.93 Y63.968 E.35064
G1 X153.93 Y64.502 E.01676
G1 X145.498 Y56.07 E.37434
G1 X144.964 Y56.07 E.01676
G1 X153.93 Y65.036 E.39804
G1 X153.93 Y65.57 E.01676
G1 X144.43 Y56.07 E.42175
G1 X143.896 Y56.07 E.01676
G1 X153.93 Y66.104 E.44545
G1 X153.93 Y66.638 E.01676
G1 X143.362 Y56.07 E.46915
G1 X142.828 Y56.07 E.01676
G1 X153.93 Y67.172 E.49285
G1 X153.93 Y67.706 E.01676
G1 X142.294 Y56.07 E.51655
G1 X141.761 Y56.07 E.01676
G1 X153.93 Y68.239 E.54025
G1 X153.93 Y68.773 E.01676
G1 X141.227 Y56.07 E.56396
G1 X140.693 Y56.07 E.01676
G1 X153.93 Y69.307 E.58766
G1 X153.93 Y69.841 E.01676
G1 X140.159 Y56.07 E.61136
G1 X139.625 Y56.07 E.01676
G1 X153.93 Y70.375 E.63506
G1 X153.93 Y70.909 E.01676
G1 X139.091 Y56.07 E.65876
G1 X138.557 Y56.07 E.01676
G1 X153.93 Y71.443 E.68247
G1 X153.93 Y71.977 E.01676
G1 X138.023 Y56.07 E.70617
G1 X137.489 Y56.07 E.01676
G1 X153.93 Y72.511 E.72987
G1 X153.93 Y73.045 E.01676
G1 X136.955 Y56.07 E.75357
G1 X136.422 Y56.07 E.01676
G1 X153.93 Y73.578 E.77727
G1 X153.93 Y74.112 E.01676
G1 X135.888 Y56.07 E.80097
G1 X135.354 Y56.07 E.01676
G1 X153.93 Y74.646 E.82468
G1 X153.93 Y75.18 E.01676
G1 X134.82 Y56.07 E.84838
G1 X134.286 Y56.07 E.01676
G1 X153.93 Y75.714 E.87208
G1 X153.93 Y76.248 E.01676
G1 X133.752 Y56.07 E.89578
G1 X133.218 Y56.07 E.01676
G1 X153.93 Y76.782 E.91948
G1 X153.93 Y77.316 E.01676
G1 X132.684 Y56.07 E.94319
G1 X132.15 Y56.07 E.01676
G1 X153.93 Y77.85 E.96689
G1 X153.93 Y78.384 E.01676
G1 X131.616 Y56.07 E.99059
G1 X131.083 Y56.07 E.01676
G1 X153.93 Y78.917 E1.01429
G1 X153.93 Y79.451 E.01676
G1 X130.549 Y56.07 E1.03799
G1 X130.015 Y56.07 E.01676
G1 X153.93 Y79.985 E1.06169
G1 X153.93 Y80.519 E.01676
G1 X129.481 Y56.07 E1.0854
G1 X128.947 Y56.07 E.01676
M73 P1 R294
G1 X153.93 Y81.053 E1.1091
G1 X153.93 Y81.587 E.01676
G1 X128.413 Y56.07 E1.1328
G1 X127.879 Y56.07 E.01676
G1 X153.93 Y82.121 E1.1565
G1 X153.93 Y82.655 E.01676
M73 P1 R293
G1 X127.345 Y56.07 E1.1802
G1 X126.811 Y56.07 E.01676
G1 X153.93 Y83.189 E1.2039
G1 X153.93 Y83.723 E.01676
G1 X126.277 Y56.07 E1.22761
G1 X125.744 Y56.07 E.01676
G1 X153.93 Y84.256 E1.25131
G1 X153.93 Y84.79 E.01676
G1 X125.21 Y56.07 E1.27501
G1 X124.676 Y56.07 E.01676
G1 X153.93 Y85.324 E1.29871
G1 X153.93 Y85.858 E.01676
G1 X124.142 Y56.07 E1.32241
G1 X123.608 Y56.07 E.01676
G1 X153.93 Y86.392 E1.34612
G1 X153.93 Y86.926 E.01676
G1 X123.074 Y56.07 E1.36982
G1 X122.54 Y56.07 E.01676
G1 X153.93 Y87.46 E1.39352
G1 X153.93 Y87.994 E.01676
G1 X122.006 Y56.07 E1.41722
G1 X121.472 Y56.07 E.01676
G1 X153.93 Y88.528 E1.44092
G1 X153.93 Y89.062 E.01676
G1 X120.938 Y56.07 E1.46462
G1 X120.405 Y56.07 E.01676
G1 X153.93 Y89.595 E1.48833
G1 X153.93 Y90.129 E.01676
G1 X119.871 Y56.07 E1.51203
G1 X119.337 Y56.07 E.01676
G1 X153.93 Y90.663 E1.53573
G1 X153.93 Y91.197 E.01676
G1 X118.803 Y56.07 E1.55943
G1 X118.269 Y56.07 E.01676
G1 X153.93 Y91.731 E1.58313
G1 X153.93 Y92.265 E.01676
G1 X117.735 Y56.07 E1.60683
G1 X117.201 Y56.07 E.01676
G1 X153.93 Y92.799 E1.63054
G1 X153.93 Y93.333 E.01676
G1 X116.667 Y56.07 E1.65424
G1 X116.133 Y56.07 E.01676
G1 X153.93 Y93.867 E1.67794
G1 X153.93 Y94.4 E.01676
G1 X115.6 Y56.07 E1.70164
G1 X115.066 Y56.07 E.01676
