; generated by PrusaSlicer 2.6.0-alpha5+win64 on 2023-06-19 at 16:31:29 UTC


;
;

;
;
; 

; external perimeters extrusion width = 0.45mm
; perimeters extrusion width = 0.45mm
; infill extrusion width = 0.45mm
; solid infill extrusion width = 0.45mm
; top infill extrusion width = 0.40mm
; support material extrusion width = 0.35mm
; first layer extrusion width = 0.42mm

M73 P0 R94
M201 X2500 Y2500 Z400 E5000 ; sets maximum accelerations, mm/sec^2
M203 X180 Y180 Z12 E80 ; sets maximum feedrates, mm / sec
M204 P2000 R1250 T2500 ; sets acceleration (P, T) and retract acceleration (R), mm/sec^2
M205 X8.00 Y8.00 Z2.00 E10.00 ; sets the jerk limits, mm/sec
M205 S0 T0 ; sets the minimum extruding and travel feed rate, mm/sec
M107
;TYPE:Custom
M862.3 P "MINI" ; printer model check
G90 ; use absolute coordinates
M83 ; extruder relative mode
M104 S170 ; set extruder temp for bed leveling
M140 S60 ; set bed temp
M109 R170 ; wait for bed leveling temp
M190 S60 ; wait for bed temp
M204 T1250 ; set travel acceleration
G28 ; home all without mesh bed level
G29 ; mesh bed leveling 
M204 T2500 ; restore travel acceleration
M104 S215 ; set extruder temp
G92 E0
G1 Y-2 X179 F2400
G1 Z3 F720
M109 S215 ; wait for extruder temp

; intro line
G1 X170 F1000
G1 Z0.2 F720
G1 X110 E8 F900
G1 X40 E10 F700
G92 E0

M221 S95 ; set flow
G21 ; set units to millimeters
G90 ; use absolute coordinates
M83 ; use relative distances for extrusion
M900 K0.2 ; Filament gcode LA 1.5
; ; Filament gcode LA 1.0
M107
;LAYER_CHANGE
;Z:0.2
;HEIGHT:0.2
;BEFORE_LAYER_CHANGE
G92 E0.0
;0.2


G1 E-3.2 F4200
G1 Z.2 F720
;AFTER_LAYER_CHANGE
;0.2
G1 Z.4
G1 X43.015 Y28.693 F9000
G1 Z.2 F720
G1 E3.2 F2400
M204 P600
;TYPE:Skirt/Brim
;WIDTH:0.42
G1 F1200
G1 X44.06 Y27.817 E.04275
G1 X45 Y27.623 E.03009
G1 X135 Y27.623 E2.82189
G1 X136.307 Y28.015 E.04278
G1 X137.183 Y29.06 E.04275
G1 X137.377 Y30 E.03009
G1 X137.377 Y150 E3.76252
G1 X136.985 Y151.307 E.04278
G1 X135.94 Y152.183 E.04275
G1 X135 Y152.377 E.03009
G1 X45 Y152.377 E2.82189
G1 X43.693 Y151.985 E.04278
G1 X42.817 Y150.94 E.04275
G1 X42.623 Y150 E.03009
G1 X42.623 Y30 E3.76252
G1 X42.997 Y28.75 E.04091
M204 P1000
; printing object Netta_road_blocker_cover_June_23.stl id:0 copy 0
G1 E-2.24 F4200
;WIPE_START
G1 F7200
G1 X44.06 Y27.817 E-.7838
G1 X44.371 Y27.753 E-.1762
;WIPE_END
G1 Z.4 F720
G1 X134.213 Y30.787 F9000
G1 Z.2 F720
G1 E3.2 F2400
M204 P600
;TYPE:Perimeter
;WIDTH:0.419999
G1 F1200
G1 X134.213 Y149.213 E3.71316
G1 X45.787 Y149.213 E2.77253
G1 X45.787 Y30.787 E3.71316
G1 X134.153 Y30.787 E2.77065
M204 P1000
M73 P0 R93
G1 X134.59 Y30.41 F9000
M204 P600
;TYPE:External perimeter
M73 P1 R93
G1 F1200
G1 X134.59 Y149.59 E3.7368
G1 X45.41 Y149.59 E2.79617
G1 X45.41 Y30.41 E3.7368
G1 X134.53 Y30.41 E2.79429
M204 P1000
G1 X134.505 Y30.801 F9000
G1 E-2.24 F4200
;WIPE_START
G1 F7200
G1 X134.531 Y32.142 E-.96
;WIPE_END
G1 Z.4 F720
G1 X130.684 Y35.802 F9000
G1 Z.2 F720
G1 E3.2 F2400
M204 P600
;TYPE:Perimeter
G1 F1200
G1 X130.224 Y35.659 E.0151
G1 X129.79 Y35.382 E.01614
G1 X129.481 Y35.03 E.01469
G1 X129.3 Y34.692 E.01202
G1 X129.194 Y34.324 E.01201
G1 X129.166 Y33.941 E.01204
G1 X129.218 Y33.561 E.01203
G1 X129.348 Y33.2 E.01203
G1 X129.578 Y32.846 E.01324
G1 X130.023 Y32.446 E.01876
G1 X130.406 Y32.268 E.01324
G1 X130.956 Y32.163 E.01756
G1 X131.377 Y32.204 E.01326
G1 X131.776 Y32.341 E.01323
G1 X132.266 Y32.671 E.01852
G1 X132.519 Y32.97 E.01228
G1 X132.7 Y33.308 E.01202
G1 X132.806 Y33.676 E.01201
G1 X132.834 Y34.059 E.01204
G1 X132.782 Y34.439 E.01203
G1 X132.652 Y34.8 E.01203
G1 X132.422 Y35.154 E.01324
G1 X131.977 Y35.554 E.01876
G1 X131.594 Y35.732 E.01324
G1 X131.005 Y35.835 E.01875
G1 X130.744 Y35.808 E.00823
M204 P1000
G1 X130.727 Y35.434 F9000
M204 P600
;TYPE:External perimeter
G1 F1200
G1 X130.424 Y35.339 E.00996
G1 X130.029 Y35.091 E.01462
G1 X129.808 Y34.842 E.01044
G1 X129.659 Y34.576 E.00956
G1 X129.569 Y34.284 E.00958
G1 X129.541 Y33.98 E.00957
G1 X129.577 Y33.677 E.00957
G1 X129.675 Y33.388 E.00957
G1 X129.84 Y33.117 E.00995
G1 X130.2 Y32.779 E.01548
G1 X130.484 Y32.637 E.00996
G1 X130.969 Y32.541 E.0155
G1 X131.273 Y32.566 E.00956
G1 X131.576 Y32.661 E.00996
G1 X131.991 Y32.929 E.01549
G1 X132.192 Y33.158 E.00955
G1 X132.341 Y33.424 E.00956
G1 X132.431 Y33.716 E.00958
G1 X132.459 Y34.02 E.00957
G1 X132.423 Y34.323 E.00957
G1 X132.325 Y34.612 E.00957
G1 X132.16 Y34.883 E.00995
G1 X131.8 Y35.221 E.01548
G1 X131.516 Y35.363 E.00996
G1 X131.031 Y35.459 E.0155
G1 X130.787 Y35.439 E.00768
M204 P1000
G1 X130.524 Y35.677 F9000
G1 E-2.24 F4200
;WIPE_START
G1 F7200
G1 X130.424 Y35.339 E-.20866
G1 X130.029 Y35.091 E-.25846
G1 X129.808 Y34.842 E-.1845
G1 X129.659 Y34.576 E-.16896
G1 X129.585 Y34.336 E-.13942
;WIPE_END
G1 Z.4 F720
G1 X94.545 Y64.965 F9000
G1 Z.2 F720
G1 E3.2 F2400
M204 P600
;TYPE:Perimeter
G1 F1200
G1 X95.191 Y65.631 E.02909
G1 X95.734 Y66.371 E.02878
G1 X96.183 Y67.204 E.02967
G1 X96.512 Y68.092 E.02969
G1 X96.718 Y69.046 E.0306
G1 X96.786 Y69.961 E.02877
G1 X96.725 Y70.905 E.02966
G1 X96.534 Y71.832 E.02968
G1 X96.202 Y72.751 E.03064
G1 X95.775 Y73.563 E.02877
G1 X95.224 Y74.332 E.02966
G1 X94.57 Y75.016 E.02967
G1 X93.827 Y75.604 E.02971
G1 X93.01 Y76.082 E.02968
G1 X92.134 Y76.442 E.0297
G1 X91.217 Y76.676 E.02967
G1 X90.276 Y76.78 E.02968
G1 X89.33 Y76.753 E.02967
G1 X88.397 Y76.594 E.02968
G1 X87.495 Y76.307 E.02968
G1 X86.641 Y75.896 E.02972
G1 X85.853 Y75.372 E.02967
G1 X85.146 Y74.742 E.02969
G1 X84.565 Y74.059 E.02811
G1 X84.027 Y73.221 E.03122
G1 X83.637 Y72.358 E.02969
G1 X83.371 Y71.449 E.0297
G1 X83.233 Y70.513 E.02966
G1 X83.231 Y69.536 E.03063
G1 X83.354 Y68.627 E.02876
G1 X83.622 Y67.678 E.03092
G1 X83.99 Y66.849 E.02844
G1 X84.505 Y66.02 E.0306
G1 X85.092 Y65.314 E.02879
G1 X85.791 Y64.677 E.02965
G1 X86.549 Y64.158 E.0288
G1 X87.42 Y63.724 E.03051
G1 X88.32 Y63.425 E.02974
G1 X89.251 Y63.255 E.02967
G1 X90.197 Y63.217 E.02969
G1 X91.139 Y63.31 E.02968
G1 X92.059 Y63.534 E.02969
G1 X92.939 Y63.884 E.02969
G1 X93.762 Y64.352 E.02968
G1 X94.502 Y64.923 E.02931
M204 P1000
G1 X94.366 Y65.318 F9000
M204 P600
;TYPE:External perimeter
G1 F1200
G1 X94.919 Y65.892 E.02499
G1 X95.429 Y66.592 E.02716
G1 X95.85 Y67.381 E.02804
G1 X96.158 Y68.221 E.02805
G1 X96.349 Y69.123 E.02891
G1 X96.41 Y69.987 E.02716
G1 X96.349 Y70.879 E.02803
G1 X96.165 Y71.754 E.02803
G1 X95.848 Y72.621 E.02894
G1 X95.443 Y73.386 E.02714
G1 X94.919 Y74.11 E.02802
G1 X94.299 Y74.755 E.02805
G1 X93.595 Y75.306 E.02803
G1 X92.822 Y75.755 E.02803
G1 X91.993 Y76.092 E.02806
G1 X91.126 Y76.31 E.02803
G1 X90.237 Y76.405 E.02803
G1 X89.343 Y76.376 E.02805
G1 X88.462 Y76.222 E.02804
G1 X87.611 Y75.948 E.02803
G1 X86.807 Y75.558 E.02802
G1 X86.064 Y75.059 E.02806
G1 X85.398 Y74.462 E.02804
G1 X84.854 Y73.816 E.02648
G1 X84.347 Y73.021 E.02956
G1 X83.981 Y72.205 E.02804
G1 X83.733 Y71.345 E.02806
G1 X83.607 Y70.46 E.02803
G1 X83.608 Y69.538 E.02891
G1 X83.728 Y68.68 E.02716
G1 X83.976 Y67.808 E.02843
G1 X84.334 Y67.002 E.02765
G1 X84.824 Y66.221 E.02891
G1 X85.38 Y65.557 E.02715
G1 X86.043 Y64.957 E.02804
G1 X86.76 Y64.471 E.02716
G1 X87.586 Y64.062 E.0289
G1 X88.437 Y63.784 E.02807
G1 X89.317 Y63.627 E.02803
G1 X90.211 Y63.594 E.02805
G1 X91.1 Y63.685 E.02802
G1 X91.968 Y63.9 E.02804
G1 X92.798 Y64.233 E.02804
G1 X93.573 Y64.679 E.02804
G1 X94.324 Y65.274 E.03004
M204 P1000
G1 X94.747 Y65.196 F9000
G1 E-2.24 F4200
;WIPE_START
G1 F7200
G1 X94.919 Y65.892 E-.47541
G1 X95.429 Y66.592 E-.47995
G1 X95.433 Y66.599 E-.00464
;WIPE_END
G1 Z.4 F720
G1 X95.191 Y107.366 F9000
G1 Z.2 F720
G1 E3.2 F2400
M204 P600
;TYPE:Perimeter
G1 F1200
G1 X94.57 Y108.016 E.02819
G1 X93.827 Y108.604 E.02971
G1 X93.01 Y109.082 E.02968
G1 X92.134 Y109.442 E.0297
G1 X91.217 Y109.676 E.02967
G1 X90.276 Y109.78 E.02968
G1 X89.33 Y109.753 E.02967
G1 X88.397 Y109.594 E.02968
G1 X87.495 Y109.307 E.02968
G1 X86.641 Y108.896 E.02972
G1 X85.853 Y108.372 E.02967
G1 X85.334 Y107.912 E.02174
G1 X85.091 Y107.685 E.01043
G1 X84.533 Y107.021 E.02719
G1 X84.027 Y106.221 E.02968
G1 X83.637 Y105.358 E.02969
G1 X83.371 Y104.449 E.0297
G1 X83.233 Y103.513 E.02966
G1 X83.231 Y102.536 E.03063
G1 X83.354 Y101.627 E.02876
G1 X83.61 Y100.716 E.02967
G1 X83.99 Y99.849 E.02968
G1 X84.505 Y99.02 E.0306
G1 X85.078 Y98.331 E.0281
G1 X85.769 Y97.695 E.02945
G1 X86.571 Y97.144 E.03051
G1 X87.395 Y96.735 E.02884
G1 X88.318 Y96.426 E.03052
G1 X89.223 Y96.259 E.02885
G1 X90.196 Y96.217 E.03054
G1 X91.139 Y96.31 E.02971
G1 X92.059 Y96.534 E.02969
G1 X92.939 Y96.884 E.02969
G1 X93.762 Y97.352 E.02968
G1 X94.511 Y97.931 E.02968
G1 X95.173 Y98.608 E.02969
G1 X95.776 Y99.438 E.03217
G1 X96.183 Y100.204 E.0272
G1 X96.512 Y101.092 E.02969
G1 X96.714 Y102.017 E.02969
G1 X96.786 Y102.961 E.02968
G1 X96.72 Y103.935 E.03061
G1 X96.534 Y104.833 E.02875
G1 X96.202 Y105.751 E.03061
G1 X95.775 Y106.563 E.02877
G1 X95.231 Y107.321 E.02925
M204 P1000
G1 X94.989 Y107.013 F9000
M204 P600
;TYPE:External perimeter
G1 F1200
G1 X94.919 Y107.11 E.00375
G1 X94.299 Y107.755 E.02805
G1 X93.595 Y108.307 E.02805
G1 X92.822 Y108.755 E.02801
G1 X91.993 Y109.092 E.02806
G1 X91.126 Y109.31 E.02803
G1 X90.237 Y109.405 E.02803
G1 X89.343 Y109.376 E.02805
G1 X88.462 Y109.222 E.02804
G1 X87.611 Y108.948 E.02803
G1 X86.807 Y108.558 E.02802
G1 X86.064 Y108.059 E.02806
G1 X85.38 Y107.443 E.02886
G1 X84.822 Y106.778 E.02722
G1 X84.347 Y106.021 E.02802
G1 X83.981 Y105.205 E.02804
G1 X83.733 Y104.345 E.02806
G1 X83.607 Y103.46 E.02803
G1 X83.608 Y102.538 E.02891
G1 X83.728 Y101.68 E.02716
G1 X83.972 Y100.82 E.02803
G1 X84.334 Y100.002 E.02805
G1 X84.824 Y99.221 E.02891
G1 X85.366 Y98.574 E.02646
G1 X86.022 Y97.975 E.02785
G1 X86.783 Y97.456 E.02888
G1 X87.561 Y97.073 E.02719
G1 X88.436 Y96.784 E.02889
G1 X89.289 Y96.631 E.02717
G1 X90.21 Y96.594 E.0289
G1 X91.1 Y96.685 E.02805
G1 X91.968 Y96.9 E.02804
G1 X92.798 Y97.233 E.02804
G1 X93.573 Y97.679 E.02804
G1 X94.279 Y98.228 E.02804
G1 X94.902 Y98.87 E.02805
G1 X95.443 Y99.615 E.02887
G1 X95.85 Y100.381 E.0272
G1 X96.158 Y101.221 E.02805
G1 X96.345 Y102.095 E.02802
G1 X96.41 Y102.987 E.02804
G1 X96.344 Y103.907 E.02892
G1 X96.165 Y104.754 E.02714
G1 X95.848 Y105.621 E.02894
G1 X95.443 Y106.386 E.02714
G1 X95.024 Y106.964 E.02238
M204 P1000
G1 X95.04 Y107.121 F9000
G1 E-2.24 F4200
;WIPE_START
G1 F7200
G1 X94.919 Y107.11 E-.09966
G1 X94.299 Y107.755 E-.49579
G1 X93.781 Y108.161 E-.36455
;WIPE_END
G1 Z.4 F720
G1 X130.686 Y147.802 F9000
G1 Z.2 F720
G1 E3.2 F2400
M204 P600
;TYPE:Perimeter
G1 F1200
G1 X130.623 Y147.796 E.00198
G1 X130.224 Y147.659 E.01323
G1 X129.729 Y147.324 E.01874
G1 X129.481 Y147.03 E.01206
G1 X129.3 Y146.692 E.01202
G1 X129.194 Y146.324 E.01201
G1 X129.166 Y145.941 E.01204
G1 X129.218 Y145.561 E.01203
G1 X129.348 Y145.2 E.01203
G1 X129.578 Y144.846 E.01324
G1 X129.948 Y144.495 E.01599
G1 X130.406 Y144.268 E.01603
G1 X130.995 Y144.165 E.01875
G1 X131.377 Y144.204 E.01204
G1 X131.776 Y144.341 E.01323
G1 X132.271 Y144.676 E.01874
G1 X132.519 Y144.97 E.01206
G1 X132.7 Y145.308 E.01202
G1 X132.806 Y145.676 E.01201
G1 X132.834 Y146.059 E.01204
G1 X132.782 Y146.439 E.01203
G1 X132.652 Y146.8 E.01203
G1 X132.422 Y147.154 E.01324
G1 X131.977 Y147.554 E.01876
G1 X131.594 Y147.732 E.01324
G1 X131.044 Y147.837 E.01756
G1 X130.746 Y147.808 E.00939
M204 P1000
G1 X130.727 Y147.434 F9000
M204 P600
;TYPE:External perimeter
G1 F1200
G1 X130.424 Y147.339 E.00996
G1 X130.009 Y147.071 E.01549
G1 X129.808 Y146.842 E.00955
G1 X129.659 Y146.576 E.00956
G1 X129.569 Y146.284 E.00958
G1 X129.541 Y145.98 E.00957
G1 X129.577 Y145.677 E.00957
G1 X129.675 Y145.388 E.00957
G1 X129.84 Y145.117 E.00995
G1 X130.2 Y144.779 E.01548
G1 X130.484 Y144.637 E.00996
G1 X130.969 Y144.541 E.0155
G1 X131.273 Y144.566 E.00956
G1 X131.576 Y144.661 E.00996
G1 X131.991 Y144.929 E.01549
G1 X132.192 Y145.158 E.00955
G1 X132.341 Y145.424 E.00956
G1 X132.431 Y145.716 E.00958
G1 X132.459 Y146.02 E.00957
G1 X132.423 Y146.323 E.00957
G1 X132.325 Y146.612 E.00957
G1 X132.16 Y146.883 E.00995
G1 X131.8 Y147.221 E.01548
G1 X131.516 Y147.363 E.00996
G1 X131.031 Y147.459 E.0155
G1 X130.787 Y147.439 E.00768
M204 P1000
G1 X130.524 Y147.677 F9000
G1 E-2.24 F4200
;WIPE_START
G1 F7200
G1 X130.424 Y147.339 E-.20866
G1 X130.009 Y147.071 E-.27377
G1 X129.808 Y146.842 E-.16885
G1 X129.659 Y146.576 E-.16896
G1 X129.585 Y146.335 E-.13976
;WIPE_END
G1 Z.4 F720
G1 X48.685 Y147.802 F9000
G1 Z.2 F720
G1 E3.2 F2400
M204 P600
;TYPE:Perimeter
G1 F1200
G1 X48.623 Y147.796 E.00195
G1 X48.224 Y147.659 E.01323
G1 X47.734 Y147.329 E.01852
G1 X47.481 Y147.03 E.01228
G1 X47.3 Y146.692 E.01202
G1 X47.194 Y146.324 E.01201
G1 X47.166 Y145.941 E.01204
G1 X47.218 Y145.561 E.01203
G1 X47.348 Y145.2 E.01203
G1 X47.578 Y144.846 E.01324
G1 X48.023 Y144.446 E.01876
G1 X48.406 Y144.268 E.01324
G1 X48.838 Y144.176 E.01385
G1 X49.26 Y144.183 E.01323
G1 X49.736 Y144.319 E.01552
G1 X50.183 Y144.597 E.0165
G1 X50.519 Y144.97 E.01574
G1 X50.7 Y145.308 E.01202
G1 X50.806 Y145.676 E.01201
G1 X50.834 Y146.059 E.01204
G1 X50.782 Y146.439 E.01203
G1 X50.652 Y146.8 E.01203
G1 X50.422 Y147.154 E.01324
G1 X49.977 Y147.554 E.01876
G1 X49.594 Y147.732 E.01324
G1 X49.044 Y147.837 E.01756
G1 X48.744 Y147.808 E.00945
M204 P1000
G1 X48.705 Y147.427 F9000
M204 P600
;TYPE:External perimeter
G1 F1200
G1 X48.424 Y147.339 E.00923
G1 X48.009 Y147.071 E.01549
G1 X47.808 Y146.842 E.00955
G1 X47.659 Y146.576 E.00956
G1 X47.569 Y146.284 E.00958
G1 X47.541 Y145.98 E.00957
G1 X47.577 Y145.677 E.00957
G1 X47.675 Y145.388 E.00957
G1 X47.84 Y145.117 E.00995
G1 X48.2 Y144.779 E.01548
G1 X48.484 Y144.637 E.00996
G1 X48.916 Y144.545 E.01385
G1 X49.273 Y144.566 E.01121
G1 X49.576 Y144.661 E.00996
G1 X49.991 Y144.929 E.01549
G1 X50.192 Y145.158 E.00955
G1 X50.341 Y145.424 E.00956
G1 X50.431 Y145.716 E.00958
G1 X50.459 Y146.02 E.00957
G1 X50.423 Y146.323 E.00957
G1 X50.325 Y146.612 E.00957
G1 X50.16 Y146.883 E.00995
G1 X49.8 Y147.221 E.01548
G1 X49.516 Y147.363 E.00996
G1 X49.031 Y147.459 E.0155
G1 X48.764 Y147.437 E.0084
M204 P1000
G1 X48.516 Y147.652 F9000
G1 E-2.24 F4200
;WIPE_START
G1 F7200
G1 X48.424 Y147.339 E-.19609
G1 X48.009 Y147.071 E-.27377
G1 X47.808 Y146.842 E-.16885
G1 X47.659 Y146.576 E-.16896
G1 X47.578 Y146.313 E-.15233
;WIPE_END
G1 Z.4 F720
G1 X48.684 Y35.802 F9000
G1 Z.2 F720
G1 E3.2 F2400
M204 P600
;TYPE:Perimeter
G1 F1200
G1 X48.224 Y35.659 E.0151
G1 X47.729 Y35.324 E.01874
G1 X47.481 Y35.03 E.01206
G1 X47.3 Y34.692 E.01202
G1 X47.194 Y34.324 E.01201
G1 X47.166 Y33.941 E.01204
G1 X47.218 Y33.561 E.01203
G1 X47.348 Y33.2 E.01203
G1 X47.481 Y32.97 E.00833
G1 X47.896 Y32.539 E.01876
G1 X48.258 Y32.322 E.01323
G1 X48.838 Y32.176 E.01875
G1 X49.26 Y32.183 E.01323
G1 X49.632 Y32.277 E.01203
G1 X50.151 Y32.575 E.01876
G1 X50.449 Y32.874 E.01324
G1 X50.7 Y33.308 E.01572
G1 X50.806 Y33.676 E.01201
G1 X50.834 Y34.059 E.01204
G1 X50.782 Y34.439 E.01203
G1 X50.652 Y34.8 E.01203
G1 X50.422 Y35.154 E.01324
G1 X50.052 Y35.505 E.01599
G1 X49.594 Y35.732 E.01603
G1 X49.005 Y35.835 E.01875
G1 X48.744 Y35.808 E.00823
M204 P1000
G1 X48.727 Y35.434 F9000
M204 P600
;TYPE:External perimeter
G1 F1200
G1 X48.424 Y35.339 E.00996
G1 X48.009 Y35.071 E.01549
G1 X47.808 Y34.842 E.00955
G1 X47.659 Y34.576 E.00956
G1 X47.569 Y34.284 E.00958
G1 X47.541 Y33.98 E.00957
G1 X47.577 Y33.677 E.00957
G1 X47.675 Y33.388 E.00957
G1 X47.808 Y33.159 E.0083
G1 X48.2 Y32.779 E.01712
G1 X48.484 Y32.637 E.00996
G1 X48.969 Y32.541 E.0155
G1 X49.273 Y32.566 E.00956
G1 X49.576 Y32.661 E.00996
G1 X49.991 Y32.929 E.01549
G1 X50.192 Y33.158 E.00955
G1 X50.341 Y33.424 E.00956
G1 X50.431 Y33.716 E.00958
G1 X50.459 Y34.02 E.00957
G1 X50.423 Y34.323 E.00957
G1 X50.325 Y34.612 E.00957
G1 X50.16 Y34.883 E.00995
G1 X49.8 Y35.221 E.01548
G1 X49.516 Y35.363 E.00996
G1 X49.031 Y35.459 E.0155
G1 X48.787 Y35.439 E.00768
M204 P1000
G1 X48.524 Y35.677 F9000
G1 E-2.24 F4200
;WIPE_START
G1 F7200
G1 X48.424 Y35.339 E-.20866
G1 X48.009 Y35.071 E-.27377
G1 X47.808 Y34.842 E-.16885
G1 X47.659 Y34.576 E-.16896
G1 X47.585 Y34.335 E-.13976
;WIPE_END
G1 Z.4 F720
G1 X134.043 Y31.721 F9000
G1 Z.2 F720
G1 E3.2 F2400
M204 P600
;TYPE:Solid infill
